P3
600 600
255
0 0 0
0 0 0
0 0 0
0 0 0
0 0 0
0 0 0
0 0 0
0 0 0
0 0 0
0 0 0
0 0 0
0 0 0
0 0 0
0 0 0
0 0 0
0 0 0
0 0 0
0 0 0
0 0 0
0 0 0
0 0 0
0 0 0
0 0 0
0 0 0
0 0 0
0 0 0
0 0 0
0 0 0
0 0 0
0 0 0
0 0 0
0 0 0
0 0 0
0 0 0
0 0 0
0 0 0
0 0 0
0 0 0
0 0 0
0 0 0
0 0 0
0 0 0
0 0 0
0 0 0
0 0 0
0 0 0
0 0 0
0 0 0
0 0 0
0 0 0
0 0 0
0 0 0
0 0 0
0 0 0
0 0 0
0 0 0
0 0 0
0 0 0
0 0 0
0 0 0
0 0 0
0 0 0
0 0 0
0 0 0
0 0 0
0 0 0
0 0 0
0 0 0
0 0 0
0 0 0
0 0 0
0 0 0
0 0 0
0 0 0
0 0 0
0 0 0
0 0 0
0 0 0
0 0 0
0 0 0
0 0 0
0 0 0
0 0 0
0 0 0
0 0 0
0 0 0
0 0 0
0 0 0
0 0 0
0 0 0
0 0 0
0 0 0
0 0 0
0 0 0
0 0 0
0 0 0
0 0 0
0 0 0
0 0 0
0 0 0
0 0 0
0 0 0
0 0 0
0 0 0
0 0 0
0 0 0
0 0 0
0 0 0
0 0 0
0 0 0
0 0 0
0 0 0
0 0 0
0 0 0
0 0 0
0 0 0
0 0 0
0 0 0
0 0 0
0 0 0
0 0 0
0 0 0
0 0 0
0 0 0
0 0 0
0 0 0
0 0 0
0 0 0
0 0 0
0 0 0
0 0 0
0 0 0
0 0 0
0 0 0
0 0 0
0 0 0
0 0 0
0 0 0
0 0 0
0 0 0
0 0 0
0 0 0
0 0 0
0 0 0
0 0 0
0 0 0
0 0 0
0 0 0
0 0 0
0 0 0
0 0 0
0 0 0
0 0 0
0 0 0
0 0 0
0 0 0
0 0 0
0 0 0
0 0 0
0 0 0
0 0 0
0 0 0
0 0 0
0 0 0
0 0 0
0 0 0
0 0 0
0 0 0
0 0 0
0 0 0
0 0 0
0 0 0
0 0 0
0 0 0
0 0 0
0 0 0
0 0 0
0 0 0
0 0 0
0 0 0
0 0 0
0 0 0
0 0 0
0 0 0
0 0 0
0 0 0
0 0 0
0 0 0
0 0 0
0 0 0
0 0 0
0 0 0
0 0 0
0 0 0
0 0 0
0 0 0
0 0 0
0 0 0
0 0 0
0 0 0
0 0 0
0 0 0
0 0 0
0 0 0
0 0 0
0 0 0
0 0 0
0 0 0
0 0 0
0 0 0
0 0 0
0 0 0
0 0 0
0 0 0
0 0 0
0 0 0
0 0 0
0 0 0
0 0 0
0 0 0
0 0 0
0 0 0
0 0 0
0 0 0
0 0 0
0 0 0
0 0 0
0 0 0
0 0 0
0 0 0
0 0 0
0 0 0
0 0 0
0 0 0
0 0 0
0 0 0
0 0 0
0 0 0
0 0 0
0 0 0
0 0 0
0 0 0
0 0 0
0 0 0
0 0 0
0 0 0
0 0 0
0 0 0
0 0 0
0 0 0
0 0 0
0 0 0
0 0 0
0 0 0
0 0 0
0 0 0
0 0 0
0 0 0
0 0 0
0 0 0
0 0 0
0 0 0
0 0 0
0 0 0
0 0 0
0 0 0
0 0 0
0 0 0
0 0 0
0 0 0
0 0 0
0 0 0
0 0 0
0 0 0
0 0 0
0 0 0
0 0 0
0 0 0
0 0 0
0 0 0
0 0 0
0 0 0
0 0 0
0 0 0
0 0 0
0 0 0
0 0 0
0 0 0
0 0 0
0 0 0
0 0 0
0 0 0
0 0 0
0 0 0
0 0 0
0 0 0
0 0 0
0 0 0
0 0 0
0 0 0
0 0 0
0 0 0
0 0 0
0 0 0
0 0 0
0 0 0
0 0 0
0 0 0
0 0 0
0 0 0
0 0 0
0 0 0
0 0 0
0 0 0
0 0 0
0 0 0
0 0 0
0 0 0
0 0 0
0 0 0
0 0 0
0 0 0
0 0 0
0 0 0
0 0 0
0 0 0
0 0 0
0 0 0
0 0 0
0 0 0
0 0 0
0 0 0
0 0 0
0 0 0
0 0 0
0 0 0
0 0 0
0 0 0
0 0 0
0 0 0
0 0 0
0 0 0
0 0 0
0 0 0
0 0 0
0 0 0
0 0 0
0 0 0
0 0 0
0 0 0
0 0 0
0 0 0
0 0 0
0 0 0
0 0 0
0 0 0
0 0 0
0 0 0
0 0 0
0 0 0
0 0 0
0 0 0
0 0 0
0 0 0
0 0 0
0 0 0
0 0 0
0 0 0
0 0 0
0 0 0
0 0 0
0 0 0
0 0 0
0 0 0
0 0 0
0 0 0
0 0 0
0 0 0
0 0 0
0 0 0
0 0 0
0 0 0
0 0 0
0 0 0
0 0 0
0 0 0
0 0 0
0 0 0
0 0 0
0 0 0
0 0 0
0 0 0
0 0 0
0 0 0
0 0 0
0 0 0
0 0 0
0 0 0
0 0 0
0 0 0
0 0 0
0 0 0
0 0 0
0 0 0
0 0 0
0 0 0
0 0 0
0 0 0
0 0 0
0 0 0
0 0 0
0 0 0
0 0 0
0 0 0
0 0 0
0 0 0
0 0 0
0 0 0
0 0 0
0 0 0
0 0 0
0 0 0
0 0 0
0 0 0
0 0 0
0 0 0
0 0 0
0 0 0
0 0 0
0 0 0
0 0 0
0 0 0
0 0 0
0 0 0
0 0 0
0 0 0
0 0 0
0 0 0
0 0 0
0 0 0
0 0 0
0 0 0
0 0 0
0 0 0
0 0 0
0 0 0
0 0 0
0 0 0
0 0 0
0 0 0
0 0 0
0 0 0
0 0 0
0 0 0
0 0 0
0 0 0
0 0 0
0 0 0
0 0 0
0 0 0
0 0 0
0 0 0
0 0 0
0 0 0
0 0 0
0 0 0
0 0 0
0 0 0
0 0 0
0 0 0
0 0 0
0 0 0
0 0 0
0 0 0
0 0 0
0 0 0
0 0 0
0 0 0
0 0 0
0 0 0
0 0 0
0 0 0
0 0 0
0 0 0
0 0 0
0 0 0
0 0 0
0 0 0
0 0 0
0 0 0
0 0 0
0 0 0
0 0 0
0 0 0
0 0 0
0 0 0
0 0 0
0 0 0
0 0 0
0 0 0
0 0 0
0 0 0
0 0 0
0 0 0
0 0 0
0 0 0
0 0 0
0 0 0
0 0 0
0 0 0
0 0 0
0 0 0
0 0 0
0 0 0
0 0 0
0 0 0
0 0 0
0 0 0
0 0 0
0 0 0
0 0 0
0 0 0
0 0 0
0 0 0
0 0 0
0 0 0
0 0 0
0 0 0
0 0 0
0 0 0
0 0 0
0 0 0
0 0 0
0 0 0
0 0 0
0 0 0
0 0 0
0 0 0
0 0 0
0 0 0
0 0 0
0 0 0
0 0 0
0 0 0
0 0 0
0 0 0
0 0 0
0 0 0
0 0 0
0 0 0
0 0 0
0 0 0
0 0 0
0 0 0
0 0 0
0 0 0
0 0 0
0 0 0
0 0 0
0 0 0
0 0 0
0 0 0
0 0 0
0 0 0
0 0 0
0 0 0
0 0 0
0 0 0
0 0 0
0 0 0
0 0 0
0 0 0
0 0 0
0 0 0
0 0 0
0 0 0
0 0 0
0 0 0
0 0 0
0 0 0
0 0 0
0 0 0
0 0 0
0 0 0
0 0 0
0 0 0
0 0 0
0 0 0
0 0 0
0 0 0
0 0 0
0 0 0
0 0 0
0 0 0
0 0 0
0 0 0
0 0 0
0 0 0
0 0 0
0 0 0
0 0 0
0 0 0
0 0 0
0 0 0
0 0 0
0 0 0
0 0 0
0 0 0
0 0 0
0 0 0
0 0 0
0 0 0
0 0 0
0 0 0
0 0 0
0 0 0
0 0 0
0 0 0
0 0 0
0 0 0
0 0 0
0 0 0
0 0 0
0 0 0
0 0 0
0 0 0
0 0 0
0 0 0
0 0 0
0 0 0
0 0 0
0 0 0
0 0 0
0 0 0
0 0 0
0 0 0
0 0 0
0 0 0
0 0 0
0 0 0
0 0 0
0 0 0
0 0 0
0 0 0
0 0 0
0 0 0
0 0 0
0 0 0
0 0 0
0 0 0
0 0 0
0 0 0
0 0 0
0 0 0
0 0 0
0 0 0
0 0 0
0 0 0
0 0 0
0 0 0
0 0 0
0 0 0
0 0 0
0 0 0
0 0 0
0 0 0
0 0 0
0 0 0
0 0 0
0 0 0
0 0 0
0 0 0
0 0 0
0 0 0
0 0 0
0 0 0
0 0 0
0 0 0
0 0 0
0 0 0
0 0 0
0 0 0
0 0 0
0 0 0
0 0 0
0 0 0
0 0 0
0 0 0
0 0 0
0 0 0
0 0 0
0 0 0
0 0 0
0 0 0
0 0 0
0 0 0
0 0 0
0 0 0
0 0 0
0 0 0
0 0 0
0 0 0
0 0 0
0 0 0
0 0 0
0 0 0
0 0 0
0 0 0
0 0 0
0 0 0
0 0 0
0 0 0
0 0 0
0 0 0
0 0 0
0 0 0
0 0 0
0 0 0
0 0 0
0 0 0
0 0 0
0 0 0
0 0 0
0 0 0
0 0 0
0 0 0
0 0 0
0 0 0
0 0 0
0 0 0
0 0 0
0 0 0
0 0 0
0 0 0
0 0 0
0 0 0
0 0 0
0 0 0
0 0 0
0 0 0
0 0 0
0 0 0
0 0 0
0 0 0
0 0 0
0 0 0
0 0 0
0 0 0
0 0 0
0 0 0
0 0 0
0 0 0
0 0 0
0 0 0
0 0 0
0 0 0
0 0 0
0 0 0
0 0 0
0 0 0
0 0 0
0 0 0
0 0 0
0 0 0
0 0 0
0 0 0
0 0 0
0 0 0
0 0 0
0 0 0
0 0 0
0 0 0
0 0 0
0 0 0
0 0 0
0 0 0
0 0 0
0 0 0
0 0 0
0 0 0
0 0 0
0 0 0
0 0 0
0 0 0
0 0 0
0 0 0
0 0 0
0 0 0
0 0 0
0 0 0
0 0 0
0 0 0
0 0 0
0 0 0
0 0 0
0 0 0
0 0 0
0 0 0
0 0 0
0 0 0
0 0 0
0 0 0
0 0 0
0 0 0
0 0 0
0 0 0
0 0 0
0 0 0
0 0 0
0 0 0
0 0 0
0 0 0
0 0 0
0 0 0
0 0 0
0 0 0
0 0 0
0 0 0
0 0 0
0 0 0
0 0 0
0 0 0
0 0 0
0 0 0
0 0 0
0 0 0
0 0 0
0 0 0
0 0 0
0 0 0
0 0 0
0 0 0
0 0 0
0 0 0
0 0 0
0 0 0
0 0 0
0 0 0
0 0 0
0 0 0
0 0 0
0 0 0
0 0 0
0 0 0
0 0 0
0 0 0
0 0 0
0 0 0
0 0 0
0 0 0
0 0 0
0 0 0
0 0 0
0 0 0
0 0 0
0 0 0
0 0 0
0 0 0
0 0 0
0 0 0
0 0 0
0 0 0
0 0 0
0 0 0
0 0 0
0 0 0
0 0 0
0 0 0
0 0 0
0 0 0
0 0 0
0 0 0
0 0 0
0 0 0
0 0 0
0 0 0
0 0 0
0 0 0
0 0 0
0 0 0
0 0 0
0 0 0
0 0 0
0 0 0
0 0 0
0 0 0
0 0 0
0 0 0
0 0 0
0 0 0
0 0 0
0 0 0
0 0 0
0 0 0
0 0 0
0 0 0
0 0 0
0 0 0
0 0 0
0 0 0
0 0 0
0 0 0
0 0 0
0 0 0
0 0 0
0 0 0
0 0 0
0 0 0
0 0 0
0 0 0
0 0 0
0 0 0
0 0 0
0 0 0
0 0 0
0 0 0
0 0 0
0 0 0
0 0 0
0 0 0
0 0 0
0 0 0
0 0 0
0 0 0
0 0 0
0 0 0
0 0 0
0 0 0
0 0 0
0 0 0
0 0 0
0 0 0
0 0 0
0 0 0
0 0 0
0 0 0
0 0 0
0 0 0
0 0 0
0 0 0
0 0 0
0 0 0
0 0 0
0 0 0
0 0 0
0 0 0
0 0 0
0 0 0
0 0 0
0 0 0
0 0 0
0 0 0
0 0 0
0 0 0
0 0 0
0 0 0
0 0 0
0 0 0
0 0 0
0 0 0
0 0 0
0 0 0
0 0 0
0 0 0
0 0 0
0 0 0
0 0 0
0 0 0
0 0 0
0 0 0
0 0 0
0 0 0
0 0 0
0 0 0
0 0 0
0 0 0
0 0 0
0 0 0
0 0 0
0 0 0
0 0 0
0 0 0
0 0 0
0 0 0
0 0 0
0 0 0
0 0 0
0 0 0
0 0 0
0 0 0
0 0 0
0 0 0
0 0 0
0 0 0
0 0 0
0 0 0
0 0 0
0 0 0
0 0 0
0 0 0
0 0 0
0 0 0
0 0 0
0 0 0
0 0 0
0 0 0
0 0 0
0 0 0
0 0 0
0 0 0
0 0 0
0 0 0
0 0 0
0 0 0
0 0 0
0 0 0
0 0 0
0 0 0
0 0 0
0 0 0
0 0 0
0 0 0
0 0 0
0 0 0
0 0 0
0 0 0
0 0 0
0 0 0
0 0 0
0 0 0
0 0 0
0 0 0
0 0 0
0 0 0
0 0 0
0 0 0
0 0 0
0 0 0
0 0 0
0 0 0
0 0 0
0 0 0
0 0 0
0 0 0
0 0 0
0 0 0
0 0 0
0 0 0
0 0 0
0 0 0
0 0 0
0 0 0
0 0 0
0 0 0
0 0 0
0 0 0
0 0 0
0 0 0
0 0 0
0 0 0
0 0 0
0 0 0
0 0 0
0 0 0
0 0 0
0 0 0
0 0 0
0 0 0
0 0 0
0 0 0
0 0 0
0 0 0
0 0 0
0 0 0
0 0 0
0 0 0
0 0 0
0 0 0
0 0 0
0 0 0
0 0 0
0 0 0
0 0 0
0 0 0
0 0 0
0 0 0
0 0 0
0 0 0
0 0 0
0 0 0
0 0 0
0 0 0
0 0 0
0 0 0
0 0 0
0 0 0
0 0 0
0 0 0
0 0 0
0 0 0
0 0 0
0 0 0
0 0 0
0 0 0
0 0 0
0 0 0
0 0 0
0 0 0
0 0 0
0 0 0
0 0 0
0 0 0
0 0 0
0 0 0
0 0 0
0 0 0
0 0 0
0 0 0
0 0 0
0 0 0
0 0 0
0 0 0
0 0 0
0 0 0
0 0 0
0 0 0
0 0 0
0 0 0
0 0 0
0 0 0
0 0 0
0 0 0
0 0 0
0 0 0
0 0 0
0 0 0
0 0 0
0 0 0
0 0 0
0 0 0
0 0 0
0 0 0
0 0 0
0 0 0
0 0 0
0 0 0
0 0 0
0 0 0
0 0 0
0 0 0
0 0 0
0 0 0
0 0 0
0 0 0
0 0 0
0 0 0
0 0 0
0 0 0
0 0 0
0 0 0
0 0 0
0 0 0
0 0 0
0 0 0
0 0 0
0 0 0
0 0 0
0 0 0
0 0 0
0 0 0
0 0 0
0 0 0
0 0 0
0 0 0
0 0 0
0 0 0
0 0 0
0 0 0
0 0 0
0 0 0
0 0 0
0 0 0
0 0 0
0 0 0
0 0 0
0 0 0
0 0 0
0 0 0
0 0 0
0 0 0
0 0 0
0 0 0
0 0 0
0 0 0
0 0 0
0 0 0
0 0 0
0 0 0
0 0 0
0 0 0
0 0 0
0 0 0
0 0 0
0 0 0
0 0 0
0 0 0
0 0 0
0 0 0
0 0 0
0 0 0
0 0 0
0 0 0
0 0 0
0 0 0
0 0 0
0 0 0
0 0 0
0 0 0
0 0 0
0 0 0
0 0 0
0 0 0
0 0 0
0 0 0
0 0 0
0 0 0
0 0 0
0 0 0
0 0 0
0 0 0
0 0 0
0 0 0
0 0 0
0 0 0
0 0 0
0 0 0
0 0 0
0 0 0
0 0 0
0 0 0
0 0 0
0 0 0
0 0 0
0 0 0
0 0 0
0 0 0
0 0 0
0 0 0
0 0 0
0 0 0
0 0 0
0 0 0
0 0 0
0 0 0
0 0 0
0 0 0
0 0 0
0 0 0
0 0 0
0 0 0
0 0 0
0 0 0
0 0 0
0 0 0
0 0 0
0 0 0
0 0 0
0 0 0
0 0 0
0 0 0
0 0 0
0 0 0
0 0 0
0 0 0
0 0 0
0 0 0
0 0 0
0 0 0
0 0 0
0 0 0
0 0 0
0 0 0
0 0 0
0 0 0
0 0 0
0 0 0
0 0 0
0 0 0
0 0 0
0 0 0
0 0 0
0 0 0
0 0 0
0 0 0
0 0 0
0 0 0
0 0 0
0 0 0
0 0 0
0 0 0
0 0 0
0 0 0
0 0 0
0 0 0
0 0 0
0 0 0
0 0 0
0 0 0
0 0 0
0 0 0
0 0 0
0 0 0
0 0 0
0 0 0
0 0 0
0 0 0
0 0 0
0 0 0
0 0 0
0 0 0
0 0 0
0 0 0
0 0 0
0 0 0
0 0 0
0 0 0
0 0 0
0 0 0
0 0 0
0 0 0
0 0 0
0 0 0
0 0 0
0 0 0
0 0 0
0 0 0
0 0 0
0 0 0
0 0 0
0 0 0
0 0 0
0 0 0
0 0 0
0 0 0
0 0 0
0 0 0
0 0 0
0 0 0
0 0 0
0 0 0
0 0 0
0 0 0
0 0 0
0 0 0
0 0 0
0 0 0
0 0 0
0 0 0
0 0 0
0 0 0
0 0 0
0 0 0
0 0 0
0 0 0
0 0 0
0 0 0
0 0 0
0 0 0
0 0 0
0 0 0
0 0 0
0 0 0
0 0 0
0 0 0
0 0 0
0 0 0
0 0 0
0 0 0
0 0 0
0 0 0
0 0 0
0 0 0
0 0 0
0 0 0
0 0 0
0 0 0
0 0 0
0 0 0
0 0 0
0 0 0
0 0 0
0 0 0
0 0 0
0 0 0
0 0 0
0 0 0
0 0 0
0 0 0
0 0 0
0 0 0
0 0 0
0 0 0
0 0 0
0 0 0
0 0 0
0 0 0
0 0 0
0 0 0
0 0 0
0 0 0
0 0 0
0 0 0
0 0 0
0 0 0
0 0 0
0 0 0
0 0 0
0 0 0
0 0 0
0 0 0
0 0 0
0 0 0
0 0 0
0 0 0
0 0 0
0 0 0
0 0 0
0 0 0
0 0 0
0 0 0
0 0 0
0 0 0
0 0 0
0 0 0
0 0 0
0 0 0
0 0 0
0 0 0
0 0 0
0 0 0
0 0 0
0 0 0
0 0 0
0 0 0
0 0 0
0 0 0
0 0 0
0 0 0
0 0 0
0 0 0
0 0 0
0 0 0
0 0 0
0 0 0
0 0 0
0 0 0
0 0 0
0 0 0
0 0 0
0 0 0
0 0 0
0 0 0
0 0 0
0 0 0
0 0 0
0 0 0
0 0 0
0 0 0
0 0 0
0 0 0
0 0 0
0 0 0
0 0 0
0 0 0
0 0 0
0 0 0
0 0 0
0 0 0
0 0 0
0 0 0
0 0 0
0 0 0
0 0 0
0 0 0
0 0 0
0 0 0
0 0 0
0 0 0
0 0 0
0 0 0
0 0 0
0 0 0
0 0 0
0 0 0
0 0 0
0 0 0
0 0 0
0 0 0
0 0 0
0 0 0
0 0 0
0 0 0
0 0 0
0 0 0
0 0 0
0 0 0
0 0 0
0 0 0
0 0 0
0 0 0
0 0 0
0 0 0
0 0 0
0 0 0
0 0 0
0 0 0
0 0 0
0 0 0
0 0 0
0 0 0
0 0 0
0 0 0
0 0 0
0 0 0
0 0 0
0 0 0
0 0 0
0 0 0
0 0 0
0 0 0
0 0 0
0 0 0
0 0 0
0 0 0
0 0 0
0 0 0
0 0 0
0 0 0
0 0 0
0 0 0
0 0 0
0 0 0
0 0 0
0 0 0
0 0 0
0 0 0
0 0 0
0 0 0
0 0 0
0 0 0
0 0 0
0 0 0
0 0 0
0 0 0
0 0 0
0 0 0
0 0 0
0 0 0
0 0 0
0 0 0
0 0 0
0 0 0
0 0 0
0 0 0
0 0 0
0 0 0
0 0 0
0 0 0
0 0 0
0 0 0
0 0 0
0 0 0
0 0 0
0 0 0
0 0 0
0 0 0
0 0 0
0 0 0
0 0 0
0 0 0
0 0 0
0 0 0
0 0 0
0 0 0
0 0 0
0 0 0
0 0 0
0 0 0
0 0 0
0 0 0
0 0 0
0 0 0
0 0 0
0 0 0
0 0 0
0 0 0
0 0 0
0 0 0
0 0 0
0 0 0
0 0 0
0 0 0
0 0 0
0 0 0
0 0 0
0 0 0
0 0 0
0 0 0
0 0 0
0 0 0
0 0 0
0 0 0
0 0 0
0 0 0
0 0 0
0 0 0
0 0 0
0 0 0
0 0 0
0 0 0
0 0 0
0 0 0
0 0 0
0 0 0
0 0 0
0 0 0
0 0 0
0 0 0
0 0 0
0 0 0
0 0 0
0 0 0
0 0 0
0 0 0
0 0 0
0 0 0
0 0 0
0 0 0
0 0 0
0 0 0
0 0 0
0 0 0
0 0 0
0 0 0
0 0 0
0 0 0
0 0 0
0 0 0
0 0 0
0 0 0
0 0 0
0 0 0
0 0 0
0 0 0
0 0 0
0 0 0
0 0 0
0 0 0
0 0 0
0 0 0
0 0 0
0 0 0
0 0 0
0 0 0
0 0 0
0 0 0
0 0 0
0 0 0
0 0 0
0 0 0
0 0 0
0 0 0
0 0 0
0 0 0
0 0 0
0 0 0
0 0 0
0 0 0
0 0 0
0 0 0
0 0 0
0 0 0
0 0 0
0 0 0
0 0 0
0 0 0
0 0 0
0 0 0
0 0 0
0 0 0
0 0 0
0 0 0
0 0 0
0 0 0
0 0 0
0 0 0
0 0 0
0 0 0
0 0 0
0 0 0
0 0 0
0 0 0
0 0 0
0 0 0
0 0 0
0 0 0
0 0 0
0 0 0
0 0 0
0 0 0
0 0 0
0 0 0
0 0 0
0 0 0
0 0 0
0 0 0
0 0 0
0 0 0
0 0 0
0 0 0
0 0 0
0 0 0
0 0 0
0 0 0
0 0 0
0 0 0
0 0 0
0 0 0
0 0 0
0 0 0
0 0 0
0 0 0
0 0 0
0 0 0
0 0 0
0 0 0
0 0 0
0 0 0
0 0 0
0 0 0
0 0 0
0 0 0
0 0 0
0 0 0
0 0 0
0 0 0
0 0 0
0 0 0
0 0 0
0 0 0
0 0 0
0 0 0
0 0 0
0 0 0
0 0 0
0 0 0
0 0 0
0 0 0
0 0 0
0 0 0
0 0 0
0 0 0
0 0 0
0 0 0
0 0 0
0 0 0
0 0 0
0 0 0
0 0 0
0 0 0
0 0 0
0 0 0
0 0 0
0 0 0
0 0 0
0 0 0
0 0 0
0 0 0
0 0 0
0 0 0
0 0 0
0 0 0
0 0 0
0 0 0
0 0 0
0 0 0
0 0 0
0 0 0
0 0 0
0 0 0
0 0 0
0 0 0
0 0 0
0 0 0
0 0 0
0 0 0
0 0 0
0 0 0
0 0 0
0 0 0
0 0 0
0 0 0
0 0 0
0 0 0
0 0 0
0 0 0
0 0 0
0 0 0
0 0 0
0 0 0
0 0 0
0 0 0
0 0 0
0 0 0
0 0 0
0 0 0
0 0 0
0 0 0
0 0 0
0 0 0
0 0 0
0 0 0
0 0 0
0 0 0
0 0 0
0 0 0
0 0 0
0 0 0
0 0 0
0 0 0
0 0 0
0 0 0
0 0 0
0 0 0
0 0 0
0 0 0
0 0 0
0 0 0
0 0 0
0 0 0
0 0 0
0 0 0
0 0 0
0 0 0
0 0 0
0 0 0
0 0 0
0 0 0
0 0 0
0 0 0
0 0 0
0 0 0
0 0 0
0 0 0
0 0 0
0 0 0
0 0 0
0 0 0
0 0 0
0 0 0
0 0 0
0 0 0
0 0 0
0 0 0
0 0 0
0 0 0
0 0 0
0 0 0
0 0 0
0 0 0
0 0 0
0 0 0
0 0 0
0 0 0
0 0 0
0 0 0
0 0 0
0 0 0
0 0 0
0 0 0
0 0 0
0 0 0
0 0 0
0 0 0
0 0 0
0 0 0
0 0 0
0 0 0
0 0 0
0 0 0
0 0 0
0 0 0
0 0 0
0 0 0
0 0 0
0 0 0
0 0 0
0 0 0
0 0 0
0 0 0
0 0 0
0 0 0
0 0 0
0 0 0
0 0 0
0 0 0
0 0 0
0 0 0
0 0 0
0 0 0
0 0 0
0 0 0
0 0 0
0 0 0
0 0 0
0 0 0
0 0 0
0 0 0
0 0 0
0 0 0
0 0 0
0 0 0
0 0 0
0 0 0
0 0 0
0 0 0
0 0 0
0 0 0
0 0 0
0 0 0
0 0 0
0 0 0
0 0 0
0 0 0
0 0 0
0 0 0
0 0 0
0 0 0
0 0 0
0 0 0
0 0 0
0 0 0
0 0 0
0 0 0
0 0 0
0 0 0
0 0 0
0 0 0
0 0 0
0 0 0
0 0 0
0 0 0
0 0 0
0 0 0
0 0 0
0 0 0
0 0 0
0 0 0
0 0 0
0 0 0
0 0 0
0 0 0
0 0 0
0 0 0
0 0 0
0 0 0
0 0 0
0 0 0
0 0 0
0 0 0
0 0 0
0 0 0
0 0 0
0 0 0
0 0 0
0 0 0
0 0 0
0 0 0
0 0 0
0 0 0
0 0 0
0 0 0
0 0 0
0 0 0
0 0 0
0 0 0
0 0 0
0 0 0
0 0 0
0 0 0
0 0 0
0 0 0
0 0 0
0 0 0
0 0 0
0 0 0
0 0 0
0 0 0
0 0 0
0 0 0
0 0 0
0 0 0
0 0 0
0 0 0
0 0 0
0 0 0
0 0 0
0 0 0
0 0 0
0 0 0
0 0 0
0 0 0
0 0 0
0 0 0
0 0 0
0 0 0
0 0 0
0 0 0
0 0 0
0 0 0
0 0 0
0 0 0
0 0 0
0 0 0
0 0 0
0 0 0
0 0 0
0 0 0
0 0 0
0 0 0
0 0 0
0 0 0
0 0 0
0 0 0
0 0 0
0 0 0
0 0 0
0 0 0
0 0 0
0 0 0
0 0 0
0 0 0
0 0 0
0 0 0
0 0 0
0 0 0
0 0 0
0 0 0
0 0 0
0 0 0
0 0 0
0 0 0
0 0 0
0 0 0
0 0 0
0 0 0
0 0 0
0 0 0
0 0 0
0 0 0
0 0 0
0 0 0
0 0 0
0 0 0
0 0 0
0 0 0
0 0 0
0 0 0
0 0 0
0 0 0
0 0 0
0 0 0
0 0 0
0 0 0
0 0 0
0 0 0
0 0 0
0 0 0
0 0 0
0 0 0
0 0 0
0 0 0
0 0 0
0 0 0
0 0 0
0 0 0
0 0 0
0 0 0
0 0 0
0 0 0
0 0 0
0 0 0
0 0 0
0 0 0
0 0 0
0 0 0
0 0 0
0 0 0
0 0 0
0 0 0
0 0 0
0 0 0
0 0 0
0 0 0
0 0 0
0 0 0
0 0 0
0 0 0
0 0 0
0 0 0
0 0 0
0 0 0
0 0 0
0 0 0
0 0 0
0 0 0
0 0 0
0 0 0
0 0 0
0 0 0
0 0 0
0 0 0
0 0 0
0 0 0
0 0 0
0 0 0
0 0 0
0 0 0
0 0 0
0 0 0
0 0 0
0 0 0
0 0 0
0 0 0
0 0 0
0 0 0
0 0 0
0 0 0
0 0 0
0 0 0
0 0 0
0 0 0
0 0 0
0 0 0
0 0 0
0 0 0
0 0 0
0 0 0
0 0 0
0 0 0
0 0 0
0 0 0
0 0 0
0 0 0
0 0 0
0 0 0
0 0 0
0 0 0
0 0 0
0 0 0
0 0 0
0 0 0
0 0 0
0 0 0
0 0 0
0 0 0
0 0 0
0 0 0
0 0 0
0 0 0
0 0 0
0 0 0
0 0 0
0 0 0
0 0 0
0 0 0
0 0 0
0 0 0
0 0 0
0 0 0
0 0 0
0 0 0
0 0 0
0 0 0
0 0 0
0 0 0
0 0 0
0 0 0
0 0 0
0 0 0
0 0 0
0 0 0
0 0 0
0 0 0
0 0 0
0 0 0
0 0 0
0 0 0
0 0 0
0 0 0
0 0 0
0 0 0
0 0 0
0 0 0
0 0 0
0 0 0
0 0 0
0 0 0
0 0 0
0 0 0
0 0 0
0 0 0
0 0 0
0 0 0
0 0 0
0 0 0
0 0 0
0 0 0
0 0 0
0 0 0
0 0 0
0 0 0
0 0 0
0 0 0
0 0 0
0 0 0
0 0 0
0 0 0
0 0 0
0 0 0
0 0 0
0 0 0
0 0 0
0 0 0
0 0 0
0 0 0
0 0 0
0 0 0
0 0 0
0 0 0
0 0 0
0 0 0
0 0 0
0 0 0
0 0 0
0 0 0
0 0 0
0 0 0
0 0 0
0 0 0
0 0 0
0 0 0
0 0 0
0 0 0
0 0 0
0 0 0
0 0 0
0 0 0
0 0 0
0 0 0
0 0 0
0 0 0
0 0 0
0 0 0
0 0 0
0 0 0
0 0 0
0 0 0
0 0 0
0 0 0
0 0 0
0 0 0
0 0 0
0 0 0
0 0 0
0 0 0
0 0 0
0 0 0
0 0 0
0 0 0
0 0 0
0 0 0
0 0 0
0 0 0
0 0 0
0 0 0
0 0 0
0 0 0
0 0 0
0 0 0
0 0 0
0 0 0
0 0 0
0 0 0
0 0 0
0 0 0
0 0 0
0 0 0
0 0 0
0 0 0
0 0 0
0 0 0
0 0 0
0 0 0
0 0 0
0 0 0
0 0 0
0 0 0
0 0 0
0 0 0
0 0 0
0 0 0
0 0 0
0 0 0
0 0 0
0 0 0
0 0 0
0 0 0
0 0 0
0 0 0
0 0 0
0 0 0
0 0 0
0 0 0
0 0 0
0 0 0
0 0 0
0 0 0
0 0 0
0 0 0
0 0 0
0 0 0
0 0 0
0 0 0
0 0 0
0 0 0
0 0 0
0 0 0
0 0 0
0 0 0
0 0 0
0 0 0
0 0 0
0 0 0
0 0 0
0 0 0
0 0 0
0 0 0
0 0 0
0 0 0
0 0 0
0 0 0
0 0 0
0 0 0
0 0 0
0 0 0
0 0 0
0 0 0
0 0 0
0 0 0
0 0 0
0 0 0
0 0 0
0 0 0
0 0 0
0 0 0
0 0 0
0 0 0
0 0 0
0 0 0
0 0 0
0 0 0
0 0 0
0 0 0
0 0 0
0 0 0
0 0 0
0 0 0
0 0 0
0 0 0
0 0 0
0 0 0
0 0 0
0 0 0
0 0 0
0 0 0
0 0 0
0 0 0
0 0 0
0 0 0
0 0 0
0 0 0
0 0 0
0 0 0
0 0 0
0 0 0
0 0 0
0 0 0
0 0 0
0 0 0
0 0 0
0 0 0
0 0 0
0 0 0
0 0 0
0 0 0
0 0 0
0 0 0
0 0 0
0 0 0
0 0 0
0 0 0
0 0 0
0 0 0
0 0 0
0 0 0
0 0 0
0 0 0
0 0 0
0 0 0
0 0 0
0 0 0
0 0 0
0 0 0
0 0 0
0 0 0
0 0 0
0 0 0
0 0 0
0 0 0
0 0 0
0 0 0
0 0 0
0 0 0
0 0 0
0 0 0
0 0 0
0 0 0
0 0 0
0 0 0
0 0 0
0 0 0
0 0 0
0 0 0
0 0 0
0 0 0
0 0 0
0 0 0
0 0 0
0 0 0
0 0 0
0 0 0
0 0 0
0 0 0
0 0 0
0 0 0
0 0 0
0 0 0
0 0 0
0 0 0
0 0 0
0 0 0
0 0 0
0 0 0
0 0 0
0 0 0
0 0 0
0 0 0
0 0 0
0 0 0
0 0 0
0 0 0
0 0 0
0 0 0
0 0 0
0 0 0
0 0 0
0 0 0
0 0 0
0 0 0
0 0 0
0 0 0
0 0 0
0 0 0
0 0 0
0 0 0
0 0 0
0 0 0
0 0 0
0 0 0
0 0 0
0 0 0
0 0 0
0 0 0
0 0 0
0 0 0
0 0 0
0 0 0
0 0 0
0 0 0
0 0 0
0 0 0
0 0 0
0 0 0
0 0 0
0 0 0
0 0 0
0 0 0
0 0 0
0 0 0
0 0 0
0 0 0
0 0 0
0 0 0
0 0 0
0 0 0
0 0 0
0 0 0
0 0 0
0 0 0
0 0 0
0 0 0
0 0 0
0 0 0
0 0 0
0 0 0
0 0 0
0 0 0
0 0 0
0 0 0
0 0 0
0 0 0
0 0 0
0 0 0
0 0 0
0 0 0
0 0 0
0 0 0
0 0 0
0 0 0
0 0 0
0 0 0
0 0 0
0 0 0
0 0 0
0 0 0
0 0 0
0 0 0
0 0 0
0 0 0
0 0 0
0 0 0
0 0 0
0 0 0
0 0 0
0 0 0
0 0 0
0 0 0
0 0 0
0 0 0
0 0 0
0 0 0
0 0 0
0 0 0
0 0 0
0 0 0
0 0 0
0 0 0
0 0 0
0 0 0
0 0 0
0 0 0
0 0 0
0 0 0
0 0 0
0 0 0
0 0 0
0 0 0
0 0 0
0 0 0
0 0 0
0 0 0
0 0 0
0 0 0
0 0 0
0 0 0
0 0 0
0 0 0
0 0 0
0 0 0
0 0 0
0 0 0
0 0 0
0 0 0
0 0 0
0 0 0
0 0 0
0 0 0
0 0 0
0 0 0
0 0 0
0 0 0
0 0 0
0 0 0
0 0 0
0 0 0
0 0 0
0 0 0
0 0 0
0 0 0
0 0 0
0 0 0
0 0 0
0 0 0
0 0 0
0 0 0
0 0 0
0 0 0
0 0 0
0 0 0
0 0 0
0 0 0
0 0 0
0 0 0
0 0 0
0 0 0
0 0 0
0 0 0
0 0 0
0 0 0
0 0 0
0 0 0
0 0 0
0 0 0
0 0 0
0 0 0
0 0 0
0 0 0
0 0 0
0 0 0
0 0 0
0 0 0
0 0 0
0 0 0
0 0 0
0 0 0
0 0 0
0 0 0
0 0 0
0 0 0
0 0 0
0 0 0
0 0 0
0 0 0
0 0 0
0 0 0
0 0 0
0 0 0
0 0 0
0 0 0
0 0 0
0 0 0
0 0 0
0 0 0
0 0 0
0 0 0
0 0 0
0 0 0
0 0 0
0 0 0
0 0 0
0 0 0
0 0 0
0 0 0
0 0 0
0 0 0
0 0 0
0 0 0
0 0 0
0 0 0
0 0 0
0 0 0
0 0 0
0 0 0
0 0 0
0 0 0
0 0 0
0 0 0
0 0 0
0 0 0
0 0 0
0 0 0
0 0 0
0 0 0
0 0 0
0 0 0
0 0 0
0 0 0
0 0 0
0 0 0
0 0 0
0 0 0
0 0 0
0 0 0
0 0 0
0 0 0
0 0 0
0 0 0
0 0 0
0 0 0
0 0 0
0 0 0
0 0 0
0 0 0
0 0 0
0 0 0
0 0 0
0 0 0
0 0 0
0 0 0
0 0 0
0 0 0
0 0 0
0 0 0
0 0 0
0 0 0
0 0 0
0 0 0
0 0 0
0 0 0
0 0 0
0 0 0
0 0 0
0 0 0
0 0 0
0 0 0
0 0 0
0 0 0
0 0 0
0 0 0
0 0 0
0 0 0
0 0 0
0 0 0
0 0 0
0 0 0
0 0 0
0 0 0
0 0 0
0 0 0
0 0 0
0 0 0
0 0 0
0 0 0
0 0 0
0 0 0
0 0 0
0 0 0
0 0 0
0 0 0
0 0 0
0 0 0
0 0 0
0 0 0
0 0 0
0 0 0
0 0 0
0 0 0
0 0 0
0 0 0
0 0 0
0 0 0
0 0 0
0 0 0
0 0 0
0 0 0
0 0 0
0 0 0
0 0 0
0 0 0
0 0 0
0 0 0
0 0 0
0 0 0
0 0 0
0 0 0
0 0 0
0 0 0
0 0 0
0 0 0
0 0 0
0 0 0
0 0 0
0 0 0
0 0 0
0 0 0
0 0 0
0 0 0
0 0 0
0 0 0
0 0 0
0 0 0
0 0 0
0 0 0
0 0 0
0 0 0
0 0 0
0 0 0
0 0 0
0 0 0
0 0 0
0 0 0
0 0 0
0 0 0
0 0 0
0 0 0
0 0 0
0 0 0
0 0 0
0 0 0
0 0 0
0 0 0
0 0 0
0 0 0
0 0 0
0 0 0
0 0 0
0 0 0
0 0 0
0 0 0
0 0 0
0 0 0
0 0 0
0 0 0
0 0 0
0 0 0
0 0 0
0 0 0
0 0 0
0 0 0
0 0 0
0 0 0
0 0 0
0 0 0
0 0 0
0 0 0
0 0 0
0 0 0
0 0 0
0 0 0
0 0 0
0 0 0
0 0 0
0 0 0
0 0 0
0 0 0
0 0 0
0 0 0
0 0 0
0 0 0
0 0 0
0 0 0
0 0 0
0 0 0
0 0 0
0 0 0
0 0 0
0 0 0
0 0 0
0 0 0
0 0 0
0 0 0
0 0 0
0 0 0
0 0 0
0 0 0
0 0 0
0 0 0
0 0 0
0 0 0
0 0 0
0 0 0
0 0 0
0 0 0
0 0 0
0 0 0
0 0 0
0 0 0
0 0 0
0 0 0
0 0 0
0 0 0
0 0 0
0 0 0
0 0 0
0 0 0
0 0 0
0 0 0
0 0 0
0 0 0
0 0 0
0 0 0
0 0 0
0 0 0
0 0 0
0 0 0
0 0 0
0 0 0
0 0 0
0 0 0
0 0 0
0 0 0
0 0 0
0 0 0
0 0 0
0 0 0
0 0 0
0 0 0
0 0 0
0 0 0
0 0 0
0 0 0
0 0 0
0 0 0
0 0 0
0 0 0
0 0 0
0 0 0
0 0 0
0 0 0
0 0 0
0 0 0
0 0 0
0 0 0
0 0 0
0 0 0
0 0 0
0 0 0
0 0 0
0 0 0
0 0 0
0 0 0
0 0 0
0 0 0
0 0 0
0 0 0
0 0 0
0 0 0
0 0 0
0 0 0
0 0 0
0 0 0
0 0 0
0 0 0
0 0 0
0 0 0
0 0 0
0 0 0
0 0 0
0 0 0
0 0 0
0 0 0
0 0 0
0 0 0
0 0 0
0 0 0
0 0 0
0 0 0
0 0 0
0 0 0
0 0 0
0 0 0
0 0 0
0 0 0
0 0 0
0 0 0
0 0 0
0 0 0
0 0 0
0 0 0
0 0 0
0 0 0
0 0 0
0 0 0
0 0 0
0 0 0
0 0 0
0 0 0
0 0 0
0 0 0
0 0 0
0 0 0
0 0 0
0 0 0
0 0 0
0 0 0
0 0 0
0 0 0
0 0 0
0 0 0
0 0 0
0 0 0
0 0 0
0 0 0
0 0 0
0 0 0
0 0 0
0 0 0
0 0 0
0 0 0
0 0 0
0 0 0
0 0 0
0 0 0
0 0 0
0 0 0
0 0 0
0 0 0
0 0 0
0 0 0
0 0 0
0 0 0
0 0 0
0 0 0
0 0 0
0 0 0
0 0 0
0 0 0
0 0 0
0 0 0
0 0 0
0 0 0
0 0 0
0 0 0
0 0 0
0 0 0
0 0 0
0 0 0
0 0 0
0 0 0
0 0 0
0 0 0
0 0 0
0 0 0
0 0 0
0 0 0
0 0 0
0 0 0
0 0 0
0 0 0
0 0 0
0 0 0
0 0 0
0 0 0
0 0 0
0 0 0
0 0 0
0 0 0
0 0 0
0 0 0
0 0 0
0 0 0
0 0 0
0 0 0
0 0 0
0 0 0
0 0 0
0 0 0
0 0 0
0 0 0
0 0 0
0 0 0
0 0 0
0 0 0
0 0 0
0 0 0
0 0 0
0 0 0
0 0 0
0 0 0
0 0 0
0 0 0
0 0 0
0 0 0
0 0 0
0 0 0
0 0 0
0 0 0
0 0 0
0 0 0
0 0 0
0 0 0
0 0 0
0 0 0
0 0 0
0 0 0
0 0 0
0 0 0
0 0 0
0 0 0
0 0 0
0 0 0
0 0 0
0 0 0
0 0 0
0 0 0
0 0 0
0 0 0
0 0 0
0 0 0
0 0 0
0 0 0
0 0 0
0 0 0
0 0 0
0 0 0
0 0 0
0 0 0
0 0 0
0 0 0
0 0 0
0 0 0
0 0 0
0 0 0
0 0 0
0 0 0
0 0 0
0 0 0
0 0 0
0 0 0
0 0 0
0 0 0
0 0 0
0 0 0
0 0 0
0 0 0
0 0 0
0 0 0
0 0 0
0 0 0
0 0 0
0 0 0
0 0 0
0 0 0
0 0 0
0 0 0
0 0 0
0 0 0
0 0 0
0 0 0
0 0 0
0 0 0
0 0 0
0 0 0
0 0 0
0 0 0
0 0 0
0 0 0
0 0 0
0 0 0
0 0 0
0 0 0
0 0 0
0 0 0
0 0 0
0 0 0
0 0 0
0 0 0
0 0 0
0 0 0
0 0 0
0 0 0
0 0 0
0 0 0
0 0 0
0 0 0
0 0 0
0 0 0
0 0 0
0 0 0
0 0 0
0 0 0
0 0 0
0 0 0
0 0 0
0 0 0
0 0 0
0 0 0
0 0 0
0 0 0
0 0 0
0 0 0
0 0 0
0 0 0
0 0 0
0 0 0
0 0 0
0 0 0
0 0 0
0 0 0
0 0 0
0 0 0
0 0 0
0 0 0
0 0 0
0 0 0
0 0 0
0 0 0
0 0 0
0 0 0
0 0 0
0 0 0
0 0 0
0 0 0
0 0 0
0 0 0
0 0 0
0 0 0
0 0 0
0 0 0
0 0 0
0 0 0
0 0 0
0 0 0
0 0 0
0 0 0
0 0 0
0 0 0
0 0 0
0 0 0
0 0 0
0 0 0
0 0 0
0 0 0
0 0 0
0 0 0
0 0 0
0 0 0
0 0 0
0 0 0
0 0 0
0 0 0
0 0 0
0 0 0
0 0 0
0 0 0
0 0 0
0 0 0
0 0 0
0 0 0
0 0 0
0 0 0
0 0 0
0 0 0
0 0 0
0 0 0
0 0 0
0 0 0
0 0 0
0 0 0
0 0 0
0 0 0
0 0 0
0 0 0
0 0 0
0 0 0
0 0 0
0 0 0
0 0 0
0 0 0
0 0 0
0 0 0
0 0 0
0 0 0
0 0 0
0 0 0
0 0 0
0 0 0
0 0 0
0 0 0
0 0 0
0 0 0
0 0 0
0 0 0
0 0 0
0 0 0
0 0 0
0 0 0
0 0 0
0 0 0
0 0 0
0 0 0
0 0 0
0 0 0
0 0 0
0 0 0
0 0 0
0 0 0
0 0 0
0 0 0
0 0 0
0 0 0
0 0 0
0 0 0
0 0 0
0 0 0
0 0 0
0 0 0
0 0 0
0 0 0
0 0 0
0 0 0
0 0 0
0 0 0
0 0 0
0 0 0
0 0 0
0 0 0
0 0 0
0 0 0
0 0 0
0 0 0
0 0 0
0 0 0
0 0 0
0 0 0
0 0 0
0 0 0
0 0 0
0 0 0
0 0 0
0 0 0
0 0 0
0 0 0
0 0 0
0 0 0
0 0 0
0 0 0
0 0 0
0 0 0
0 0 0
0 0 0
0 0 0
0 0 0
0 0 0
0 0 0
0 0 0
0 0 0
0 0 0
0 0 0
0 0 0
0 0 0
0 0 0
0 0 0
0 0 0
0 0 0
0 0 0
0 0 0
0 0 0
0 0 0
0 0 0
0 0 0
0 0 0
0 0 0
0 0 0
0 0 0
0 0 0
0 0 0
0 0 0
0 0 0
0 0 0
0 0 0
0 0 0
0 0 0
0 0 0
0 0 0
0 0 0
0 0 0
0 0 0
0 0 0
0 0 0
0 0 0
0 0 0
0 0 0
0 0 0
0 0 0
0 0 0
0 0 0
0 0 0
0 0 0
0 0 0
0 0 0
0 0 0
0 0 0
0 0 0
0 0 0
0 0 0
0 0 0
0 0 0
0 0 0
0 0 0
0 0 0
0 0 0
0 0 0
0 0 0
0 0 0
0 0 0
0 0 0
0 0 0
0 0 0
0 0 0
0 0 0
0 0 0
0 0 0
0 0 0
0 0 0
0 0 0
0 0 0
0 0 0
0 0 0
0 0 0
0 0 0
0 0 0
0 0 0
0 0 0
0 0 0
0 0 0
0 0 0
0 0 0
0 0 0
0 0 0
0 0 0
0 0 0
0 0 0
0 0 0
0 0 0
0 0 0
0 0 0
0 0 0
0 0 0
0 0 0
0 0 0
0 0 0
0 0 0
0 0 0
0 0 0
0 0 0
0 0 0
0 0 0
0 0 0
0 0 0
0 0 0
0 0 0
0 0 0
0 0 0
0 0 0
0 0 0
0 0 0
0 0 0
0 0 0
0 0 0
0 0 0
0 0 0
0 0 0
0 0 0
0 0 0
0 0 0
0 0 0
0 0 0
0 0 0
0 0 0
0 0 0
0 0 0
0 0 0
0 0 0
0 0 0
0 0 0
0 0 0
0 0 0
0 0 0
0 0 0
0 0 0
0 0 0
0 0 0
0 0 0
0 0 0
0 0 0
0 0 0
0 0 0
0 0 0
0 0 0
0 0 0
0 0 0
0 0 0
0 0 0
0 0 0
0 0 0
0 0 0
0 0 0
0 0 0
0 0 0
0 0 0
0 0 0
0 0 0
0 0 0
0 0 0
0 0 0
0 0 0
0 0 0
0 0 0
0 0 0
0 0 0
0 0 0
0 0 0
0 0 0
0 0 0
0 0 0
0 0 0
0 0 0
0 0 0
0 0 0
0 0 0
0 0 0
0 0 0
0 0 0
0 0 0
0 0 0
0 0 0
0 0 0
0 0 0
0 0 0
0 0 0
0 0 0
0 0 0
0 0 0
0 0 0
0 0 0
0 0 0
0 0 0
0 0 0
0 0 0
0 0 0
0 0 0
0 0 0
0 0 0
0 0 0
0 0 0
0 0 0
0 0 0
0 0 0
0 0 0
0 0 0
0 0 0
0 0 0
0 0 0
0 0 0
0 0 0
0 0 0
0 0 0
0 0 0
0 0 0
0 0 0
0 0 0
0 0 0
0 0 0
0 0 0
0 0 0
0 0 0
0 0 0
0 0 0
0 0 0
0 0 0
0 0 0
0 0 0
0 0 0
0 0 0
0 0 0
0 0 0
0 0 0
0 0 0
0 0 0
0 0 0
0 0 0
0 0 0
0 0 0
0 0 0
0 0 0
0 0 0
0 0 0
0 0 0
0 0 0
0 0 0
0 0 0
0 0 0
0 0 0
0 0 0
0 0 0
0 0 0
0 0 0
0 0 0
0 0 0
0 0 0
0 0 0
0 0 0
0 0 0
0 0 0
0 0 0
0 0 0
0 0 0
0 0 0
0 0 0
0 0 0
0 0 0
0 0 0
0 0 0
0 0 0
0 0 0
0 0 0
0 0 0
0 0 0
0 0 0
0 0 0
0 0 0
0 0 0
0 0 0
0 0 0
0 0 0
0 0 0
0 0 0
0 0 0
0 0 0
0 0 0
0 0 0
0 0 0
0 0 0
0 0 0
0 0 0
0 0 0
0 0 0
0 0 0
0 0 0
0 0 0
0 0 0
0 0 0
0 0 0
0 0 0
0 0 0
0 0 0
0 0 0
0 0 0
0 0 0
0 0 0
0 0 0
0 0 0
0 0 0
0 0 0
0 0 0
0 0 0
0 0 0
0 0 0
0 0 0
0 0 0
0 0 0
0 0 0
0 0 0
0 0 0
0 0 0
0 0 0
0 0 0
0 0 0
0 0 0
0 0 0
0 0 0
0 0 0
0 0 0
0 0 0
0 0 0
0 0 0
0 0 0
0 0 0
0 0 0
0 0 0
0 0 0
0 0 0
0 0 0
0 0 0
0 0 0
0 0 0
0 0 0
0 0 0
0 0 0
0 0 0
0 0 0
0 0 0
0 0 0
0 0 0
0 0 0
0 0 0
0 0 0
0 0 0
0 0 0
0 0 0
0 0 0
0 0 0
0 0 0
0 0 0
0 0 0
0 0 0
0 0 0
0 0 0
0 0 0
0 0 0
0 0 0
0 0 0
0 0 0
0 0 0
0 0 0
0 0 0
0 0 0
0 0 0
0 0 0
0 0 0
0 0 0
0 0 0
0 0 0
0 0 0
0 0 0
0 0 0
0 0 0
0 0 0
0 0 0
0 0 0
0 0 0
0 0 0
0 0 0
0 0 0
0 0 0
0 0 0
0 0 0
0 0 0
0 0 0
0 0 0
0 0 0
0 0 0
0 0 0
0 0 0
0 0 0
0 0 0
0 0 0
0 0 0
0 0 0
0 0 0
0 0 0
0 0 0
0 0 0
0 0 0
0 0 0
0 0 0
0 0 0
0 0 0
0 0 0
0 0 0
0 0 0
0 0 0
0 0 0
0 0 0
0 0 0
0 0 0
0 0 0
0 0 0
0 0 0
0 0 0
0 0 0
0 0 0
0 0 0
0 0 0
0 0 0
0 0 0
0 0 0
0 0 0
0 0 0
0 0 0
0 0 0
0 0 0
0 0 0
0 0 0
0 0 0
0 0 0
0 0 0
0 0 0
0 0 0
0 0 0
0 0 0
0 0 0
0 0 0
0 0 0
0 0 0
0 0 0
0 0 0
0 0 0
0 0 0
0 0 0
0 0 0
0 0 0
0 0 0
0 0 0
0 0 0
0 0 0
0 0 0
0 0 0
0 0 0
0 0 0
0 0 0
0 0 0
0 0 0
0 0 0
0 0 0
0 0 0
0 0 0
0 0 0
0 0 0
0 0 0
0 0 0
0 0 0
0 0 0
0 0 0
0 0 0
0 0 0
0 0 0
0 0 0
0 0 0
0 0 0
0 0 0
0 0 0
0 0 0
0 0 0
0 0 0
0 0 0
0 0 0
0 0 0
0 0 0
0 0 0
0 0 0
0 0 0
0 0 0
0 0 0
0 0 0
0 0 0
0 0 0
0 0 0
0 0 0
0 0 0
0 0 0
0 0 0
0 0 0
0 0 0
0 0 0
0 0 0
0 0 0
0 0 0
0 0 0
0 0 0
0 0 0
0 0 0
0 0 0
0 0 0
0 0 0
0 0 0
0 0 0
0 0 0
0 0 0
0 0 0
0 0 0
0 0 0
0 0 0
0 0 0
0 0 0
0 0 0
0 0 0
0 0 0
0 0 0
0 0 0
0 0 0
0 0 0
0 0 0
0 0 0
0 0 0
0 0 0
0 0 0
0 0 0
0 0 0
0 0 0
0 0 0
0 0 0
0 0 0
0 0 0
0 0 0
0 0 0
0 0 0
0 0 0
0 0 0
0 0 0
0 0 0
0 0 0
0 0 0
0 0 0
0 0 0
0 0 0
0 0 0
0 0 0
0 0 0
0 0 0
0 0 0
0 0 0
0 0 0
0 0 0
0 0 0
0 0 0
0 0 0
0 0 0
0 0 0
0 0 0
0 0 0
0 0 0
0 0 0
0 0 0
0 0 0
0 0 0
0 0 0
0 0 0
0 0 0
0 0 0
0 0 0
0 0 0
0 0 0
0 0 0
0 0 0
0 0 0
0 0 0
0 0 0
0 0 0
0 0 0
0 0 0
0 0 0
0 0 0
0 0 0
0 0 0
0 0 0
0 0 0
0 0 0
0 0 0
0 0 0
0 0 0
0 0 0
0 0 0
0 0 0
0 0 0
0 0 0
0 0 0
0 0 0
0 0 0
0 0 0
0 0 0
0 0 0
0 0 0
0 0 0
0 0 0
0 0 0
0 0 0
0 0 0
0 0 0
0 0 0
0 0 0
0 0 0
0 0 0
0 0 0
0 0 0
0 0 0
0 0 0
0 0 0
0 0 0
0 0 0
0 0 0
0 0 0
0 0 0
0 0 0
0 0 0
0 0 0
0 0 0
0 0 0
0 0 0
0 0 0
0 0 0
0 0 0
0 0 0
0 0 0
0 0 0
0 0 0
0 0 0
0 0 0
0 0 0
0 0 0
0 0 0
0 0 0
0 0 0
0 0 0
0 0 0
0 0 0
0 0 0
0 0 0
0 0 0
0 0 0
0 0 0
0 0 0
0 0 0
0 0 0
0 0 0
0 0 0
0 0 0
0 0 0
0 0 0
0 0 0
0 0 0
0 0 0
0 0 0
0 0 0
0 0 0
0 0 0
0 0 0
0 0 0
0 0 0
0 0 0
0 0 0
0 0 0
0 0 0
0 0 0
0 0 0
0 0 0
0 0 0
0 0 0
0 0 0
0 0 0
0 0 0
0 0 0
0 0 0
0 0 0
0 0 0
0 0 0
0 0 0
0 0 0
0 0 0
0 0 0
0 0 0
0 0 0
0 0 0
0 0 0
0 0 0
0 0 0
0 0 0
0 0 0
0 0 0
0 0 0
0 0 0
0 0 0
0 0 0
0 0 0
0 0 0
0 0 0
0 0 0
0 0 0
0 0 0
0 0 0
0 0 0
0 0 0
0 0 0
0 0 0
0 0 0
0 0 0
0 0 0
0 0 0
0 0 0
0 0 0
0 0 0
0 0 0
0 0 0
0 0 0
0 0 0
0 0 0
0 0 0
0 0 0
0 0 0
0 0 0
0 0 0
0 0 0
0 0 0
0 0 0
0 0 0
0 0 0
0 0 0
0 0 0
0 0 0
0 0 0
0 0 0
0 0 0
0 0 0
0 0 0
0 0 0
0 0 0
0 0 0
0 0 0
0 0 0
0 0 0
0 0 0
0 0 0
0 0 0
0 0 0
0 0 0
0 0 0
0 0 0
0 0 0
0 0 0
0 0 0
0 0 0
0 0 0
0 0 0
0 0 0
0 0 0
0 0 0
0 0 0
0 0 0
0 0 0
0 0 0
0 0 0
0 0 0
0 0 0
0 0 0
0 0 0
0 0 0
0 0 0
0 0 0
0 0 0
0 0 0
0 0 0
0 0 0
0 0 0
0 0 0
0 0 0
0 0 0
0 0 0
0 0 0
0 0 0
0 0 0
0 0 0
0 0 0
0 0 0
0 0 0
0 0 0
0 0 0
0 0 0
0 0 0
0 0 0
0 0 0
0 0 0
0 0 0
0 0 0
0 0 0
0 0 0
0 0 0
0 0 0
0 0 0
0 0 0
0 0 0
0 0 0
0 0 0
0 0 0
0 0 0
0 0 0
0 0 0
0 0 0
0 0 0
0 0 0
0 0 0
0 0 0
0 0 0
0 0 0
0 0 0
0 0 0
0 0 0
0 0 0
0 0 0
0 0 0
0 0 0
0 0 0
0 0 0
0 0 0
0 0 0
0 0 0
0 0 0
0 0 0
0 0 0
0 0 0
0 0 0
0 0 0
0 0 0
0 0 0
0 0 0
0 0 0
0 0 0
0 0 0
0 0 0
0 0 0
0 0 0
0 0 0
0 0 0
0 0 0
0 0 0
0 0 0
0 0 0
0 0 0
0 0 0
0 0 0
0 0 0
0 0 0
0 0 0
0 0 0
0 0 0
0 0 0
0 0 0
0 0 0
0 0 0
0 0 0
0 0 0
0 0 0
0 0 0
0 0 0
0 0 0
0 0 0
0 0 0
0 0 0
0 0 0
0 0 0
0 0 0
0 0 0
0 0 0
0 0 0
0 0 0
0 0 0
0 0 0
0 0 0
0 0 0
0 0 0
0 0 0
0 0 0
0 0 0
0 0 0
0 0 0
0 0 0
0 0 0
0 0 0
0 0 0
0 0 0
0 0 0
0 0 0
0 0 0
0 0 0
0 0 0
0 0 0
0 0 0
0 0 0
0 0 0
0 0 0
0 0 0
0 0 0
0 0 0
0 0 0
0 0 0
0 0 0
0 0 0
0 0 0
0 0 0
0 0 0
0 0 0
0 0 0
0 0 0
0 0 0
0 0 0
0 0 0
0 0 0
0 0 0
0 0 0
0 0 0
0 0 0
0 0 0
0 0 0
0 0 0
0 0 0
0 0 0
0 0 0
0 0 0
0 0 0
0 0 0
0 0 0
0 0 0
0 0 0
0 0 0
0 0 0
0 0 0
0 0 0
0 0 0
0 0 0
0 0 0
0 0 0
0 0 0
0 0 0
0 0 0
0 0 0
0 0 0
0 0 0
0 0 0
0 0 0
0 0 0
0 0 0
0 0 0
0 0 0
0 0 0
0 0 0
0 0 0
0 0 0
0 0 0
0 0 0
0 0 0
0 0 0
0 0 0
0 0 0
0 0 0
0 0 0
0 0 0
0 0 0
0 0 0
0 0 0
0 0 0
0 0 0
0 0 0
0 0 0
0 0 0
0 0 0
0 0 0
0 0 0
0 0 0
0 0 0
0 0 0
0 0 0
0 0 0
0 0 0
0 0 0
0 0 0
0 0 0
0 0 0
0 0 0
0 0 0
0 0 0
0 0 0
0 0 0
0 0 0
0 0 0
0 0 0
0 0 0
0 0 0
0 0 0
0 0 0
0 0 0
0 0 0
0 0 0
0 0 0
0 0 0
0 0 0
0 0 0
0 0 0
0 0 0
0 0 0
0 0 0
0 0 0
0 0 0
0 0 0
0 0 0
0 0 0
0 0 0
0 0 0
0 0 0
0 0 0
0 0 0
0 0 0
0 0 0
0 0 0
0 0 0
0 0 0
0 0 0
0 0 0
0 0 0
0 0 0
0 0 0
0 0 0
0 0 0
0 0 0
0 0 0
0 0 0
0 0 0
0 0 0
0 0 0
0 0 0
0 0 0
0 0 0
0 0 0
0 0 0
0 0 0
0 0 0
0 0 0
0 0 0
0 0 0
0 0 0
0 0 0
0 0 0
0 0 0
0 0 0
0 0 0
0 0 0
0 0 0
0 0 0
0 0 0
0 0 0
0 0 0
0 0 0
0 0 0
0 0 0
0 0 0
0 0 0
0 0 0
0 0 0
0 0 0
0 0 0
0 0 0
0 0 0
0 0 0
0 0 0
0 0 0
0 0 0
0 0 0
0 0 0
0 0 0
0 0 0
0 0 0
0 0 0
0 0 0
0 0 0
0 0 0
0 0 0
0 0 0
0 0 0
0 0 0
0 0 0
0 0 0
0 0 0
0 0 0
0 0 0
0 0 0
0 0 0
0 0 0
0 0 0
0 0 0
0 0 0
0 0 0
0 0 0
0 0 0
0 0 0
0 0 0
0 0 0
0 0 0
0 0 0
0 0 0
0 0 0
0 0 0
0 0 0
0 0 0
0 0 0
0 0 0
0 0 0
0 0 0
0 0 0
0 0 0
0 0 0
0 0 0
0 0 0
0 0 0
0 0 0
0 0 0
0 0 0
0 0 0
0 0 0
0 0 0
0 0 0
0 0 0
0 0 0
0 0 0
0 0 0
0 0 0
0 0 0
0 0 0
0 0 0
0 0 0
0 0 0
0 0 0
0 0 0
0 0 0
0 0 0
0 0 0
0 0 0
0 0 0
0 0 0
0 0 0
0 0 0
0 0 0
0 0 0
0 0 0
0 0 0
0 0 0
0 0 0
0 0 0
0 0 0
0 0 0
0 0 0
0 0 0
0 0 0
0 0 0
0 0 0
0 0 0
0 0 0
0 0 0
0 0 0
0 0 0
0 0 0
0 0 0
0 0 0
0 0 0
0 0 0
0 0 0
0 0 0
0 0 0
0 0 0
0 0 0
0 0 0
0 0 0
0 0 0
0 0 0
0 0 0
0 0 0
0 0 0
0 0 0
0 0 0
0 0 0
0 0 0
0 0 0
0 0 0
0 0 0
0 0 0
0 0 0
0 0 0
0 0 0
0 0 0
0 0 0
0 0 0
0 0 0
0 0 0
0 0 0
0 0 0
0 0 0
0 0 0
0 0 0
0 0 0
0 0 0
0 0 0
0 0 0
0 0 0
0 0 0
0 0 0
0 0 0
0 0 0
0 0 0
0 0 0
0 0 0
0 0 0
0 0 0
0 0 0
0 0 0
0 0 0
0 0 0
0 0 0
0 0 0
0 0 0
0 0 0
0 0 0
0 0 0
0 0 0
0 0 0
0 0 0
0 0 0
0 0 0
0 0 0
0 0 0
0 0 0
0 0 0
0 0 0
0 0 0
0 0 0
0 0 0
0 0 0
0 0 0
0 0 0
0 0 0
0 0 0
0 0 0
0 0 0
0 0 0
0 0 0
0 0 0
0 0 0
0 0 0
0 0 0
0 0 0
0 0 0
0 0 0
0 0 0
0 0 0
0 0 0
0 0 0
0 0 0
0 0 0
0 0 0
0 0 0
0 0 0
0 0 0
0 0 0
0 0 0
0 0 0
0 0 0
0 0 0
0 0 0
0 0 0
0 0 0
0 0 0
0 0 0
0 0 0
0 0 0
0 0 0
0 0 0
0 0 0
0 0 0
0 0 0
0 0 0
0 0 0
0 0 0
0 0 0
0 0 0
0 0 0
0 0 0
0 0 0
0 0 0
0 0 0
0 0 0
0 0 0
0 0 0
0 0 0
0 0 0
0 0 0
0 0 0
0 0 0
0 0 0
0 0 0
0 0 0
0 0 0
0 0 0
0 0 0
0 0 0
0 0 0
0 0 0
0 0 0
0 0 0
0 0 0
0 0 0
0 0 0
0 0 0
0 0 0
0 0 0
0 0 0
0 0 0
0 0 0
0 0 0
0 0 0
0 0 0
0 0 0
0 0 0
0 0 0
0 0 0
0 0 0
0 0 0
0 0 0
0 0 0
0 0 0
0 0 0
0 0 0
0 0 0
0 0 0
0 0 0
0 0 0
0 0 0
0 0 0
0 0 0
0 0 0
0 0 0
0 0 0
0 0 0
0 0 0
0 0 0
0 0 0
0 0 0
0 0 0
0 0 0
0 0 0
0 0 0
0 0 0
0 0 0
0 0 0
0 0 0
0 0 0
0 0 0
0 0 0
0 0 0
0 0 0
0 0 0
0 0 0
0 0 0
0 0 0
0 0 0
0 0 0
0 0 0
0 0 0
0 0 0
0 0 0
0 0 0
0 0 0
0 0 0
0 0 0
0 0 0
0 0 0
0 0 0
0 0 0
0 0 0
0 0 0
0 0 0
0 0 0
0 0 0
0 0 0
0 0 0
0 0 0
0 0 0
0 0 0
0 0 0
0 0 0
0 0 0
0 0 0
0 0 0
0 0 0
0 0 0
0 0 0
0 0 0
0 0 0
0 0 0
0 0 0
0 0 0
0 0 0
0 0 0
0 0 0
0 0 0
0 0 0
0 0 0
0 0 0
0 0 0
0 0 0
0 0 0
0 0 0
0 0 0
0 0 0
0 0 0
0 0 0
0 0 0
0 0 0
0 0 0
0 0 0
0 0 0
0 0 0
0 0 0
0 0 0
0 0 0
0 0 0
0 0 0
0 0 0
0 0 0
0 0 0
0 0 0
0 0 0
0 0 0
0 0 0
0 0 0
0 0 0
0 0 0
0 0 0
0 0 0
0 0 0
0 0 0
0 0 0
0 0 0
0 0 0
0 0 0
0 0 0
0 0 0
0 0 0
0 0 0
0 0 0
0 0 0
0 0 0
0 0 0
0 0 0
0 0 0
0 0 0
0 0 0
0 0 0
0 0 0
0 0 0
0 0 0
0 0 0
0 0 0
0 0 0
0 0 0
0 0 0
0 0 0
0 0 0
0 0 0
0 0 0
0 0 0
0 0 0
0 0 0
0 0 0
0 0 0
0 0 0
0 0 0
0 0 0
0 0 0
0 0 0
0 0 0
0 0 0
0 0 0
0 0 0
0 0 0
0 0 0
0 0 0
0 0 0
0 0 0
0 0 0
0 0 0
0 0 0
0 0 0
0 0 0
0 0 0
0 0 0
0 0 0
0 0 0
0 0 0
0 0 0
0 0 0
0 0 0
0 0 0
0 0 0
0 0 0
0 0 0
0 0 0
0 0 0
0 0 0
0 0 0
0 0 0
0 0 0
0 0 0
0 0 0
0 0 0
0 0 0
0 0 0
0 0 0
0 0 0
0 0 0
0 0 0
0 0 0
0 0 0
0 0 0
0 0 0
0 0 0
0 0 0
0 0 0
0 0 0
0 0 0
0 0 0
0 0 0
0 0 0
0 0 0
0 0 0
0 0 0
0 0 0
0 0 0
0 0 0
0 0 0
0 0 0
0 0 0
0 0 0
0 0 0
0 0 0
0 0 0
0 0 0
0 0 0
0 0 0
0 0 0
0 0 0
0 0 0
0 0 0
0 0 0
0 0 0
0 0 0
0 0 0
0 0 0
0 0 0
0 0 0
0 0 0
0 0 0
0 0 0
0 0 0
0 0 0
0 0 0
0 0 0
0 0 0
0 0 0
0 0 0
0 0 0
0 0 0
0 0 0
0 0 0
0 0 0
0 0 0
0 0 0
0 0 0
0 0 0
0 0 0
0 0 0
0 0 0
0 0 0
0 0 0
0 0 0
0 0 0
0 0 0
0 0 0
0 0 0
0 0 0
0 0 0
0 0 0
0 0 0
0 0 0
0 0 0
0 0 0
0 0 0
0 0 0
0 0 0
0 0 0
0 0 0
0 0 0
0 0 0
0 0 0
0 0 0
0 0 0
0 0 0
0 0 0
0 0 0
0 0 0
0 0 0
0 0 0
0 0 0
0 0 0
0 0 0
0 0 0
0 0 0
0 0 0
0 0 0
0 0 0
0 0 0
0 0 0
0 0 0
0 0 0
0 0 0
0 0 0
0 0 0
0 0 0
0 0 0
0 0 0
0 0 0
0 0 0
0 0 0
0 0 0
0 0 0
0 0 0
0 0 0
0 0 0
0 0 0
0 0 0
0 0 0
0 0 0
0 0 0
0 0 0
0 0 0
0 0 0
0 0 0
0 0 0
0 0 0
0 0 0
0 0 0
0 0 0
0 0 0
0 0 0
0 0 0
0 0 0
0 0 0
0 0 0
0 0 0
0 0 0
0 0 0
0 0 0
0 0 0
0 0 0
0 0 0
0 0 0
0 0 0
0 0 0
0 0 0
0 0 0
0 0 0
0 0 0
0 0 0
0 0 0
0 0 0
0 0 0
0 0 0
0 0 0
0 0 0
0 0 0
0 0 0
0 0 0
0 0 0
0 0 0
0 0 0
0 0 0
0 0 0
0 0 0
0 0 0
0 0 0
0 0 0
0 0 0
0 0 0
0 0 0
0 0 0
0 0 0
0 0 0
0 0 0
0 0 0
0 0 0
0 0 0
0 0 0
0 0 0
0 0 0
0 0 0
0 0 0
0 0 0
0 0 0
0 0 0
0 0 0
0 0 0
0 0 0
0 0 0
0 0 0
0 0 0
0 0 0
0 0 0
0 0 0
0 0 0
0 0 0
0 0 0
0 0 0
0 0 0
0 0 0
0 0 0
0 0 0
0 0 0
0 0 0
0 0 0
0 0 0
0 0 0
0 0 0
0 0 0
0 0 0
0 0 0
0 0 0
0 0 0
0 0 0
0 0 0
0 0 0
0 0 0
0 0 0
0 0 0
0 0 0
0 0 0
0 0 0
0 0 0
0 0 0
0 0 0
0 0 0
0 0 0
0 0 0
0 0 0
0 0 0
0 0 0
0 0 0
0 0 0
0 0 0
0 0 0
0 0 0
0 0 0
0 0 0
0 0 0
0 0 0
0 0 0
0 0 0
0 0 0
0 0 0
0 0 0
0 0 0
0 0 0
0 0 0
0 0 0
0 0 0
0 0 0
0 0 0
0 0 0
0 0 0
0 0 0
0 0 0
0 0 0
0 0 0
0 0 0
0 0 0
0 0 0
0 0 0
0 0 0
0 0 0
0 0 0
0 0 0
0 0 0
0 0 0
0 0 0
0 0 0
0 0 0
0 0 0
0 0 0
0 0 0
0 0 0
0 0 0
0 0 0
0 0 0
0 0 0
0 0 0
0 0 0
0 0 0
0 0 0
0 0 0
0 0 0
0 0 0
0 0 0
0 0 0
0 0 0
0 0 0
0 0 0
0 0 0
0 0 0
0 0 0
0 0 0
0 0 0
0 0 0
0 0 0
0 0 0
0 0 0
0 0 0
0 0 0
0 0 0
0 0 0
0 0 0
0 0 0
0 0 0
0 0 0
0 0 0
0 0 0
0 0 0
0 0 0
0 0 0
0 0 0
0 0 0
0 0 0
0 0 0
0 0 0
0 0 0
0 0 0
0 0 0
0 0 0
0 0 0
0 0 0
0 0 0
0 0 0
0 0 0
0 0 0
0 0 0
0 0 0
0 0 0
0 0 0
0 0 0
0 0 0
0 0 0
0 0 0
0 0 0
0 0 0
0 0 0
0 0 0
0 0 0
0 0 0
0 0 0
0 0 0
0 0 0
0 0 0
0 0 0
0 0 0
0 0 0
0 0 0
0 0 0
0 0 0
0 0 0
0 0 0
0 0 0
0 0 0
0 0 0
0 0 0
0 0 0
0 0 0
0 0 0
0 0 0
0 0 0
0 0 0
0 0 0
0 0 0
0 0 0
0 0 0
0 0 0
0 0 0
0 0 0
0 0 0
0 0 0
0 0 0
0 0 0
0 0 0
0 0 0
0 0 0
0 0 0
0 0 0
0 0 0
0 0 0
0 0 0
0 0 0
0 0 0
0 0 0
0 0 0
0 0 0
0 0 0
0 0 0
0 0 0
0 0 0
0 0 0
0 0 0
0 0 0
0 0 0
0 0 0
0 0 0
0 0 0
0 0 0
0 0 0
0 0 0
0 0 0
0 0 0
0 0 0
0 0 0
0 0 0
0 0 0
0 0 0
0 0 0
0 0 0
0 0 0
0 0 0
0 0 0
0 0 0
0 0 0
0 0 0
0 0 0
0 0 0
0 0 0
0 0 0
0 0 0
0 0 0
0 0 0
0 0 0
0 0 0
0 0 0
0 0 0
0 0 0
0 0 0
0 0 0
0 0 0
0 0 0
0 0 0
0 0 0
0 0 0
0 0 0
0 0 0
0 0 0
0 0 0
0 0 0
0 0 0
0 0 0
0 0 0
0 0 0
0 0 0
0 0 0
0 0 0
0 0 0
0 0 0
0 0 0
0 0 0
0 0 0
0 0 0
0 0 0
0 0 0
0 0 0
0 0 0
0 0 0
0 0 0
0 0 0
0 0 0
0 0 0
0 0 0
0 0 0
0 0 0
0 0 0
0 0 0
0 0 0
0 0 0
0 0 0
0 0 0
0 0 0
0 0 0
0 0 0
0 0 0
0 0 0
0 0 0
0 0 0
0 0 0
0 0 0
0 0 0
0 0 0
0 0 0
0 0 0
0 0 0
0 0 0
0 0 0
0 0 0
0 0 0
0 0 0
0 0 0
0 0 0
0 0 0
0 0 0
0 0 0
0 0 0
0 0 0
0 0 0
0 0 0
0 0 0
0 0 0
0 0 0
0 0 0
0 0 0
0 0 0
0 0 0
0 0 0
0 0 0
0 0 0
0 0 0
0 0 0
0 0 0
0 0 0
0 0 0
0 0 0
0 0 0
0 0 0
0 0 0
0 0 0
0 0 0
0 0 0
0 0 0
0 0 0
0 0 0
0 0 0
0 0 0
0 0 0
0 0 0
0 0 0
0 0 0
0 0 0
0 0 0
0 0 0
0 0 0
0 0 0
0 0 0
0 0 0
0 0 0
0 0 0
0 0 0
0 0 0
0 0 0
0 0 0
0 0 0
0 0 0
0 0 0
0 0 0
0 0 0
0 0 0
0 0 0
0 0 0
0 0 0
0 0 0
0 0 0
0 0 0
0 0 0
0 0 0
0 0 0
0 0 0
0 0 0
0 0 0
0 0 0
0 0 0
0 0 0
0 0 0
0 0 0
0 0 0
0 0 0
0 0 0
0 0 0
0 0 0
0 0 0
0 0 0
0 0 0
0 0 0
0 0 0
0 0 0
0 0 0
0 0 0
0 0 0
0 0 0
0 0 0
0 0 0
0 0 0
0 0 0
0 0 0
0 0 0
0 0 0
0 0 0
0 0 0
0 0 0
0 0 0
0 0 0
0 0 0
0 0 0
0 0 0
0 0 0
0 0 0
0 0 0
0 0 0
0 0 0
0 0 0
0 0 0
0 0 0
0 0 0
0 0 0
0 0 0
0 0 0
0 0 0
0 0 0
0 0 0
0 0 0
0 0 0
0 0 0
0 0 0
0 0 0
0 0 0
0 0 0
0 0 0
0 0 0
0 0 0
0 0 0
0 0 0
0 0 0
0 0 0
0 0 0
0 0 0
0 0 0
0 0 0
0 0 0
0 0 0
0 0 0
0 0 0
0 0 0
0 0 0
0 0 0
0 0 0
0 0 0
0 0 0
0 0 0
0 0 0
0 0 0
0 0 0
0 0 0
0 0 0
0 0 0
0 0 0
0 0 0
0 0 0
0 0 0
0 0 0
0 0 0
0 0 0
0 0 0
0 0 0
0 0 0
0 0 0
0 0 0
0 0 0
0 0 0
0 0 0
0 0 0
0 0 0
0 0 0
0 0 0
0 0 0
0 0 0
0 0 0
0 0 0
0 0 0
0 0 0
0 0 0
0 0 0
0 0 0
0 0 0
0 0 0
0 0 0
0 0 0
0 0 0
0 0 0
0 0 0
0 0 0
0 0 0
0 0 0
0 0 0
0 0 0
0 0 0
0 0 0
0 0 0
0 0 0
0 0 0
0 0 0
0 0 0
0 0 0
0 0 0
0 0 0
0 0 0
0 0 0
0 0 0
0 0 0
0 0 0
0 0 0
0 0 0
0 0 0
0 0 0
0 0 0
0 0 0
0 0 0
0 0 0
0 0 0
0 0 0
0 0 0
0 0 0
0 0 0
0 0 0
0 0 0
0 0 0
0 0 0
0 0 0
0 0 0
0 0 0
0 0 0
0 0 0
0 0 0
0 0 0
0 0 0
0 0 0
0 0 0
0 0 0
0 0 0
0 0 0
0 0 0
0 0 0
0 0 0
0 0 0
0 0 0
0 0 0
0 0 0
0 0 0
0 0 0
0 0 0
0 0 0
0 0 0
0 0 0
0 0 0
0 0 0
0 0 0
0 0 0
0 0 0
0 0 0
0 0 0
0 0 0
0 0 0
0 0 0
0 0 0
0 0 0
0 0 0
0 0 0
0 0 0
0 0 0
0 0 0
0 0 0
0 0 0
0 0 0
0 0 0
0 0 0
0 0 0
0 0 0
0 0 0
0 0 0
0 0 0
0 0 0
0 0 0
0 0 0
0 0 0
0 0 0
0 0 0
0 0 0
0 0 0
0 0 0
0 0 0
0 0 0
0 0 0
0 0 0
0 0 0
0 0 0
0 0 0
0 0 0
0 0 0
0 0 0
0 0 0
0 0 0
0 0 0
0 0 0
0 0 0
0 0 0
0 0 0
0 0 0
0 0 0
0 0 0
0 0 0
0 0 0
0 0 0
0 0 0
0 0 0
0 0 0
0 0 0
0 0 0
0 0 0
0 0 0
0 0 0
0 0 0
0 0 0
0 0 0
0 0 0
0 0 0
0 0 0
0 0 0
0 0 0
0 0 0
0 0 0
0 0 0
0 0 0
0 0 0
0 0 0
0 0 0
0 0 0
0 0 0
0 0 0
0 0 0
0 0 0
0 0 0
0 0 0
0 0 0
0 0 0
0 0 0
0 0 0
0 0 0
0 0 0
0 0 0
0 0 0
0 0 0
0 0 0
0 0 0
0 0 0
0 0 0
0 0 0
0 0 0
0 0 0
0 0 0
0 0 0
0 0 0
0 0 0
0 0 0
0 0 0
0 0 0
0 0 0
0 0 0
0 0 0
0 0 0
0 0 0
0 0 0
0 0 0
0 0 0
0 0 0
0 0 0
0 0 0
0 0 0
0 0 0
0 0 0
0 0 0
0 0 0
0 0 0
0 0 0
0 0 0
0 0 0
0 0 0
0 0 0
0 0 0
0 0 0
0 0 0
0 0 0
0 0 0
0 0 0
0 0 0
0 0 0
0 0 0
0 0 0
0 0 0
0 0 0
0 0 0
0 0 0
0 0 0
0 0 0
0 0 0
0 0 0
0 0 0
0 0 0
0 0 0
0 0 0
0 0 0
0 0 0
0 0 0
0 0 0
0 0 0
0 0 0
0 0 0
0 0 0
0 0 0
0 0 0
0 0 0
0 0 0
0 0 0
0 0 0
0 0 0
0 0 0
0 0 0
0 0 0
0 0 0
0 0 0
0 0 0
0 0 0
0 0 0
0 0 0
0 0 0
0 0 0
0 0 0
0 0 0
0 0 0
0 0 0
0 0 0
0 0 0
0 0 0
0 0 0
0 0 0
0 0 0
0 0 0
0 0 0
0 0 0
0 0 0
0 0 0
0 0 0
0 0 0
0 0 0
0 0 0
0 0 0
0 0 0
0 0 0
0 0 0
0 0 0
0 0 0
0 0 0
0 0 0
0 0 0
0 0 0
0 0 0
0 0 0
0 0 0
0 0 0
0 0 0
0 0 0
0 0 0
0 0 0
0 0 0
0 0 0
0 0 0
0 0 0
0 0 0
0 0 0
0 0 0
0 0 0
0 0 0
0 0 0
0 0 0
0 0 0
0 0 0
0 0 0
0 0 0
0 0 0
0 0 0
0 0 0
0 0 0
0 0 0
0 0 0
0 0 0
0 0 0
0 0 0
0 0 0
0 0 0
0 0 0
0 0 0
0 0 0
0 0 0
0 0 0
0 0 0
0 0 0
0 0 0
0 0 0
0 0 0
0 0 0
0 0 0
0 0 0
0 0 0
0 0 0
0 0 0
0 0 0
0 0 0
0 0 0
0 0 0
0 0 0
0 0 0
0 0 0
0 0 0
0 0 0
0 0 0
0 0 0
0 0 0
0 0 0
0 0 0
0 0 0
0 0 0
0 0 0
0 0 0
0 0 0
0 0 0
0 0 0
0 0 0
0 0 0
0 0 0
0 0 0
0 0 0
0 0 0
0 0 0
0 0 0
0 0 0
0 0 0
0 0 0
0 0 0
0 0 0
0 0 0
0 0 0
0 0 0
0 0 0
0 0 0
0 0 0
0 0 0
0 0 0
0 0 0
0 0 0
0 0 0
0 0 0
0 0 0
0 0 0
0 0 0
0 0 0
0 0 0
0 0 0
0 0 0
0 0 0
0 0 0
0 0 0
0 0 0
0 0 0
0 0 0
0 0 0
0 0 0
0 0 0
0 0 0
0 0 0
0 0 0
0 0 0
0 0 0
0 0 0
0 0 0
0 0 0
0 0 0
0 0 0
0 0 0
0 0 0
0 0 0
0 0 0
0 0 0
0 0 0
0 0 0
0 0 0
0 0 0
0 0 0
0 0 0
0 0 0
0 0 0
0 0 0
0 0 0
0 0 0
0 0 0
0 0 0
0 0 0
0 0 0
0 0 0
0 0 0
0 0 0
0 0 0
0 0 0
0 0 0
0 0 0
0 0 0
0 0 0
0 0 0
0 0 0
0 0 0
0 0 0
0 0 0
0 0 0
0 0 0
0 0 0
0 0 0
0 0 0
0 0 0
0 0 0
0 0 0
0 0 0
0 0 0
0 0 0
0 0 0
0 0 0
0 0 0
0 0 0
0 0 0
0 0 0
0 0 0
0 0 0
0 0 0
0 0 0
0 0 0
0 0 0
0 0 0
0 0 0
0 0 0
0 0 0
0 0 0
0 0 0
0 0 0
0 0 0
0 0 0
0 0 0
0 0 0
0 0 0
0 0 0
0 0 0
0 0 0
0 0 0
0 0 0
0 0 0
0 0 0
0 0 0
0 0 0
0 0 0
0 0 0
0 0 0
0 0 0
0 0 0
0 0 0
0 0 0
0 0 0
0 0 0
0 0 0
0 0 0
0 0 0
0 0 0
0 0 0
0 0 0
0 0 0
0 0 0
0 0 0
0 0 0
0 0 0
0 0 0
0 0 0
0 0 0
0 0 0
0 0 0
0 0 0
0 0 0
0 0 0
0 0 0
0 0 0
0 0 0
0 0 0
0 0 0
0 0 0
0 0 0
0 0 0
0 0 0
0 0 0
0 0 0
0 0 0
0 0 0
0 0 0
0 0 0
0 0 0
0 0 0
0 0 0
0 0 0
0 0 0
0 0 0
0 0 0
0 0 0
0 0 0
0 0 0
0 0 0
0 0 0
0 0 0
0 0 0
0 0 0
0 0 0
0 0 0
0 0 0
0 0 0
0 0 0
0 0 0
0 0 0
0 0 0
0 0 0
0 0 0
0 0 0
0 0 0
0 0 0
0 0 0
0 0 0
0 0 0
0 0 0
0 0 0
0 0 0
0 0 0
0 0 0
0 0 0
0 0 0
0 0 0
0 0 0
0 0 0
0 0 0
0 0 0
0 0 0
0 0 0
0 0 0
0 0 0
0 0 0
0 0 0
0 0 0
0 0 0
0 0 0
0 0 0
0 0 0
0 0 0
0 0 0
0 0 0
0 0 0
0 0 0
0 0 0
0 0 0
0 0 0
0 0 0
0 0 0
0 0 0
0 0 0
0 0 0
0 0 0
0 0 0
0 0 0
0 0 0
0 0 0
0 0 0
0 0 0
0 0 0
0 0 0
0 0 0
0 0 0
0 0 0
0 0 0
0 0 0
0 0 0
0 0 0
0 0 0
0 0 0
0 0 0
0 0 0
0 0 0
0 0 0
0 0 0
0 0 0
0 0 0
0 0 0
0 0 0
0 0 0
0 0 0
0 0 0
0 0 0
0 0 0
0 0 0
0 0 0
0 0 0
0 0 0
0 0 0
0 0 0
0 0 0
0 0 0
0 0 0
0 0 0
0 0 0
0 0 0
0 0 0
0 0 0
0 0 0
0 0 0
0 0 0
0 0 0
0 0 0
0 0 0
0 0 0
0 0 0
0 0 0
0 0 0
0 0 0
0 0 0
0 0 0
0 0 0
0 0 0
0 0 0
0 0 0
0 0 0
0 0 0
0 0 0
0 0 0
0 0 0
0 0 0
0 0 0
0 0 0
0 0 0
0 0 0
0 0 0
0 0 0
0 0 0
0 0 0
0 0 0
0 0 0
0 0 0
0 0 0
0 0 0
0 0 0
0 0 0
0 0 0
0 0 0
0 0 0
0 0 0
0 0 0
0 0 0
0 0 0
0 0 0
0 0 0
0 0 0
0 0 0
0 0 0
0 0 0
0 0 0
0 0 0
0 0 0
0 0 0
0 0 0
0 0 0
0 0 0
0 0 0
0 0 0
0 0 0
0 0 0
0 0 0
0 0 0
0 0 0
0 0 0
0 0 0
0 0 0
0 0 0
0 0 0
0 0 0
0 0 0
0 0 0
0 0 0
0 0 0
0 0 0
0 0 0
0 0 0
0 0 0
0 0 0
0 0 0
0 0 0
0 0 0
0 0 0
0 0 0
0 0 0
0 0 0
0 0 0
0 0 0
0 0 0
0 0 0
0 0 0
0 0 0
0 0 0
0 0 0
0 0 0
0 0 0
0 0 0
0 0 0
0 0 0
0 0 0
0 0 0
0 0 0
0 0 0
0 0 0
0 0 0
0 0 0
0 0 0
0 0 0
0 0 0
0 0 0
0 0 0
0 0 0
0 0 0
0 0 0
0 0 0
0 0 0
0 0 0
0 0 0
0 0 0
0 0 0
0 0 0
0 0 0
0 0 0
0 0 0
0 0 0
0 0 0
0 0 0
0 0 0
0 0 0
0 0 0
0 0 0
0 0 0
0 0 0
0 0 0
0 0 0
0 0 0
0 0 0
0 0 0
0 0 0
0 0 0
0 0 0
0 0 0
0 0 0
0 0 0
0 0 0
0 0 0
0 0 0
0 0 0
0 0 0
0 0 0
0 0 0
0 0 0
0 0 0
0 0 0
0 0 0
0 0 0
0 0 0
0 0 0
0 0 0
0 0 0
0 0 0
0 0 0
0 0 0
0 0 0
0 0 0
0 0 0
0 0 0
0 0 0
0 0 0
0 0 0
0 0 0
0 0 0
0 0 0
0 0 0
0 0 0
0 0 0
0 0 0
0 0 0
0 0 0
0 0 0
0 0 0
0 0 0
0 0 0
0 0 0
0 0 0
0 0 0
0 0 0
0 0 0
0 0 0
0 0 0
0 0 0
0 0 0
0 0 0
0 0 0
0 0 0
0 0 0
0 0 0
0 0 0
0 0 0
0 0 0
0 0 0
0 0 0
0 0 0
0 0 0
0 0 0
0 0 0
0 0 0
0 0 0
0 0 0
0 0 0
0 0 0
0 0 0
0 0 0
0 0 0
0 0 0
0 0 0
0 0 0
0 0 0
0 0 0
0 0 0
0 0 0
0 0 0
0 0 0
0 0 0
0 0 0
0 0 0
0 0 0
0 0 0
0 0 0
0 0 0
0 0 0
0 0 0
0 0 0
0 0 0
0 0 0
0 0 0
0 0 0
0 0 0
0 0 0
0 0 0
0 0 0
0 0 0
0 0 0
0 0 0
0 0 0
0 0 0
0 0 0
0 0 0
0 0 0
0 0 0
0 0 0
0 0 0
0 0 0
0 0 0
0 0 0
0 0 0
0 0 0
0 0 0
0 0 0
0 0 0
0 0 0
0 0 0
0 0 0
0 0 0
0 0 0
0 0 0
0 0 0
0 0 0
0 0 0
0 0 0
0 0 0
0 0 0
0 0 0
0 0 0
0 0 0
0 0 0
0 0 0
0 0 0
0 0 0
0 0 0
0 0 0
0 0 0
0 0 0
0 0 0
0 0 0
0 0 0
0 0 0
0 0 0
0 0 0
0 0 0
0 0 0
0 0 0
0 0 0
0 0 0
0 0 0
0 0 0
0 0 0
0 0 0
0 0 0
0 0 0
0 0 0
0 0 0
0 0 0
0 0 0
0 0 0
0 0 0
0 0 0
0 0 0
0 0 0
0 0 0
0 0 0
0 0 0
0 0 0
0 0 0
0 0 0
0 0 0
0 0 0
0 0 0
0 0 0
0 0 0
0 0 0
0 0 0
0 0 0
0 0 0
0 0 0
0 0 0
0 0 0
0 0 0
0 0 0
0 0 0
0 0 0
0 0 0
0 0 0
0 0 0
0 0 0
0 0 0
0 0 0
0 0 0
0 0 0
0 0 0
0 0 0
0 0 0
0 0 0
0 0 0
0 0 0
0 0 0
0 0 0
0 0 0
0 0 0
0 0 0
0 0 0
0 0 0
0 0 0
0 0 0
0 0 0
0 0 0
0 0 0
0 0 0
0 0 0
0 0 0
0 0 0
0 0 0
0 0 0
0 0 0
0 0 0
0 0 0
0 0 0
0 0 0
0 0 0
0 0 0
0 0 0
0 0 0
0 0 0
0 0 0
0 0 0
0 0 0
0 0 0
0 0 0
0 0 0
0 0 0
0 0 0
0 0 0
0 0 0
0 0 0
0 0 0
0 0 0
0 0 0
0 0 0
0 0 0
0 0 0
0 0 0
0 0 0
0 0 0
0 0 0
0 0 0
0 0 0
0 0 0
0 0 0
0 0 0
0 0 0
0 0 0
0 0 0
0 0 0
0 0 0
0 0 0
0 0 0
0 0 0
0 0 0
0 0 0
0 0 0
0 0 0
0 0 0
0 0 0
0 0 0
0 0 0
0 0 0
0 0 0
0 0 0
0 0 0
0 0 0
0 0 0
0 0 0
0 0 0
0 0 0
0 0 0
0 0 0
0 0 0
0 0 0
0 0 0
0 0 0
0 0 0
0 0 0
0 0 0
0 0 0
0 0 0
0 0 0
0 0 0
0 0 0
0 0 0
0 0 0
0 0 0
0 0 0
0 0 0
0 0 0
0 0 0
0 0 0
0 0 0
0 0 0
0 0 0
0 0 0
0 0 0
0 0 0
0 0 0
0 0 0
0 0 0
0 0 0
0 0 0
0 0 0
0 0 0
0 0 0
0 0 0
0 0 0
0 0 0
0 0 0
0 0 0
0 0 0
0 0 0
0 0 0
0 0 0
0 0 0
0 0 0
0 0 0
0 0 0
0 0 0
0 0 0
0 0 0
0 0 0
0 0 0
0 0 0
0 0 0
0 0 0
0 0 0
0 0 0
0 0 0
0 0 0
0 0 0
0 0 0
0 0 0
0 0 0
0 0 0
0 0 0
0 0 0
0 0 0
0 0 0
0 0 0
0 0 0
0 0 0
0 0 0
0 0 0
0 0 0
0 0 0
0 0 0
0 0 0
0 0 0
0 0 0
0 0 0
0 0 0
0 0 0
0 0 0
0 0 0
0 0 0
0 0 0
0 0 0
0 0 0
0 0 0
0 0 0
0 0 0
0 0 0
0 0 0
0 0 0
0 0 0
0 0 0
0 0 0
0 0 0
0 0 0
0 0 0
0 0 0
0 0 0
0 0 0
0 0 0
0 0 0
0 0 0
0 0 0
0 0 0
0 0 0
0 0 0
0 0 0
0 0 0
0 0 0
0 0 0
0 0 0
0 0 0
0 0 0
0 0 0
0 0 0
0 0 0
0 0 0
0 0 0
0 0 0
0 0 0
0 0 0
0 0 0
0 0 0
0 0 0
0 0 0
0 0 0
0 0 0
0 0 0
0 0 0
0 0 0
0 0 0
0 0 0
0 0 0
0 0 0
0 0 0
0 0 0
0 0 0
0 0 0
0 0 0
0 0 0
0 0 0
0 0 0
0 0 0
0 0 0
0 0 0
0 0 0
0 0 0
0 0 0
0 0 0
0 0 0
0 0 0
0 0 0
0 0 0
0 0 0
0 0 0
0 0 0
0 0 0
0 0 0
0 0 0
0 0 0
0 0 0
0 0 0
0 0 0
0 0 0
0 0 0
0 0 0
0 0 0
0 0 0
0 0 0
0 0 0
0 0 0
0 0 0
0 0 0
0 0 0
0 0 0
0 0 0
0 0 0
0 0 0
0 0 0
0 0 0
0 0 0
0 0 0
0 0 0
0 0 0
0 0 0
0 0 0
0 0 0
0 0 0
0 0 0
0 0 0
0 0 0
0 0 0
0 0 0
0 0 0
0 0 0
0 0 0
0 0 0
0 0 0
0 0 0
0 0 0
0 0 0
0 0 0
0 0 0
0 0 0
0 0 0
0 0 0
0 0 0
0 0 0
0 0 0
0 0 0
0 0 0
0 0 0
0 0 0
0 0 0
0 0 0
0 0 0
0 0 0
0 0 0
0 0 0
0 0 0
0 0 0
0 0 0
0 0 0
0 0 0
0 0 0
0 0 0
0 0 0
0 0 0
0 0 0
0 0 0
0 0 0
0 0 0
0 0 0
0 0 0
0 0 0
0 0 0
0 0 0
0 0 0
0 0 0
0 0 0
0 0 0
0 0 0
0 0 0
0 0 0
0 0 0
0 0 0
0 0 0
0 0 0
0 0 0
0 0 0
0 0 0
0 0 0
0 0 0
0 0 0
0 0 0
0 0 0
0 0 0
0 0 0
0 0 0
0 0 0
0 0 0
0 0 0
0 0 0
0 0 0
0 0 0
0 0 0
0 0 0
0 0 0
0 0 0
0 0 0
0 0 0
0 0 0
0 0 0
0 0 0
0 0 0
0 0 0
0 0 0
0 0 0
0 0 0
0 0 0
0 0 0
0 0 0
0 0 0
0 0 0
0 0 0
0 0 0
0 0 0
0 0 0
0 0 0
0 0 0
0 0 0
0 0 0
0 0 0
0 0 0
0 0 0
0 0 0
0 0 0
0 0 0
0 0 0
0 0 0
0 0 0
0 0 0
0 0 0
0 0 0
0 0 0
0 0 0
0 0 0
0 0 0
0 0 0
0 0 0
0 0 0
0 0 0
0 0 0
0 0 0
0 0 0
0 0 0
0 0 0
0 0 0
0 0 0
0 0 0
0 0 0
0 0 0
0 0 0
0 0 0
0 0 0
0 0 0
0 0 0
0 0 0
0 0 0
0 0 0
0 0 0
0 0 0
0 0 0
0 0 0
0 0 0
0 0 0
0 0 0
0 0 0
0 0 0
0 0 0
0 0 0
0 0 0
0 0 0
0 0 0
0 0 0
0 0 0
0 0 0
0 0 0
0 0 0
0 0 0
0 0 0
0 0 0
0 0 0
0 0 0
0 0 0
0 0 0
0 0 0
0 0 0
0 0 0
0 0 0
0 0 0
0 0 0
0 0 0
0 0 0
0 0 0
0 0 0
0 0 0
0 0 0
0 0 0
0 0 0
0 0 0
0 0 0
0 0 0
0 0 0
0 0 0
0 0 0
0 0 0
0 0 0
0 0 0
0 0 0
0 0 0
0 0 0
0 0 0
0 0 0
0 0 0
0 0 0
0 0 0
0 0 0
0 0 0
0 0 0
0 0 0
0 0 0
0 0 0
0 0 0
0 0 0
0 0 0
0 0 0
0 0 0
0 0 0
0 0 0
0 0 0
0 0 0
0 0 0
0 0 0
0 0 0
0 0 0
0 0 0
0 0 0
0 0 0
0 0 0
0 0 0
0 0 0
0 0 0
0 0 0
0 0 0
0 0 0
0 0 0
0 0 0
0 0 0
0 0 0
0 0 0
0 0 0
0 0 0
0 0 0
0 0 0
0 0 0
0 0 0
0 0 0
0 0 0
0 0 0
0 0 0
0 0 0
0 0 0
0 0 0
0 0 0
0 0 0
0 0 0
0 0 0
0 0 0
0 0 0
0 0 0
0 0 0
0 0 0
0 0 0
0 0 0
0 0 0
0 0 0
0 0 0
0 0 0
0 0 0
0 0 0
0 0 0
0 0 0
0 0 0
0 0 0
0 0 0
0 0 0
0 0 0
0 0 0
0 0 0
0 0 0
0 0 0
0 0 0
0 0 0
0 0 0
0 0 0
0 0 0
0 0 0
0 0 0
0 0 0
0 0 0
0 0 0
0 0 0
0 0 0
0 0 0
0 0 0
0 0 0
0 0 0
0 0 0
0 0 0
0 0 0
0 0 0
0 0 0
0 0 0
0 0 0
0 0 0
0 0 0
0 0 0
0 0 0
0 0 0
0 0 0
0 0 0
0 0 0
0 0 0
0 0 0
0 0 0
0 0 0
0 0 0
0 0 0
0 0 0
0 0 0
0 0 0
0 0 0
0 0 0
0 0 0
0 0 0
0 0 0
0 0 0
0 0 0
0 0 0
0 0 0
0 0 0
0 0 0
0 0 0
0 0 0
0 0 0
0 0 0
0 0 0
0 0 0
0 0 0
0 0 0
0 0 0
0 0 0
0 0 0
0 0 0
0 0 0
0 0 0
0 0 0
0 0 0
0 0 0
0 0 0
0 0 0
0 0 0
0 0 0
0 0 0
0 0 0
0 0 0
0 0 0
0 0 0
0 0 0
0 0 0
0 0 0
0 0 0
0 0 0
0 0 0
0 0 0
0 0 0
0 0 0
0 0 0
0 0 0
0 0 0
0 0 0
0 0 0
0 0 0
0 0 0
0 0 0
0 0 0
0 0 0
0 0 0
0 0 0
0 0 0
0 0 0
0 0 0
0 0 0
0 0 0
0 0 0
0 0 0
0 0 0
0 0 0
0 0 0
0 0 0
0 0 0
0 0 0
0 0 0
0 0 0
0 0 0
0 0 0
0 0 0
0 0 0
0 0 0
0 0 0
0 0 0
0 0 0
0 0 0
0 0 0
0 0 0
0 0 0
0 0 0
0 0 0
0 0 0
0 0 0
0 0 0
0 0 0
0 0 0
0 0 0
0 0 0
0 0 0
0 0 0
0 0 0
0 0 0
0 0 0
0 0 0
0 0 0
0 0 0
0 0 0
0 0 0
0 0 0
0 0 0
0 0 0
0 0 0
0 0 0
0 0 0
0 0 0
0 0 0
0 0 0
0 0 0
0 0 0
0 0 0
0 0 0
0 0 0
0 0 0
0 0 0
0 0 0
0 0 0
0 0 0
0 0 0
0 0 0
0 0 0
0 0 0
0 0 0
0 0 0
0 0 0
0 0 0
0 0 0
0 0 0
0 0 0
0 0 0
0 0 0
0 0 0
0 0 0
0 0 0
0 0 0
0 0 0
0 0 0
0 0 0
0 0 0
0 0 0
0 0 0
0 0 0
0 0 0
0 0 0
0 0 0
0 0 0
0 0 0
0 0 0
0 0 0
0 0 0
0 0 0
0 0 0
0 0 0
0 0 0
0 0 0
0 0 0
0 0 0
0 0 0
0 0 0
0 0 0
0 0 0
0 0 0
0 0 0
0 0 0
0 0 0
0 0 0
0 0 0
0 0 0
0 0 0
0 0 0
0 0 0
0 0 0
0 0 0
0 0 0
0 0 0
0 0 0
0 0 0
0 0 0
0 0 0
0 0 0
0 0 0
0 0 0
0 0 0
0 0 0
0 0 0
0 0 0
0 0 0
0 0 0
0 0 0
0 0 0
0 0 0
0 0 0
0 0 0
0 0 0
0 0 0
0 0 0
0 0 0
0 0 0
0 0 0
0 0 0
0 0 0
0 0 0
0 0 0
0 0 0
0 0 0
0 0 0
0 0 0
0 0 0
0 0 0
0 0 0
0 0 0
0 0 0
0 0 0
0 0 0
0 0 0
0 0 0
0 0 0
0 0 0
0 0 0
0 0 0
0 0 0
0 0 0
0 0 0
0 0 0
0 0 0
0 0 0
0 0 0
0 0 0
0 0 0
0 0 0
0 0 0
0 0 0
0 0 0
0 0 0
0 0 0
0 0 0
0 0 0
0 0 0
0 0 0
0 0 0
0 0 0
0 0 0
0 0 0
0 0 0
0 0 0
0 0 0
0 0 0
0 0 0
0 0 0
0 0 0
0 0 0
0 0 0
0 0 0
0 0 0
0 0 0
0 0 0
0 0 0
0 0 0
0 0 0
0 0 0
0 0 0
0 0 0
0 0 0
0 0 0
0 0 0
0 0 0
0 0 0
0 0 0
0 0 0
0 0 0
0 0 0
0 0 0
0 0 0
0 0 0
0 0 0
0 0 0
0 0 0
0 0 0
0 0 0
0 0 0
0 0 0
0 0 0
0 0 0
0 0 0
0 0 0
0 0 0
0 0 0
0 0 0
0 0 0
0 0 0
0 0 0
0 0 0
0 0 0
0 0 0
0 0 0
0 0 0
0 0 0
0 0 0
0 0 0
0 0 0
0 0 0
0 0 0
0 0 0
0 0 0
0 0 0
0 0 0
0 0 0
0 0 0
0 0 0
0 0 0
0 0 0
0 0 0
0 0 0
0 0 0
0 0 0
0 0 0
0 0 0
0 0 0
0 0 0
0 0 0
0 0 0
0 0 0
0 0 0
0 0 0
0 0 0
0 0 0
0 0 0
0 0 0
0 0 0
0 0 0
0 0 0
0 0 0
0 0 0
0 0 0
0 0 0
0 0 0
0 0 0
0 0 0
0 0 0
0 0 0
0 0 0
0 0 0
0 0 0
0 0 0
0 0 0
0 0 0
0 0 0
0 0 0
0 0 0
0 0 0
0 0 0
0 0 0
0 0 0
0 0 0
0 0 0
0 0 0
0 0 0
0 0 0
0 0 0
0 0 0
0 0 0
0 0 0
0 0 0
0 0 0
0 0 0
0 0 0
0 0 0
0 0 0
0 0 0
0 0 0
0 0 0
0 0 0
0 0 0
0 0 0
0 0 0
0 0 0
0 0 0
0 0 0
0 0 0
0 0 0
0 0 0
0 0 0
0 0 0
0 0 0
0 0 0
0 0 0
0 0 0
0 0 0
0 0 0
0 0 0
0 0 0
0 0 0
0 0 0
0 0 0
0 0 0
0 0 0
0 0 0
0 0 0
0 0 0
0 0 0
0 0 0
0 0 0
0 0 0
0 0 0
0 0 0
0 0 0
0 0 0
0 0 0
0 0 0
0 0 0
0 0 0
0 0 0
0 0 0
0 0 0
0 0 0
0 0 0
0 0 0
0 0 0
0 0 0
0 0 0
0 0 0
0 0 0
0 0 0
0 0 0
0 0 0
0 0 0
0 0 0
0 0 0
0 0 0
0 0 0
0 0 0
0 0 0
0 0 0
0 0 0
0 0 0
0 0 0
0 0 0
0 0 0
0 0 0
0 0 0
0 0 0
0 0 0
0 0 0
0 0 0
0 0 0
0 0 0
0 0 0
0 0 0
0 0 0
0 0 0
0 0 0
0 0 0
0 0 0
0 0 0
0 0 0
0 0 0
0 0 0
0 0 0
0 0 0
0 0 0
0 0 0
0 0 0
0 0 0
0 0 0
0 0 0
0 0 0
0 0 0
0 0 0
0 0 0
0 0 0
0 0 0
0 0 0
0 0 0
0 0 0
0 0 0
0 0 0
0 0 0
0 0 0
0 0 0
0 0 0
0 0 0
0 0 0
0 0 0
0 0 0
0 0 0
0 0 0
0 0 0
0 0 0
0 0 0
0 0 0
0 0 0
0 0 0
0 0 0
0 0 0
0 0 0
0 0 0
0 0 0
0 0 0
0 0 0
0 0 0
0 0 0
0 0 0
0 0 0
0 0 0
0 0 0
0 0 0
0 0 0
0 0 0
0 0 0
0 0 0
0 0 0
0 0 0
0 0 0
0 0 0
0 0 0
0 0 0
0 0 0
0 0 0
0 0 0
0 0 0
0 0 0
0 0 0
0 0 0
0 0 0
0 0 0
0 0 0
0 0 0
0 0 0
0 0 0
0 0 0
0 0 0
0 0 0
0 0 0
0 0 0
0 0 0
0 0 0
0 0 0
0 0 0
0 0 0
0 0 0
0 0 0
0 0 0
0 0 0
0 0 0
0 0 0
0 0 0
0 0 0
0 0 0
0 0 0
0 0 0
0 0 0
0 0 0
0 0 0
0 0 0
0 0 0
0 0 0
0 0 0
0 0 0
0 0 0
0 0 0
0 0 0
0 0 0
0 0 0
0 0 0
0 0 0
0 0 0
0 0 0
0 0 0
0 0 0
0 0 0
0 0 0
0 0 0
0 0 0
0 0 0
0 0 0
0 0 0
0 0 0
0 0 0
0 0 0
0 0 0
0 0 0
0 0 0
0 0 0
0 0 0
0 0 0
0 0 0
0 0 0
0 0 0
0 0 0
0 0 0
0 0 0
0 0 0
0 0 0
0 0 0
0 0 0
0 0 0
0 0 0
0 0 0
0 0 0
0 0 0
0 0 0
0 0 0
0 0 0
0 0 0
0 0 0
0 0 0
0 0 0
0 0 0
0 0 0
0 0 0
0 0 0
0 0 0
0 0 0
0 0 0
0 0 0
0 0 0
0 0 0
0 0 0
0 0 0
0 0 0
0 0 0
0 0 0
0 0 0
0 0 0
0 0 0
0 0 0
0 0 0
0 0 0
0 0 0
0 0 0
0 0 0
0 0 0
0 0 0
0 0 0
0 0 0
0 0 0
0 0 0
0 0 0
0 0 0
0 0 0
0 0 0
0 0 0
0 0 0
0 0 0
0 0 0
0 0 0
0 0 0
0 0 0
0 0 0
0 0 0
0 0 0
0 0 0
0 0 0
0 0 0
0 0 0
0 0 0
0 0 0
0 0 0
0 0 0
0 0 0
0 0 0
0 0 0
0 0 0
0 0 0
0 0 0
0 0 0
0 0 0
0 0 0
0 0 0
0 0 0
0 0 0
0 0 0
0 0 0
0 0 0
0 0 0
0 0 0
0 0 0
0 0 0
0 0 0
0 0 0
0 0 0
0 0 0
0 0 0
0 0 0
0 0 0
0 0 0
0 0 0
0 0 0
0 0 0
0 0 0
0 0 0
0 0 0
0 0 0
0 0 0
0 0 0
0 0 0
0 0 0
0 0 0
0 0 0
0 0 0
0 0 0
0 0 0
0 0 0
0 0 0
0 0 0
0 0 0
0 0 0
0 0 0
0 0 0
0 0 0
0 0 0
0 0 0
0 0 0
0 0 0
0 0 0
0 0 0
0 0 0
0 0 0
0 0 0
0 0 0
0 0 0
0 0 0
0 0 0
0 0 0
0 0 0
0 0 0
0 0 0
0 0 0
0 0 0
0 0 0
0 0 0
0 0 0
0 0 0
0 0 0
0 0 0
0 0 0
0 0 0
0 0 0
0 0 0
0 0 0
0 0 0
0 0 0
0 0 0
0 0 0
0 0 0
0 0 0
0 0 0
0 0 0
0 0 0
0 0 0
0 0 0
0 0 0
0 0 0
0 0 0
0 0 0
0 0 0
0 0 0
0 0 0
0 0 0
0 0 0
0 0 0
0 0 0
0 0 0
0 0 0
0 0 0
0 0 0
0 0 0
0 0 0
0 0 0
0 0 0
0 0 0
0 0 0
0 0 0
0 0 0
0 0 0
0 0 0
0 0 0
0 0 0
0 0 0
0 0 0
0 0 0
0 0 0
0 0 0
0 0 0
0 0 0
0 0 0
0 0 0
0 0 0
0 0 0
0 0 0
0 0 0
0 0 0
0 0 0
0 0 0
0 0 0
0 0 0
0 0 0
0 0 0
0 0 0
0 0 0
0 0 0
0 0 0
0 0 0
0 0 0
0 0 0
0 0 0
0 0 0
0 0 0
0 0 0
0 0 0
0 0 0
0 0 0
0 0 0
0 0 0
0 0 0
0 0 0
0 0 0
0 0 0
0 0 0
0 0 0
0 0 0
0 0 0
0 0 0
0 0 0
0 0 0
0 0 0
0 0 0
0 0 0
0 0 0
0 0 0
0 0 0
0 0 0
0 0 0
0 0 0
0 0 0
0 0 0
0 0 0
0 0 0
0 0 0
0 0 0
0 0 0
0 0 0
0 0 0
0 0 0
0 0 0
0 0 0
0 0 0
0 0 0
0 0 0
0 0 0
0 0 0
0 0 0
0 0 0
0 0 0
0 0 0
0 0 0
0 0 0
0 0 0
0 0 0
0 0 0
0 0 0
0 0 0
0 0 0
0 0 0
0 0 0
0 0 0
0 0 0
0 0 0
0 0 0
0 0 0
0 0 0
0 0 0
0 0 0
0 0 0
0 0 0
0 0 0
0 0 0
0 0 0
0 0 0
0 0 0
0 0 0
0 0 0
0 0 0
0 0 0
0 0 0
0 0 0
0 0 0
0 0 0
0 0 0
0 0 0
0 0 0
0 0 0
0 0 0
0 0 0
0 0 0
0 0 0
0 0 0
0 0 0
0 0 0
0 0 0
0 0 0
0 0 0
0 0 0
0 0 0
0 0 0
0 0 0
0 0 0
0 0 0
0 0 0
0 0 0
0 0 0
0 0 0
0 0 0
0 0 0
0 0 0
0 0 0
0 0 0
0 0 0
0 0 0
0 0 0
0 0 0
0 0 0
0 0 0
0 0 0
0 0 0
0 0 0
0 0 0
0 0 0
0 0 0
0 0 0
0 0 0
0 0 0
0 0 0
0 0 0
0 0 0
0 0 0
0 0 0
0 0 0
0 0 0
0 0 0
0 0 0
0 0 0
0 0 0
0 0 0
0 0 0
0 0 0
0 0 0
0 0 0
0 0 0
0 0 0
0 0 0
0 0 0
0 0 0
0 0 0
0 0 0
0 0 0
0 0 0
0 0 0
0 0 0
0 0 0
0 0 0
0 0 0
0 0 0
0 0 0
0 0 0
0 0 0
0 0 0
0 0 0
0 0 0
0 0 0
0 0 0
0 0 0
0 0 0
0 0 0
0 0 0
0 0 0
0 0 0
0 0 0
0 0 0
0 0 0
0 0 0
0 0 0
0 0 0
0 0 0
0 0 0
0 0 0
0 0 0
0 0 0
0 0 0
0 0 0
0 0 0
0 0 0
0 0 0
0 0 0
0 0 0
0 0 0
0 0 0
0 0 0
0 0 0
0 0 0
0 0 0
0 0 0
0 0 0
0 0 0
0 0 0
0 0 0
0 0 0
0 0 0
0 0 0
0 0 0
0 0 0
0 0 0
0 0 0
0 0 0
0 0 0
0 0 0
0 0 0
0 0 0
0 0 0
0 0 0
0 0 0
0 0 0
0 0 0
0 0 0
0 0 0
0 0 0
0 0 0
0 0 0
0 0 0
0 0 0
0 0 0
0 0 0
0 0 0
0 0 0
0 0 0
0 0 0
0 0 0
0 0 0
0 0 0
0 0 0
0 0 0
0 0 0
0 0 0
0 0 0
0 0 0
0 0 0
0 0 0
0 0 0
0 0 0
0 0 0
0 0 0
0 0 0
0 0 0
0 0 0
0 0 0
0 0 0
0 0 0
0 0 0
0 0 0
0 0 0
0 0 0
0 0 0
0 0 0
0 0 0
0 0 0
0 0 0
0 0 0
0 0 0
0 0 0
0 0 0
0 0 0
0 0 0
0 0 0
0 0 0
0 0 0
0 0 0
0 0 0
0 0 0
0 0 0
0 0 0
0 0 0
0 0 0
0 0 0
0 0 0
0 0 0
0 0 0
0 0 0
0 0 0
0 0 0
0 0 0
0 0 0
0 0 0
0 0 0
0 0 0
0 0 0
0 0 0
0 0 0
0 0 0
0 0 0
0 0 0
0 0 0
0 0 0
0 0 0
0 0 0
0 0 0
0 0 0
0 0 0
0 0 0
0 0 0
0 0 0
0 0 0
0 0 0
0 0 0
0 0 0
0 0 0
0 0 0
0 0 0
0 0 0
0 0 0
0 0 0
0 0 0
0 0 0
0 0 0
0 0 0
0 0 0
0 0 0
0 0 0
0 0 0
0 0 0
0 0 0
0 0 0
0 0 0
0 0 0
0 0 0
0 0 0
0 0 0
0 0 0
0 0 0
0 0 0
0 0 0
0 0 0
0 0 0
0 0 0
0 0 0
0 0 0
0 0 0
0 0 0
0 0 0
0 0 0
0 0 0
0 0 0
0 0 0
0 0 0
0 0 0
0 0 0
0 0 0
0 0 0
0 0 0
0 0 0
0 0 0
0 0 0
0 0 0
0 0 0
0 0 0
0 0 0
0 0 0
0 0 0
0 0 0
0 0 0
0 0 0
0 0 0
0 0 0
0 0 0
0 0 0
0 0 0
0 0 0
0 0 0
0 0 0
0 0 0
0 0 0
0 0 0
0 0 0
0 0 0
0 0 0
0 0 0
0 0 0
0 0 0
0 0 0
0 0 0
0 0 0
0 0 0
0 0 0
0 0 0
0 0 0
0 0 0
0 0 0
0 0 0
0 0 0
0 0 0
0 0 0
0 0 0
0 0 0
0 0 0
0 0 0
0 0 0
0 0 0
0 0 0
0 0 0
0 0 0
0 0 0
0 0 0
0 0 0
0 0 0
0 0 0
0 0 0
0 0 0
0 0 0
0 0 0
0 0 0
0 0 0
0 0 0
0 0 0
0 0 0
0 0 0
0 0 0
0 0 0
0 0 0
0 0 0
0 0 0
0 0 0
0 0 0
0 0 0
0 0 0
0 0 0
0 0 0
0 0 0
0 0 0
0 0 0
0 0 0
0 0 0
0 0 0
0 0 0
0 0 0
0 0 0
0 0 0
0 0 0
0 0 0
0 0 0
0 0 0
0 0 0
0 0 0
0 0 0
0 0 0
0 0 0
0 0 0
0 0 0
0 0 0
0 0 0
0 0 0
0 0 0
0 0 0
0 0 0
0 0 0
4 2 1
34 19 15
15 6 2
20 30 21
26 18 18
29 23 23
17 17 17
33 33 33
5 11 6
34 27 27
4 8 4
22 10 7
7 0 0
32 21 19
1 0 0
33 17 11
33 20 17
30 29 29
3 3 1
33 14 10
28 24 22
20 23 20
7 11 6
50 51 50
21 9 7
9 18 10
13 17 12
13 13 12
29 24 15
48 36 36
18 26 15
27 29 27
43 51 43
12 12 12
19 17 15
28 12 8
36 32 31
12 14 12
25 17 11
31 33 32
9 19 10
14 3 3
37 42 38
40 24 23
24 7 6
3 4 1
42 32 29
38 33 32
25 28 25
5 11 6
17 8 6
13 14 7
31 8 8
11 17 10
2 3 1
48 48 48
30 31 28
33 19 18
25 24 21
29 33 27
13 15 10
26 27 23
28 31 28
23 26 23
26 21 21
10 10 10
26 23 23
20 33 21
8 13 7
18 12 12
19 15 15
14 12 12
16 20 17
3 12 4
51 30 26
23 18 12
24 28 22
27 28 19
15 18 10
35 29 29
14 18 14
23 27 23
28 17 17
42 48 42
21 17 11
13 6 4
44 54 32
21 20 20
10 8 3
10 15 8
24 28 20
33 48 35
52 52 52
23 26 23
33 17 13
15 17 13
16 18 14
10 18 10
8 12 7
11 14 8
23 18 18
11 18 11
32 23 23
46 30 30
30 22 22
3 2 1
27 25 25
29 29 23
36 36 36
37 43 31
10 16 8
25 9 7
53 53 53
20 15 14
22 10 10
9 16 9
4 1 1
21 22 19
24 23 23
55 29 20
20 23 19
26 28 26
6 4 1
8 12 7
21 21 20
26 34 26
21 22 21
26 26 26
20 24 17
14 13 13
34 25 23
27 20 17
39 40 39
21 21 21
30 32 29
4 2 1
22 17 17
23 24 23
19 18 18
46 47 46
20 16 13
26 21 18
0 0 0
24 7 6
33 15 15
23 22 20
45 33 23
34 23 23
17 22 17
12 13 12
26 19 15
33 20 17
29 35 29
22 6 6
46 41 41
68 24 23
31 29 25
12 14 13
15 13 8
20 23 20
33 37 32
30 33 30
28 22 22
25 21 17
33 29 26
12 24 13
15 20 15
28 17 13
25 18 17
42 25 25
19 21 18
11 24 12
27 30 27
26 26 25
21 16 16
29 29 29
19 5 5
25 20 19
38 37 36
30 24 19
30 30 29
13 17 12
23 22 22
22 13 13
12 12 12
14 15 9
42 35 29
51 49 47
49 42 40
24 16 15
29 15 10
21 24 20
34 30 30
35 29 29
28 25 18
8 16 9
23 6 6
11 22 13
35 23 20
28 28 28
35 32 26
7 12 7
30 18 18
28 33 26
24 26 24
13 13 13
29 21 21
38 35 33
19 19 19
15 22 16
33 29 29
23 22 22
15 22 13
24 20 19
41 29 27
25 30 25
18 25 19
40 10 10
49 47 45
48 48 42
17 25 17
7 14 8
41 11 11
9 16 9
19 21 17
23 27 23
42 42 38
29 8 8
45 17 17
50 94 54
39 33 33
27 45 29
23 15 13
14 14 14
27 30 21
56 20 20
26 24 24
27 29 25
15 22 16
43 18 18
17 21 17
12 20 12
17 18 17
29 21 21
10 19 11
19 18 10
25 20 19
22 23 21
69 46 45
39 30 27
19 28 20
46 38 38
31 14 12
4 6 2
43 41 38
20 9 9
11 15 8
16 13 13
7 2 2
15 14 14
24 23 18
27 7 6
15 12 12
20 13 13
43 43 43
27 30 27
29 22 22
33 16 16
30 23 23
37 42 37
37 28 25
25 20 16
32 20 20
25 23 14
21 18 14
0 0 0
53 45 45
23 15 10
19 15 9
14 14 9
40 41 38
30 25 24
15 13 13
36 37 36
34 35 29
58 29 22
31 18 13
48 33 31
18 22 18
26 31 26
34 31 30
24 23 20
41 39 35
27 20 13
25 26 25
7 11 6
11 4 4
26 25 24
37 24 22
13 16 9
29 24 24
27 26 26
9 18 10
39 34 34
37 24 24
22 21 20
32 32 32
31 27 24
21 11 7
22 22 22
39 26 26
13 13 13
42 19 19
22 17 14
39 37 37
5 5 1
20 22 20
36 24 24
23 24 16
31 32 31
31 29 29
46 46 44
34 21 14
20 6 6
15 14 13
22 5 5
23 14 13
20 15 9
38 35 34
10 2 2
27 20 16
15 21 16
24 6 6
25 22 19
20 18 18
12 4 4
16 15 13
22 6 6
35 19 19
24 23 17
27 21 20
27 18 18
19 24 19
34 33 33
18 14 13
57 57 57
33 17 16
19 15 15
29 15 15
29 30 24
86 81 79
37 24 14
25 26 25
26 19 16
17 22 16
29 16 11
51 31 29
24 23 22
2 1 0
27 35 27
4 6 3
113 49 49
36 36 31
24 23 23
16 16 15
32 28 28
34 30 27
31 15 15
11 20 12
30 25 24
18 12 12
19 17 10
24 11 10
24 12 9
32 26 26
30 31 27
24 24 20
28 28 28
22 19 19
12 12 12
5 8 5
33 28 26
65 40 34
32 22 18
26 29 25
28 28 24
34 32 31
25 24 22
23 26 21
36 40 37
13 13 12
26 25 23
15 27 15
28 10 8
28 27 27
29 19 19
26 30 20
22 6 6
55 64 50
31 34 31
29 21 13
30 25 24
33 24 24
16 12 12
13 13 12
11 19 11
26 31 26
6 1 0
23 18 11
19 19 19
37 31 31
16 17 15
33 29 25
40 32 32
21 13 13
22 15 14
28 31 28
40 21 21
20 20 20
42 31 31
24 6 6
14 5 5
16 19 16
25 8 7
16 29 17
24 11 11
28 17 17
2 0 0
19 18 17
32 30 23
8 6 5
26 22 22
13 10 6
24 17 11
42 37 37
27 16 15
16 14 13
16 15 13
24 22 13
15 17 10
26 31 23
6 1 1
2 1 0
26 22 22
30 30 24
13 12 12
19 19 19
21 22 19
34 50 32
34 19 19
31 31 27
28 27 27
48 39 37
14 17 10
7 3 2
2 1 0
24 11 8
27 19 17
30 19 19
19 17 17
34 32 31
40 34 34
34 25 19
29 8 8
14 14 14
21 13 13
23 22 22
5 2 1
11 18 11
44 27 22
39 24 24
14 9 9
18 11 11
20 21 20
47 34 34
4 5 4
15 10 5
31 16 14
26 10 10
31 25 25
18 16 16
40 39 32
25 23 23
38 31 30
35 22 17
33 8 5
20 20 20
6 0 0
30 27 27
21 25 21
15 13 13
27 7 7
37 25 25
29 29 29
19 9 9
33 27 27
28 28 20
14 12 12
11 21 12
19 17 11
23 25 21
24 14 14
20 25 18
34 31 30
40 34 34
20 20 20
37 29 29
34 34 34
29 25 25
16 15 14
25 21 19
8 1 1
3 0 0
23 10 8
12 12 12
38 14 11
7 2 1
23 18 18
5 0 0
17 25 15
9 2 2
26 25 22
15 4 4
18 5 5
17 5 4
45 43 42
18 3 2
38 26 26
22 22 22
20 16 16
30 17 17
22 14 14
25 19 19
20 19 19
14 27 15
29 8 8
3 5 2
27 29 21
23 14 9
13 1 1
39 22 22
17 13 13
4 5 2
23 7 6
13 13 13
6 6 2
20 23 19
19 11 7
28 15 15
14 8 5
25 19 19
20 22 16
36 28 28
30 8 8
64 48 48
19 19 19
26 35 27
20 18 18
32 24 24
25 6 6
14 4 3
23 27 23
55 44 44
21 21 21
22 19 19
11 3 3
23 17 11
1 0 0
10 16 9
17 7 5
19 12 12
23 21 21
2 1 0
0 0 0
0 0 0
0 0 0
0 0 0
0 0 0
0 0 0
0 0 0
0 0 0
0 0 0
0 0 0
0 0 0
0 0 0
0 0 0
0 0 0
0 0 0
0 0 0
0 0 0
0 0 0
0 0 0
0 0 0
0 0 0
0 0 0
0 0 0
0 0 0
0 0 0
0 0 0
0 0 0
13 16 6
18 18 15
35 9 9
101 94 93
5 9 5
34 33 33
36 35 32
23 32 23
26 21 18
36 35 34
29 14 14
40 31 29
44 36 35
40 41 36
40 39 39
44 43 40
35 29 25
39 33 32
40 27 20
27 21 18
37 35 30
32 26 22
28 21 18
67 64 58
40 44 39
22 24 22
26 27 26
41 43 40
34 47 32
30 35 31
43 41 41
43 49 43
45 32 24
33 25 20
28 32 27
44 40 38
18 16 9
46 48 45
74 72 72
39 38 36
30 19 18
50 37 33
48 56 49
32 34 29
21 30 21
34 26 21
26 23 20
36 42 36
30 36 29
17 21 14
14 26 15
38 48 38
42 29 24
48 40 37
44 35 35
17 18 11
40 47 36
45 45 39
32 20 18
31 55 33
31 31 30
37 35 28
27 28 25
20 18 18
38 32 31
32 27 22
22 28 21
42 42 39
34 27 17
19 21 15
39 40 29
25 30 25
40 25 22
62 34 33
33 28 21
19 20 17
52 57 50
41 55 42
42 37 35
30 24 21
61 54 53
43 46 42
77 33 28
27 31 26
54 43 43
39 45 39
29 23 22
53 31 24
20 20 18
37 25 24
64 47 41
62 56 53
54 54 49
47 38 35
43 49 40
59 64 56
44 33 26
71 43 38
37 31 29
34 22 14
33 35 27
50 48 45
36 32 29
23 20 17
23 8 6
47 35 25
34 41 33
17 28 18
54 63 55
30 31 26
40 42 38
47 42 42
35 25 22
52 40 32
36 22 22
42 36 26
37 32 28
38 35 30
19 19 18
22 27 21
41 34 34
31 25 20
48 50 46
42 44 42
31 36 27
58 57 56
58 61 55
39 40 37
35 34 34
22 26 20
42 24 20
43 43 41
43 34 33
43 42 36
31 25 18
44 44 39
82 70 68
35 39 33
34 41 34
34 26 26
61 53 51
59 56 53
40 21 15
34 37 28
37 47 34
23 32 22
40 27 24
45 57 46
44 44 42
75 76 75
51 41 32
27 31 25
34 38 32
86 83 81
49 48 46
45 46 43
49 43 35
39 42 36
41 32 30
45 39 39
33 32 26
23 27 22
32 35 29
31 20 16
35 43 35
21 9 7
39 40 36
32 35 30
29 32 28
29 32 29
67 71 67
36 39 34
38 34 28
45 40 35
41 41 39
50 40 39
56 14 13
43 43 36
30 31 27
57 60 56
43 43 32
37 36 34
55 46 36
36 36 33
46 45 38
40 46 39
46 34 34
37 33 30
43 30 25
41 38 31
47 28 21
42 53 43
41 40 40
60 49 44
18 7 5
35 20 18
35 36 28
41 29 29
43 47 39
60 61 57
58 37 36
43 34 32
43 49 40
34 33 28
50 54 46
48 45 40
53 32 29
27 20 19
41 42 40
33 31 24
32 38 32
32 34 29
42 44 42
29 24 14
42 40 34
19 20 15
57 45 43
43 24 23
27 35 27
44 44 40
43 48 35
65 33 26
43 39 30
30 29 29
76 63 60
54 87 42
31 43 31
48 39 34
40 39 30
45 47 43
42 34 32
62 51 49
52 44 43
71 72 71
52 61 52
84 87 83
47 36 34
46 34 29
41 40 32
45 42 37
37 31 31
36 36 34
34 35 33
42 38 27
45 43 37
36 28 23
22 15 14
47 30 26
67 61 60
43 29 28
82 78 77
28 32 25
47 36 33
39 26 24
25 26 18
47 47 30
26 25 23
48 44 42
49 37 36
22 20 19
43 37 26
34 54 21
25 15 10
36 20 18
38 35 28
43 29 21
47 42 38
54 42 39
107 103 102
47 29 25
46 48 36
51 53 50
36 34 32
45 26 22
58 49 43
31 26 22
43 37 33
36 41 32
35 29 27
56 52 47
40 26 24
48 46 41
74 69 66
44 33 29
48 44 43
37 44 30
35 28 28
35 26 23
58 36 31
45 35 35
50 84 54
46 39 31
23 23 14
33 36 32
29 29 27
27 11 7
41 31 28
47 34 33
36 32 29
33 28 26
38 32 32
48 45 41
62 61 60
65 47 44
39 47 39
44 41 37
30 37 30
29 22 17
36 31 25
27 32 26
29 14 14
44 27 26
57 63 56
46 40 35
27 23 23
55 54 52
50 32 32
47 47 42
63 31 25
28 33 24
59 26 25
35 35 30
42 26 18
83 77 77
36 33 30
48 49 39
29 26 25
45 39 38
45 41 41
56 33 32
30 23 20
61 62 58
65 64 63
17 17 14
37 38 33
40 34 32
46 30 30
57 42 40
47 43 41
32 33 31
35 35 31
50 39 38
51 43 43
32 19 12
39 31 30
33 35 24
41 28 25
52 35 33
33 27 24
47 49 47
43 29 28
36 34 27
40 32 30
57 49 47
39 41 36
42 38 37
48 35 34
35 27 26
50 44 41
42 25 24
58 45 44
32 42 29
9 14 8
58 54 51
42 21 20
43 34 34
48 52 43
39 21 20
50 24 23
58 39 39
32 24 22
55 48 45
59 50 46
53 39 37
40 34 33
45 42 36
38 31 31
50 43 37
43 39 36
45 39 35
36 24 20
35 34 27
54 47 45
56 51 51
59 40 37
45 31 31
38 38 36
70 71 68
43 28 26
33 27 27
27 19 16
43 43 39
43 28 26
23 23 19
33 30 27
44 26 25
61 49 49
44 26 26
57 31 29
36 25 25
34 36 30
37 30 27
51 12 9
33 35 29
58 46 43
44 33 25
41 45 39
48 33 33
39 31 26
35 19 13
34 30 20
68 61 60
153 152 152
36 32 31
41 32 29
38 34 28
51 28 27
27 20 20
51 26 26
25 21 15
27 18 17
36 26 25
32 22 20
66 63 61
45 40 36
38 36 33
38 32 30
45 26 25
41 31 30
70 40 37
31 22 18
25 30 25
34 37 26
49 48 40
53 24 24
28 27 24
51 44 40
33 8 8
48 26 24
39 37 36
33 31 29
56 57 53
32 26 22
51 50 48
46 28 24
37 26 17
52 41 35
44 37 30
50 45 45
38 29 29
35 26 19
72 75 50
41 39 34
49 40 37
39 25 23
38 32 24
46 31 30
54 39 34
38 28 23
35 35 35
69 45 40
111 109 107
36 38 32
55 59 51
21 25 14
48 41 41
48 43 40
46 23 23
69 59 56
36 40 32
36 30 25
31 15 15
25 17 15
36 36 35
38 36 32
55 52 46
37 30 30
31 31 29
38 33 26
38 32 25
50 33 33
46 24 23
36 37 36
45 31 21
42 30 29
40 28 27
47 43 40
38 30 28
33 41 29
30 30 26
29 30 22
37 37 31
69 54 53
44 41 41
44 38 35
40 43 38
93 91 90
22 20 13
44 42 37
49 23 18
55 37 36
70 65 62
52 70 44
60 61 58
109 105 105
28 30 26
39 33 33
41 19 18
37 22 18
39 29 27
53 39 35
32 33 32
26 24 23
20 16 10
26 27 22
10 4 4
47 42 38
35 29 29
27 14 14
31 26 25
36 27 27
35 23 21
36 32 30
47 37 36
49 43 36
31 28 27
46 35 33
51 52 50
38 25 19
42 32 27
50 33 32
40 46 34
46 50 41
28 31 20
53 39 34
24 14 14
41 25 25
42 51 32
59 42 41
27 26 26
36 11 10
40 32 25
37 33 29
36 27 26
23 17 15
29 27 21
31 28 24
23 30 18
86 80 80
36 34 33
34 17 17
45 29 25
28 34 25
33 30 30
29 24 23
31 19 19
32 26 24
78 38 37
40 43 34
55 51 51
39 31 25
24 22 17
30 40 25
77 38 37
49 46 46
30 24 24
27 22 16
44 38 38
27 26 22
45 24 23
44 27 27
33 16 15
22 6 6
0 0 0
0 0 0
0 0 0
0 0 0
0 0 0
0 0 0
0 0 0
0 0 0
0 0 0
0 0 0
0 0 0
0 0 0
0 0 0
0 0 0
0 0 0
0 0 0
0 0 0
0 0 0
0 0 0
0 0 0
0 0 0
0 0 0
0 0 0
0 0 0
0 0 0
0 0 0
0 0 0
4 2 1
15 25 13
13 16 11
55 24 21
52 46 46
34 32 30
40 14 13
54 29 27
42 33 33
31 30 29
85 22 16
32 28 25
53 42 39
22 26 19
51 29 29
34 28 21
38 38 35
22 22 20
68 48 45
36 30 29
41 37 34
70 70 67
31 20 19
34 35 31
34 27 25
22 30 23
29 42 28
22 29 20
6 2 0
36 35 29
34 46 30
27 28 25
14 15 14
53 51 47
28 25 21
33 32 27
49 29 27
32 29 24
18 11 6
46 41 38
33 35 33
38 38 36
43 40 39
29 32 19
59 47 44
44 34 33
49 42 40
17 13 12
35 46 36
71 67 64
38 35 29
40 44 33
26 26 17
34 27 23
51 55 46
61 54 48
23 32 22
40 29 24
41 39 31
26 31 23
31 36 31
17 19 16
9 12 6
32 28 22
33 38 31
29 32 26
50 56 47
38 31 26
45 39 30
30 30 23
50 32 29
38 33 26
30 13 13
40 44 36
23 31 23
43 38 23
27 39 27
27 25 18
14 21 11
26 22 17
32 19 13
58 32 31
40 47 41
26 39 24
40 32 31
38 36 29
31 36 30
48 36 31
29 36 27
55 51 48
28 33 22
39 40 28
30 43 32
27 26 20
31 30 28
26 46 25
45 46 43
59 54 49
33 25 23
37 29 23
59 50 50
44 24 15
45 44 38
50 25 24
48 45 40
44 51 44
48 54 47
47 39 36
22 23 15
42 40 38
29 32 24
44 50 43
40 33 28
34 34 31
27 12 10
41 42 33
38 33 31
38 44 36
48 50 45
42 42 35
20 25 20
35 40 31
25 34 24
74 36 30
34 35 32
41 37 30
58 59 55
38 40 38
42 30 28
33 25 24
44 50 40
49 46 43
39 30 25
40 43 40
65 43 31
31 33 30
47 56 39
29 33 27
27 22 19
21 7 6
17 24 16
49 43 38
36 32 24
49 40 36
32 39 32
51 46 43
38 39 34
36 33 30
35 36 30
31 24 21
64 60 58
50 49 45
57 31 25
44 42 36
32 32 28
36 26 18
41 51 37
51 42 39
34 40 31
42 41 39
29 29 24
47 45 40
44 34 26
36 41 37
40 44 40
41 38 35
53 39 36
33 32 31
39 44 36
79 57 53
83 40 39
23 33 23
45 34 26
48 44 42
58 40 32
32 26 17
48 47 35
50 47 41
46 39 35
48 28 24
42 38 31
53 42 38
49 52 49
37 36 27
51 44 41
56 42 41
29 31 27
48 34 33
66 63 62
53 52 47
56 40 39
48 49 44
40 49 36
39 35 31
49 35 33
29 41 30
44 41 37
40 42 38
38 39 32
37 36 31
93 40 38
38 35 28
24 21 17
34 35 24
38 30 28
27 33 23
31 32 23
45 47 41
28 18 10
46 31 28
55 48 45
30 28 20
35 28 28
43 50 40
34 26 23
48 41 33
41 37 32
44 33 24
36 41 37
53 51 49
39 29 26
45 51 41
67 49 47
44 42 40
37 44 36
56 44 41
51 41 36
41 35 35
31 31 24
44 38 36
40 33 32
53 37 30
48 30 28
63 46 39
19 11 7
71 70 68
42 37 35
44 45 35
48 45 38
60 47 41
50 56 43
41 32 27
50 40 36
45 19 14
39 41 30
39 42 35
54 48 43
48 44 40
36 32 24
60 55 54
39 36 34
36 31 26
46 23 18
40 46 38
51 48 45
53 38 34
32 31 31
49 45 44
38 37 31
44 40 36
32 33 29
47 44 40
26 32 25
29 17 11
75 50 46
58 47 44
56 45 43
58 44 41
52 42 42
40 32 30
52 43 42
22 21 18
42 32 31
68 68 63
43 45 38
54 41 40
51 44 42
38 32 27
38 40 33
16 22 14
42 49 39
61 59 55
41 37 37
34 35 32
34 38 33
44 33 31
21 22 16
47 42 38
51 44 41
55 48 43
37 41 29
49 26 21
46 40 30
51 25 25
38 36 29
34 27 27
27 29 26
29 29 27
40 35 30
27 32 25
63 43 42
47 33 30
50 45 43
56 54 52
36 20 19
35 29 27
36 21 18
33 23 18
27 27 25
35 22 18
43 34 32
49 28 23
46 18 17
44 41 39
82 65 60
42 30 28
52 50 48
55 55 53
48 46 38
46 40 25
42 35 29
46 43 37
68 53 53
47 45 43
61 55 51
37 34 28
47 51 40
41 32 28
31 28 27
30 36 27
39 36 29
51 41 38
56 42 36
50 43 39
43 38 29
56 36 31
32 27 27
56 49 42
42 37 31
40 23 18
39 38 30
47 55 47
52 55 48
53 48 40
39 26 25
42 44 35
33 27 24
35 33 25
39 25 24
54 20 19
43 39 36
45 26 21
20 14 9
49 38 32
55 32 30
40 30 30
56 43 40
37 34 33
40 41 33
36 32 32
61 95 64
49 44 40
35 22 21
66 58 54
25 28 24
58 53 51
51 47 41
49 36 33
38 26 25
38 30 27
51 42 33
50 33 28
66 59 57
52 54 49
52 29 28
55 42 41
78 74 74
29 22 21
43 35 32
49 46 33
55 45 45
34 33 23
37 27 26
29 25 24
57 42 42
46 38 38
36 32 28
29 24 24
32 27 24
76 70 70
37 31 29
62 45 39
43 37 26
41 29 28
35 36 32
39 27 27
43 48 41
51 50 43
57 41 32
36 31 28
55 49 47
48 32 31
53 30 20
31 22 20
50 44 40
71 65 62
38 27 26
28 21 19
48 39 35
35 22 14
29 21 13
55 44 43
36 36 31
51 48 45
30 16 14
39 30 29
53 36 32
75 71 69
36 27 27
39 33 33
33 41 32
48 46 41
27 33 24
25 21 15
44 41 37
42 36 36
37 33 29
51 39 37
36 34 30
28 25 23
48 38 37
41 41 38
47 39 38
20 17 16
44 44 43
46 39 37
44 33 32
47 44 33
20 26 19
46 35 29
47 36 26
54 44 44
59 42 33
54 31 29
48 37 33
91 59 59
38 27 24
52 40 36
43 26 25
29 24 23
35 31 26
43 33 30
48 29 27
45 30 24
54 31 21
47 37 33
44 27 25
44 41 36
57 56 55
59 38 25
39 37 36
27 21 16
35 31 23
43 36 35
57 56 37
31 32 24
53 31 27
44 36 36
46 30 29
35 31 31
28 22 21
70 70 68
43 35 29
66 59 57
38 33 32
41 31 26
40 36 34
35 28 25
39 24 23
39 44 31
38 25 24
30 26 19
29 22 16
40 35 33
35 28 25
30 23 23
35 38 34
47 31 29
40 34 32
50 38 37
26 22 22
43 35 28
54 45 40
30 39 24
41 34 28
28 10 8
37 22 21
26 19 18
26 7 6
39 30 27
31 27 23
50 47 43
50 37 37
47 43 41
33 24 23
45 41 39
43 35 27
51 47 41
50 36 34
33 26 26
29 31 20
32 31 27
67 60 60
50 29 25
59 31 31
33 30 24
19 23 17
43 31 30
41 22 21
30 24 21
37 34 34
41 35 34
39 32 28
33 34 30
29 24 23
49 39 33
36 31 30
35 27 22
23 24 20
37 34 29
37 19 17
38 29 29
34 25 21
73 48 48
36 20 16
33 32 28
32 29 24
50 33 33
36 35 33
60 52 52
47 31 31
58 54 53
96 42 41
54 49 49
23 15 10
43 31 31
27 28 23
43 34 31
28 6 6
32 25 24
41 30 30
28 15 14
32 19 18
29 36 27
31 31 27
30 35 30
26 27 19
50 44 41
27 28 24
44 32 30
47 27 26
31 32 26
28 14 13
39 25 25
35 29 25
37 33 33
39 22 20
46 43 39
20 40 22
23 19 18
41 37 36
46 12 11
27 7 7
0 0 0
0 0 0
0 0 0
0 0 0
0 0 0
0 0 0
0 0 0
0 0 0
0 0 0
0 0 0
0 0 0
0 0 0
0 0 0
0 0 0
0 0 0
0 0 0
0 0 0
0 0 0
0 0 0
0 0 0
0 0 0
0 0 0
0 0 0
0 0 0
0 0 0
0 0 0
0 0 0
10 19 11
10 16 9
21 32 18
29 35 29
35 25 24
38 19 12
34 38 34
33 32 24
24 7 6
32 36 31
24 28 24
16 19 12
20 25 20
23 24 23
32 27 26
40 40 33
61 38 37
36 36 35
10 16 9
53 50 47
50 53 50
44 17 13
33 36 30
32 24 20
36 31 28
31 33 30
39 49 40
33 36 31
30 24 20
35 42 34
33 18 14
25 18 15
31 31 22
34 28 25
45 48 45
73 67 64
48 36 34
24 26 22
33 33 28
31 34 26
31 15 14
33 40 33
25 29 25
54 39 39
33 35 32
34 29 27
64 48 36
37 37 26
44 29 22
48 40 39
48 49 47
39 41 36
31 36 30
33 38 26
62 60 57
32 34 31
53 57 52
60 49 44
29 37 26
36 37 33
23 27 16
36 41 32
44 45 43
32 30 23
28 27 21
34 36 27
34 37 28
39 30 30
39 33 31
32 26 21
28 47 29
41 35 34
54 43 42
48 56 36
31 34 24
27 20 18
50 45 43
78 81 78
26 26 22
50 48 41
41 33 27
32 38 31
24 33 24
23 27 20
23 21 21
36 35 31
25 29 21
36 36 29
45 40 32
37 37 33
35 44 34
50 36 30
57 60 56
62 62 57
38 26 26
43 23 20
35 26 23
30 29 25
52 45 40
29 25 20
36 26 21
39 28 23
31 28 22
26 25 22
33 30 28
46 45 45
50 33 24
31 37 32
51 33 28
34 37 29
30 26 23
59 97 60
63 38 30
21 26 21
40 42 36
29 37 28
20 20 19
17 13 12
36 39 34
86 81 80
39 45 35
36 27 19
33 35 27
42 39 31
54 52 50
41 45 41
45 39 33
27 25 23
46 56 42
36 35 34
36 41 36
40 41 39
30 38 29
36 38 30
34 25 19
37 40 34
31 30 27
36 37 34
49 49 45
17 24 14
36 35 27
37 32 29
30 39 26
43 40 35
47 44 37
36 41 35
42 34 34
54 50 42
49 43 38
31 37 29
46 36 33
28 34 28
43 34 27
36 42 36
47 41 39
40 38 32
69 43 38
24 29 24
29 25 23
52 67 47
27 25 19
33 41 34
61 59 57
37 36 33
46 33 31
26 29 25
49 44 37
32 44 33
28 35 28
34 39 33
73 71 71
24 25 23
62 31 29
46 42 37
47 49 44
33 34 29
38 34 24
45 41 40
48 42 38
34 40 29
43 56 39
37 26 25
70 74 71
52 46 39
59 55 51
28 24 21
32 33 28
45 36 34
24 24 14
41 33 29
47 40 27
37 37 37
51 46 42
36 35 23
56 49 47
35 40 34
22 32 21
49 50 45
47 43 31
52 51 42
44 43 37
55 46 42
40 49 36
50 32 26
37 42 35
28 28 24
36 35 30
36 32 27
41 31 29
59 24 23
35 38 27
65 61 61
46 33 31
26 39 27
47 38 33
39 43 39
58 68 59
50 55 50
42 19 17
53 49 47
38 36 28
24 32 23
39 33 30
40 28 24
26 29 22
51 51 50
57 55 48
42 37 30
50 48 45
49 44 39
32 37 30
35 35 30
32 45 33
29 31 23
54 53 46
37 39 36
44 38 36
35 36 30
38 50 39
43 54 42
42 29 29
54 47 37
45 41 33
45 41 36
29 27 20
35 28 26
62 40 38
46 37 34
50 39 34
36 37 29
22 32 22
42 27 25
50 51 41
38 37 34
76 44 37
30 24 21
46 29 25
30 36 26
32 24 22
39 41 32
46 28 28
40 40 37
45 49 45
35 17 16
41 38 33
38 33 28
45 48 43
37 32 29
63 63 59
40 52 41
36 32 31
43 42 40
48 47 40
40 49 37
23 25 16
36 37 31
35 31 25
51 32 26
54 44 41
43 44 41
46 39 33
40 33 28
54 39 39
52 42 40
43 41 35
48 48 44
23 35 23
55 46 44
48 35 29
36 23 20
37 29 26
37 32 26
46 45 40
37 29 24
67 44 42
55 44 43
29 30 21
36 32 30
37 29 23
39 34 31
23 22 14
43 46 42
71 66 64
44 32 31
25 36 26
39 23 23
55 51 49
35 23 18
52 50 46
47 39 36
40 25 25
59 40 39
48 45 41
64 57 54
82 36 29
41 32 32
59 44 36
41 26 19
56 53 53
52 47 43
46 50 34
37 34 32
48 43 39
30 33 23
30 21 20
48 34 32
47 40 37
52 33 33
40 29 20
26 22 22
34 38 34
39 28 24
51 50 44
40 40 36
55 44 40
37 25 22
51 34 27
44 36 32
34 28 24
37 23 22
58 47 47
32 36 31
28 27 26
40 33 27
41 41 36
39 36 31
52 37 36
42 47 41
53 45 39
40 38 28
39 31 31
39 36 24
35 37 25
58 53 49
44 45 41
51 35 35
56 49 40
49 38 37
40 38 33
42 38 34
54 47 43
49 42 41
53 48 45
33 31 28
71 26 25
121 121 119
41 35 24
40 37 34
41 41 34
48 32 29
64 65 60
37 33 27
47 34 33
92 92 89
50 40 36
31 20 17
30 18 17
33 32 24
60 54 51
47 21 20
99 101 95
38 21 21
40 42 38
62 58 58
49 39 37
32 33 30
45 25 21
35 40 29
34 35 31
48 36 33
43 37 28
27 16 11
74 71 67
34 28 19
42 28 23
61 58 55
35 30 29
40 28 23
43 33 30
31 15 14
60 57 56
51 40 40
44 26 24
47 45 36
55 42 40
56 56 53
33 15 15
33 22 20
49 38 37
49 24 24
76 65 64
41 32 30
34 29 26
29 29 27
44 27 23
42 40 37
74 57 57
59 52 50
41 21 19
75 63 63
39 35 32
33 27 22
52 36 35
40 30 30
41 38 37
37 38 29
33 27 26
54 48 44
27 29 26
44 36 35
44 29 26
27 24 21
42 25 22
48 43 36
47 58 34
64 62 58
55 40 35
44 34 30
50 41 36
46 36 33
38 32 26
28 15 15
27 22 14
46 39 35
29 23 22
35 24 17
45 33 28
41 36 33
43 14 13
46 46 35
48 34 31
44 42 37
73 63 63
35 32 32
44 39 37
41 37 36
56 49 49
41 26 25
55 61 47
47 28 20
36 28 20
70 43 39
38 34 26
34 10 9
43 38 36
41 13 13
58 38 36
51 32 32
47 25 24
41 30 29
16 23 14
52 52 43
57 27 22
31 8 8
46 42 40
46 35 35
62 26 25
41 37 33
37 37 31
52 37 35
21 18 12
50 50 44
51 30 30
48 32 29
56 46 45
26 28 14
39 33 31
52 47 46
62 54 54
40 37 25
73 67 67
50 36 33
36 19 18
34 23 23
29 22 20
63 61 57
36 15 15
44 14 13
33 18 14
45 13 9
39 29 29
35 35 34
39 30 28
32 39 27
30 21 19
36 24 19
21 8 7
39 33 30
28 32 25
34 37 29
39 39 31
43 37 37
34 21 19
43 21 21
32 38 29
37 33 25
43 48 42
41 24 23
38 31 30
42 34 33
43 28 28
30 40 26
32 21 20
57 56 53
37 38 35
35 28 24
50 36 33
31 30 22
60 52 52
33 30 28
18 5 4
24 15 14
30 13 10
37 16 16
48 28 26
31 24 24
23 33 19
27 32 24
57 47 45
44 37 36
55 51 50
41 33 33
36 34 33
28 22 19
49 31 31
31 27 16
42 31 30
31 24 19
33 33 27
34 21 18
55 43 38
41 38 30
20 25 18
43 39 28
79 26 20
69 66 65
35 30 30
30 29 25
103 101 101
19 3 3
16 17 13
39 30 30
39 41 38
37 31 31
43 44 36
37 32 28
55 31 24
70 68 68
28 29 24
32 21 20
22 6 5
25 5 5
6 3 1
0 0 0
0 0 0
0 0 0
0 0 0
0 0 0
0 0 0
0 0 0
0 0 0
0 0 0
0 0 0
0 0 0
0 0 0
0 0 0
0 0 0
0 0 0
0 0 0
0 0 0
0 0 0
0 0 0
0 0 0
0 0 0
0 0 0
0 0 0
0 0 0
0 0 0
0 0 0
0 0 0
0 3 1
23 41 23
20 33 19
17 29 15
30 33 25
63 29 24
28 23 18
37 24 17
33 28 26
66 63 62
31 35 31
55 50 44
33 49 27
51 35 35
66 65 62
13 11 5
26 25 22
30 23 19
40 39 36
35 36 32
19 24 17
31 36 32
27 20 17
49 28 24
27 31 27
33 33 33
27 25 18
24 18 10
37 28 19
54 55 52
33 27 21
20 31 20
36 24 23
27 24 23
45 51 41
20 14 8
25 14 9
42 42 36
28 26 26
36 26 23
34 22 20
42 43 37
40 35 34
36 25 25
49 44 41
51 52 51
42 39 36
42 47 38
44 32 32
38 27 24
47 34 28
21 10 7
39 31 28
33 27 22
20 25 19
9 18 10
18 21 17
17 21 16
63 31 30
35 25 16
25 21 16
48 41 40
34 35 32
66 35 34
37 32 30
34 29 26
49 53 46
32 30 21
41 39 34
34 21 19
46 37 34
53 44 39
21 30 21
50 42 40
41 41 36
49 49 41
22 22 12
8 16 8
40 32 23
32 37 31
30 36 26
29 18 17
40 33 30
33 42 31
25 34 25
40 40 32
28 38 28
17 27 17
44 41 38
55 48 41
41 29 27
39 37 30
16 17 9
58 62 55
59 61 56
57 57 51
25 28 13
87 89 86
32 32 22
46 40 37
26 28 25
42 36 33
26 40 25
46 33 27
45 47 36
36 37 32
39 38 38
34 26 19
39 41 37
29 28 27
31 36 25
26 35 26
22 18 14
46 36 30
35 28 22
29 33 27
44 37 36
32 36 32
40 38 33
47 46 41
50 38 34
41 34 23
40 43 39
22 34 21
29 26 19
35 32 29
43 42 39
48 49 46
31 34 31
37 36 34
29 18 18
32 33 30
36 35 35
39 40 34
61 55 51
61 46 42
59 52 51
70 64 62
45 39 36
31 26 20
50 37 32
35 35 24
23 19 15
40 25 19
29 25 23
35 32 28
29 32 24
31 27 22
47 33 23
32 31 26
39 41 34
37 38 36
42 50 41
45 40 36
61 35 34
38 38 38
58 55 51
62 29 22
14 21 12
36 23 20
31 28 22
40 45 32
43 39 39
56 52 50
41 37 30
49 45 41
52 53 49
43 35 22
44 37 33
55 28 28
44 45 39
28 25 25
43 45 43
73 57 52
59 59 53
31 26 22
47 52 47
36 16 15
40 23 20
20 15 9
38 40 38
42 40 32
34 24 19
47 46 44
36 25 22
54 49 42
32 37 30
49 55 45
63 42 39
52 54 49
47 40 33
47 45 35
46 46 39
42 35 31
32 30 20
51 47 46
40 30 21
44 51 44
42 32 20
31 37 30
44 48 40
47 36 33
19 17 10
48 38 34
45 45 38
28 21 16
54 52 46
36 38 31
57 41 40
23 27 21
54 39 30
32 26 25
34 32 27
40 45 37
29 23 17
35 15 15
38 30 26
43 37 37
30 31 23
37 33 25
41 30 19
37 34 32
41 27 25
41 25 24
43 37 32
31 27 23
56 52 52
56 48 47
62 64 60
56 42 31
30 22 21
31 29 25
38 38 35
55 38 26
41 38 34
47 39 34
43 49 38
12 11 7
29 8 8
39 39 36
51 48 44
55 53 50
46 39 38
46 41 36
48 42 36
52 37 35
43 51 39
44 43 41
26 29 20
47 41 39
36 32 30
34 27 24
40 22 19
58 41 38
42 39 36
21 24 13
28 26 21
51 26 26
27 26 18
44 52 43
60 56 54
45 44 38
35 23 18
22 26 15
51 56 50
54 27 23
39 36 28
83 76 75
31 35 31
42 34 30
40 44 36
31 30 21
56 35 24
46 46 46
36 37 33
30 31 26
31 25 22
40 46 38
41 43 41
39 25 22
48 31 30
52 46 42
37 25 23
45 42 39
38 32 31
39 42 37
46 44 41
40 42 39
51 44 40
54 49 48
34 25 22
45 33 27
28 39 27
34 22 16
48 35 34
51 43 38
43 45 39
34 24 24
61 60 56
48 28 27
34 38 31
63 46 40
55 32 31
41 34 31
33 30 27
33 31 26
47 45 41
21 12 9
45 51 39
42 41 36
36 32 24
47 39 36
39 37 36
36 37 35
37 26 20
31 27 27
37 34 30
41 45 41
66 63 60
40 34 23
27 26 23
51 23 23
42 28 25
41 30 29
47 36 36
32 26 26
37 19 19
43 37 37
33 20 19
43 66 41
36 27 26
45 36 34
33 29 27
42 42 35
49 42 42
45 27 23
91 92 89
38 27 22
47 37 28
40 26 20
46 45 41
49 42 34
37 28 28
58 37 37
29 26 20
22 16 14
43 42 36
45 49 44
37 24 16
50 36 36
42 33 30
40 43 32
46 48 37
48 40 38
47 46 42
47 35 32
46 46 39
36 30 29
31 31 31
51 51 43
43 42 34
45 37 37
64 51 49
37 33 33
32 33 29
41 36 35
49 48 46
50 27 27
41 34 25
44 33 33
42 42 38
39 22 21
59 38 37
43 44 34
60 52 52
41 42 38
37 34 29
44 38 37
44 28 24
44 45 42
45 42 40
54 35 32
33 23 19
68 41 39
40 42 36
39 37 31
31 32 19
34 29 23
37 29 28
30 31 23
41 38 37
43 38 36
49 42 40
75 69 68
64 44 42
54 39 33
28 22 18
50 47 42
46 44 38
33 23 20
37 26 24
39 35 34
45 27 27
47 30 30
49 35 31
44 37 34
59 48 45
41 29 25
57 43 39
45 36 32
56 36 31
72 70 70
41 39 33
56 58 52
48 36 32
38 34 30
27 17 17
44 35 30
43 28 27
33 27 21
40 40 34
33 39 27
34 31 29
48 56 42
31 32 22
41 21 15
40 42 36
64 33 28
39 39 39
45 42 37
45 38 29
46 35 35
39 32 31
46 30 26
25 30 24
38 42 36
47 34 34
46 46 44
50 44 42
27 26 21
25 21 19
56 25 20
80 74 74
13 23 13
41 30 27
52 31 26
42 34 31
52 37 36
38 35 33
54 50 47
56 50 48
56 31 31
39 33 33
33 33 28
45 42 38
51 48 44
61 49 48
46 33 29
40 25 24
40 40 37
41 36 33
45 36 36
39 29 29
25 7 7
56 46 46
42 22 21
45 47 41
41 27 22
56 53 53
42 23 21
57 27 27
37 43 35
55 52 51
42 46 38
31 22 21
76 73 72
33 30 26
22 24 17
49 50 44
47 33 24
52 46 45
43 32 32
55 40 37
63 61 56
31 22 22
39 25 24
34 28 26
27 10 9
39 30 30
57 57 51
21 7 7
49 34 34
41 38 34
58 53 48
39 31 23
47 47 38
38 23 21
43 40 34
46 39 38
36 29 25
54 50 47
48 41 39
52 16 16
41 20 15
33 33 25
42 22 21
33 26 25
53 45 44
31 48 32
48 51 35
29 33 24
55 50 49
22 14 9
51 47 41
40 32 27
37 13 11
32 26 16
43 14 14
34 35 29
42 37 37
31 30 26
32 40 32
21 18 18
31 8 8
41 35 35
36 23 23
17 5 4
44 37 34
38 24 24
44 44 42
33 29 29
34 30 30
49 48 47
32 26 23
35 27 23
49 38 34
18 16 15
15 17 10
24 17 15
32 10 9
40 31 31
42 41 38
44 35 33
24 14 14
36 22 21
37 26 22
31 30 21
38 33 23
34 14 12
41 38 35
23 22 22
37 31 31
47 34 31
43 33 33
43 42 37
46 25 25
35 22 22
28 19 18
43 37 37
31 27 27
22 29 18
43 38 38
57 49 44
26 12 8
72 68 66
46 35 35
45 41 41
31 30 30
32 9 8
15 4 3
26 9 7
35 9 7
26 7 7
0 0 0
0 0 0
0 0 0
0 0 0
0 0 0
0 0 0
0 0 0
0 0 0
0 0 0
0 0 0
0 0 0
0 0 0
0 0 0
0 0 0
0 0 0
0 0 0
0 0 0
0 0 0
0 0 0
0 0 0
0 0 0
0 0 0
0 0 0
0 0 0
0 0 0
0 0 0
0 0 0
8 15 8
14 25 13
30 25 13
10 8 3
9 8 3
41 42 37
48 38 37
18 26 18
19 20 16
62 59 56
54 53 51
86 78 75
36 36 30
28 18 15
16 21 17
28 24 22
24 28 21
11 11 6
35 35 33
26 30 25
40 36 31
30 24 22
27 22 16
48 46 43
32 23 20
39 40 38
48 51 38
38 35 29
53 44 37
23 21 14
54 50 48
48 34 29
22 21 12
37 32 29
43 49 36
29 34 27
39 21 18
39 32 29
23 35 24
29 35 21
29 31 18
27 17 12
53 46 42
11 18 7
32 31 24
27 32 27
32 37 28
43 39 37
57 51 46
29 36 28
35 31 25
42 40 38
38 35 34
15 23 13
30 21 20
30 34 29
15 16 10
37 34 29
42 43 34
51 37 35
25 27 21
23 36 24
60 63 57
24 35 24
15 18 11
27 29 25
32 47 32
29 34 24
22 7 6
32 31 19
23 28 22
25 31 24
39 47 39
24 24 22
38 36 32
20 32 15
30 35 28
33 41 33
36 36 33
41 49 37
49 30 30
32 35 30
36 20 18
32 32 24
48 49 46
31 36 31
40 37 31
34 38 25
78 19 11
28 29 25
44 47 44
36 36 35
28 20 19
46 31 26
50 41 30
57 44 40
30 40 31
42 35 25
38 37 33
33 35 25
32 40 32
38 30 23
42 24 21
33 34 30
27 28 18
22 26 21
28 29 26
31 33 29
40 30 23
46 24 19
42 37 22
20 22 17
38 41 33
51 49 45
44 51 44
50 48 44
27 26 20
16 20 16
31 38 26
42 33 30
24 29 24
41 51 42
26 32 26
47 44 38
44 45 40
67 44 40
38 29 28
36 29 21
46 38 35
59 53 51
14 21 14
32 40 24
22 25 21
52 39 36
41 40 31
42 41 35
53 44 40
40 32 28
47 54 44
39 35 29
29 36 29
45 52 41
59 26 23
19 27 16
33 43 34
42 38 35
46 49 42
28 33 23
57 43 37
51 29 27
42 45 42
29 25 18
47 39 32
59 54 50
30 24 22
42 29 23
33 26 25
32 36 33
62 62 61
41 32 25
56 59 47
44 46 40
50 44 41
36 44 28
22 22 20
55 41 38
26 31 26
47 54 46
45 36 31
52 53 48
43 21 20
24 20 17
41 17 13
14 15 8
42 37 29
42 42 39
38 45 28
39 44 32
31 14 10
53 30 27
33 35 32
37 30 27
36 35 26
29 34 27
36 38 35
54 52 48
33 22 22
57 48 48
46 40 33
40 30 29
48 40 32
45 47 43
68 41 40
70 69 65
32 31 28
50 57 49
21 20 20
36 34 27
38 27 26
48 47 42
49 44 39
22 27 16
85 85 83
48 46 46
34 24 23
34 27 24
36 31 30
50 39 32
31 40 32
47 46 43
41 39 30
41 31 30
34 31 28
40 34 29
40 41 38
50 47 42
70 45 43
66 42 38
35 32 27
42 45 36
32 33 32
44 46 43
58 50 46
41 31 20
31 22 17
28 29 22
55 49 45
40 34 29
47 48 43
35 40 34
49 51 47
50 53 50
43 31 28
46 43 39
39 40 32
50 39 28
29 31 27
42 35 27
42 35 30
42 35 25
39 36 28
24 34 24
55 46 44
46 38 33
40 32 27
54 38 33
28 33 27
53 45 42
39 42 33
29 33 23
57 44 42
44 39 35
32 42 32
49 38 37
45 42 33
40 38 33
57 62 53
43 43 40
55 44 38
43 50 41
53 53 43
31 35 28
58 29 21
28 26 24
34 32 25
72 54 51
44 35 32
40 23 23
38 28 23
42 29 28
52 47 45
38 20 13
30 47 19
62 59 56
48 39 36
24 24 15
40 35 33
49 49 47
59 53 48
45 31 27
33 39 32
53 48 43
53 45 33
73 49 49
54 55 49
65 53 47
39 44 38
38 34 32
49 35 32
55 45 33
30 21 17
56 34 31
38 27 27
35 36 29
108 102 101
66 26 22
49 43 35
46 40 28
41 38 33
50 51 46
42 31 28
23 27 22
53 48 43
42 42 40
53 47 45
48 49 46
26 14 10
44 34 30
39 34 33
39 30 27
50 45 42
41 41 34
29 22 16
47 33 29
51 39 35
51 48 37
42 28 24
63 53 51
70 68 66
49 36 29
39 30 25
49 27 26
45 43 41
43 32 31
58 51 50
45 37 34
66 57 57
48 50 44
49 43 38
37 34 29
63 62 61
57 42 39
35 33 21
56 43 37
60 60 53
44 45 43
58 49 45
44 20 16
36 37 28
54 40 37
39 25 20
31 22 18
38 30 30
30 41 30
50 45 37
42 34 27
39 31 31
43 36 31
66 71 62
46 46 44
31 20 20
41 39 32
49 46 44
33 26 19
42 53 31
50 50 47
44 35 31
58 58 55
56 45 44
58 45 43
40 41 38
45 44 42
64 61 58
36 42 29
45 35 31
37 38 30
46 43 43
44 32 29
41 33 32
23 28 22
67 48 44
29 26 21
44 25 25
37 38 32
40 42 34
43 32 29
44 43 39
50 45 44
36 35 30
45 31 30
46 38 36
49 42 40
26 16 14
60 55 52
46 26 23
49 49 41
47 56 33
44 36 36
50 39 36
37 31 26
46 42 29
17 21 14
52 25 22
53 39 36
37 35 26
98 36 36
50 39 34
30 30 26
41 37 27
31 30 28
36 23 23
58 54 50
38 25 24
45 41 35
25 32 25
41 25 25
32 29 25
94 49 47
41 25 24
36 21 19
33 30 20
49 36 35
39 35 33
47 27 24
58 55 55
66 64 63
45 36 35
43 43 39
36 21 20
35 36 27
50 30 27
47 43 37
25 19 18
41 42 35
73 61 58
37 37 24
46 32 29
42 34 33
47 39 38
35 33 32
58 45 44
62 30 30
45 35 34
63 37 33
26 14 14
37 34 28
51 50 48
63 60 59
53 39 38
51 47 47
48 39 39
32 34 28
66 61 59
46 36 34
44 32 27
43 45 38
47 35 30
40 33 27
59 64 48
49 51 44
38 24 24
70 58 56
34 39 32
46 33 31
42 39 33
39 19 18
52 33 33
37 20 19
30 13 12
32 16 16
68 38 37
34 29 22
35 10 9
55 49 48
42 23 18
36 21 20
23 27 16
32 16 15
30 25 25
18 10 7
43 43 40
29 27 20
31 14 14
53 37 35
45 30 28
27 24 24
34 23 23
33 24 17
49 49 45
58 44 44
61 48 48
35 34 27
44 48 36
40 30 25
79 71 71
69 62 61
37 25 25
43 39 33
45 35 24
58 50 45
24 6 6
50 37 35
40 32 29
31 29 20
50 34 34
34 40 30
37 32 28
56 56 52
34 26 18
44 38 23
30 20 16
51 38 33
24 14 14
39 35 31
42 35 35
58 53 48
24 17 11
39 35 29
16 13 13
36 37 35
46 38 34
47 16 16
36 29 26
39 28 24
54 52 46
50 38 32
40 30 26
37 40 34
47 27 24
42 31 29
42 26 23
40 28 23
27 21 21
33 29 28
44 23 21
64 59 57
73 66 64
40 28 28
43 34 29
51 40 40
42 30 30
44 40 39
43 20 19
49 43 43
41 28 18
42 40 32
41 30 30
53 30 24
73 67 66
40 33 33
57 51 50
32 12 9
59 40 36
33 32 27
53 51 44
41 38 33
37 28 23
33 31 31
35 16 16
25 20 20
44 33 30
47 51 45
45 21 20
43 31 20
37 32 32
27 26 22
55 54 54
48 14 13
46 38 37
40 34 34
39 33 30
40 34 26
55 31 31
43 40 38
36 31 29
35 19 19
27 25 23
45 19 13
46 11 10
48 12 11
45 13 12
54 14 13
42 11 11
0 0 0
0 0 0
0 0 0
0 0 0
0 0 0
0 0 0
0 0 0
0 0 0
0 0 0
0 0 0
0 0 0
0 0 0
0 0 0
0 0 0
0 0 0
0 0 0
0 0 0
0 0 0
0 0 0
0 0 0
0 0 0
0 0 0
0 0 0
0 0 0
0 0 0
0 0 0
0 0 0
9 28 10
11 13 7
12 18 10
17 12 6
23 44 25
16 23 11
17 30 16
18 21 16
34 32 30
36 33 29
27 24 23
26 26 24
53 54 53
28 32 28
28 30 27
31 34 31
29 29 27
30 30 28
26 24 21
29 31 29
26 30 23
44 43 42
31 40 31
27 26 23
25 27 20
38 28 21
31 49 32
55 67 48
31 19 15
21 25 21
26 23 23
29 31 27
37 32 29
37 36 36
38 40 34
32 36 27
23 42 21
45 21 21
44 47 44
36 37 29
44 32 29
27 44 26
54 38 36
40 32 25
30 33 28
40 42 36
41 41 39
37 31 29
39 28 26
25 31 21
29 41 30
59 52 43
28 33 26
46 43 41
37 39 37
39 33 24
29 32 29
18 24 15
45 34 32
54 52 48
35 21 17
25 36 26
32 36 31
46 39 37
30 27 23
58 57 50
50 49 45
30 38 28
23 23 20
37 41 36
44 44 37
56 45 36
38 34 30
23 35 24
42 72 44
29 30 25
22 34 23
49 55 49
48 53 41
35 24 21
40 43 39
26 35 26
77 73 72
75 62 57
17 21 11
36 44 37
43 38 30
50 46 38
29 35 29
38 37 34
32 44 32
34 26 21
27 26 19
29 28 20
40 34 30
49 50 47
26 26 22
42 41 34
28 35 26
47 50 46
30 26 22
35 28 22
45 48 39
63 63 62
41 38 26
36 48 37
53 49 44
50 41 38
46 37 31
66 67 66
30 30 20
45 42 37
39 32 27
55 51 49
52 37 33
39 44 37
45 29 28
56 37 29
47 40 37
39 27 25
39 33 33
50 45 41
45 29 24
37 24 21
49 44 38
33 35 31
40 38 33
28 35 28
81 41 37
20 21 15
32 29 26
52 49 47
55 40 34
41 42 37
59 55 53
34 35 27
42 44 35
39 33 24
32 40 32
38 43 30
22 19 11
37 41 37
45 45 39
25 25 18
58 58 52
65 27 26
44 46 44
34 36 33
82 72 70
49 47 43
32 33 32
40 43 39
60 64 61
44 35 30
50 42 31
41 44 32
48 49 41
33 30 28
26 29 26
32 30 21
61 57 53
41 42 38
41 48 35
25 26 24
37 39 32
42 42 30
44 44 39
48 34 31
36 29 28
28 32 28
40 28 18
77 34 31
47 44 42
74 71 65
37 39 33
48 37 34
52 45 44
42 21 20
42 44 28
34 45 35
36 37 31
45 51 42
44 34 29
30 34 28
38 36 27
42 40 38
41 56 38
38 24 19
27 28 25
37 33 25
38 38 35
50 49 44
28 29 19
43 32 31
45 40 32
36 33 21
35 39 33
49 50 47
49 45 45
37 28 28
33 45 33
44 43 37
44 43 38
32 33 31
42 37 36
33 32 25
28 23 18
39 35 32
57 46 46
34 34 30
26 22 16
50 52 40
44 41 39
62 60 57
53 39 37
40 44 29
56 59 53
21 26 18
55 41 34
51 41 28
38 30 22
26 21 19
50 52 46
64 50 47
49 43 41
46 27 22
47 32 24
53 49 46
34 41 34
42 30 22
37 30 27
37 37 28
52 43 41
41 33 24
47 44 41
53 51 47
25 28 25
43 29 24
34 30 23
25 22 17
43 48 43
50 44 42
48 29 25
64 40 38
38 40 33
44 39 34
33 35 30
40 29 23
49 56 37
28 30 23
30 22 14
42 34 32
25 33 24
46 29 29
47 30 22
42 41 37
35 32 27
30 27 24
44 48 41
26 24 23
76 55 54
52 49 44
56 58 55
45 46 37
74 61 59
40 29 25
14 22 14
41 34 34
42 36 33
30 27 26
53 46 44
41 45 37
38 42 33
42 33 28
90 95 90
54 47 45
52 44 37
44 38 36
36 25 23
84 80 80
28 29 27
37 31 26
39 37 25
60 58 49
42 29 27
60 56 51
63 59 55
37 36 30
32 20 20
52 33 30
50 81 51
52 39 36
45 45 33
63 56 51
36 34 32
29 27 24
48 39 38
63 56 53
57 58 50
50 44 44
48 35 30
50 41 34
45 29 26
40 37 31
58 43 43
32 27 19
36 33 33
53 54 48
47 37 27
65 61 59
43 30 28
47 42 37
43 26 26
41 32 26
49 38 35
36 35 35
44 35 33
39 42 35
40 40 36
50 36 30
51 43 33
42 43 35
38 44 38
34 31 25
53 40 36
45 34 31
48 31 31
36 28 23
81 81 81
53 56 48
55 47 44
31 35 31
39 31 26
37 37 34
47 39 34
45 30 29
59 34 32
39 38 34
33 31 28
61 58 54
65 42 35
48 36 33
54 41 38
99 97 94
42 46 40
64 49 47
42 36 35
50 50 43
61 37 31
42 47 37
54 38 34
58 44 35
29 24 20
53 41 39
40 44 37
45 40 38
20 14 12
48 39 38
43 28 27
47 39 36
50 52 49
30 31 29
38 35 29
46 49 38
35 25 25
32 35 28
41 25 22
18 22 16
35 30 21
33 24 24
89 81 79
42 40 37
49 33 33
57 54 48
50 43 39
30 24 20
62 46 38
48 43 39
68 56 49
66 53 50
24 31 18
50 36 36
58 37 33
51 32 31
52 46 41
43 35 33
47 42 39
50 50 43
47 32 31
59 61 59
48 52 44
28 33 24
27 26 16
55 46 44
34 34 25
35 26 22
39 30 27
31 33 28
55 40 32
34 35 31
29 26 24
46 39 37
37 24 24
31 36 28
50 33 31
53 43 39
31 30 26
49 40 36
66 54 49
47 50 40
18 27 18
41 37 27
37 27 23
43 29 26
42 34 27
47 35 34
32 26 22
41 27 24
56 54 48
34 37 30
21 14 14
78 56 54
43 42 37
58 55 54
33 21 21
54 51 47
65 42 40
51 34 25
32 20 20
59 45 45
42 24 19
71 53 50
40 19 19
98 92 92
65 63 63
43 33 33
55 44 43
52 48 46
39 23 23
60 51 48
58 45 43
43 34 33
53 41 40
33 23 22
31 25 22
34 21 20
48 42 36
37 33 20
48 31 31
74 36 34
76 55 51
48 27 27
46 40 36
55 35 35
34 36 32
40 23 22
48 39 36
47 32 31
42 37 31
41 29 28
44 38 28
47 45 38
60 42 38
37 17 16
47 29 26
42 37 30
51 41 41
50 45 30
40 28 28
42 47 38
69 61 58
48 43 32
40 30 28
40 24 24
42 28 27
36 28 26
54 34 33
30 26 20
39 36 28
57 34 33
61 63 60
55 51 47
96 88 86
38 44 34
38 36 30
59 31 30
50 32 28
40 36 31
22 23 20
37 38 30
31 29 29
56 31 30
52 50 49
61 57 55
40 26 26
20 23 14
60 57 54
50 44 39
52 39 37
37 19 15
54 34 33
29 17 16
25 17 17
33 30 26
54 49 45
51 37 36
35 30 26
30 25 18
54 26 26
36 18 16
37 36 30
22 15 9
34 29 29
49 28 28
41 21 20
45 31 30
37 29 29
26 10 8
31 30 25
60 60 56
18 16 10
28 13 7
57 51 48
31 44 27
36 26 26
23 21 21
52 49 47
44 30 30
27 16 16
35 48 32
39 21 17
47 46 42
47 34 33
36 28 22
45 24 20
35 29 28
39 33 26
42 34 33
33 20 20
35 19 18
45 33 33
30 29 27
29 19 16
39 31 28
38 29 28
42 30 30
48 20 19
26 26 26
33 34 30
49 36 36
36 35 27
34 34 33
54 53 49
45 42 36
40 27 27
54 29 28
56 52 49
28 37 22
51 44 44
21 9 6
35 33 29
26 16 14
68 65 64
66 25 25
30 19 18
42 33 25
37 28 26
40 11 11
34 9 6
40 11 10
33 10 8
50 7 6
33 9 9
0 0 0
0 0 0
0 0 0
0 0 0
0 0 0
0 0 0
0 0 0
0 0 0
0 0 0
0 0 0
0 0 0
0 0 0
0 0 0
0 0 0
0 0 0
0 0 0
0 0 0
0 0 0
0 0 0
0 0 0
0 0 0
0 0 0
0 0 0
0 0 0
0 0 0
0 0 0
0 0 0
7 3 2
21 36 19
5 10 5
19 34 19
18 30 16
18 29 15
11 21 10
37 31 26
7 10 6
48 25 20
52 50 45
50 45 43
61 53 50
22 23 20
29 38 27
18 31 19
40 43 39
46 48 44
40 39 36
49 50 45
33 30 30
29 33 27
28 25 20
42 39 31
21 30 22
77 52 51
47 45 39
51 41 40
29 40 26
23 24 18
13 13 7
20 23 12
58 58 54
41 36 34
30 35 30
28 31 24
32 29 26
20 30 21
20 29 20
25 33 19
36 29 26
56 44 40
28 28 26
20 25 20
38 40 31
32 33 27
52 43 38
36 21 18
44 29 25
33 26 18
40 37 32
53 50 44
42 31 25
67 72 68
35 39 31
19 17 10
16 26 17
43 51 44
29 27 27
36 37 34
43 45 41
35 35 30
36 51 37
40 43 37
43 43 37
37 35 28
40 35 34
40 39 33
29 30 27
53 43 43
28 22 21
33 33 22
24 25 21
39 31 29
28 25 20
17 28 18
51 31 24
22 26 21
39 41 39
35 29 25
26 45 26
14 24 14
48 43 38
34 40 27
40 32 24
42 47 38
41 42 34
33 34 32
42 40 35
41 45 41
36 28 27
47 39 30
47 31 30
60 36 34
34 39 34
34 34 34
43 42 37
33 40 32
36 31 26
30 31 28
26 32 22
42 43 36
46 44 43
39 29 21
44 41 38
22 37 21
36 24 24
19 25 15
54 50 50
25 26 22
46 42 39
37 37 30
52 41 39
47 30 29
44 34 29
27 30 20
34 33 27
42 36 31
45 43 39
48 32 31
21 22 17
44 36 30
47 40 31
54 57 53
38 39 31
53 42 33
45 46 37
53 59 53
35 35 31
31 36 30
45 49 45
36 37 36
40 37 30
23 25 16
42 39 33
30 28 26
53 50 47
42 43 42
45 37 32
36 32 26
24 27 19
63 50 46
40 36 31
34 34 30
50 53 50
33 36 29
51 48 45
28 41 29
34 15 11
44 36 31
37 43 36
47 29 26
55 44 41
48 26 22
49 46 40
36 42 36
46 49 44
35 22 18
31 32 23
49 49 41
40 38 34
39 36 30
48 43 41
24 25 21
31 26 19
23 30 24
28 27 20
39 45 38
31 36 31
36 39 32
33 26 23
29 20 12
42 41 32
50 48 48
43 40 37
53 51 50
21 21 16
36 33 31
50 49 45
40 34 26
54 53 51
41 50 42
49 40 36
34 38 29
50 49 48
58 59 53
34 39 26
77 44 34
99 65 62
36 33 33
24 29 22
38 35 35
42 48 42
38 51 37
50 47 41
29 25 23
59 49 48
35 38 35
45 37 34
48 48 45
31 25 25
39 38 33
41 37 30
28 22 15
47 43 41
38 42 37
48 41 38
39 41 30
28 31 27
43 29 28
37 37 32
34 24 22
31 31 26
41 28 22
43 49 43
42 28 24
51 48 37
39 43 37
38 34 28
33 42 31
40 35 28
56 46 46
44 45 43
54 48 43
62 56 53
67 50 42
45 49 41
55 53 50
37 34 29
41 28 28
30 37 24
40 42 38
29 24 17
35 21 20
47 46 44
44 39 34
49 44 43
67 34 26
58 51 47
59 50 43
60 36 30
51 38 29
44 46 44
67 44 43
48 42 37
43 46 39
58 50 42
80 56 49
55 34 31
42 31 28
55 43 37
44 37 28
27 33 27
43 40 40
61 50 48
27 29 23
40 46 40
42 36 24
28 25 19
33 31 26
43 22 18
56 40 30
38 35 30
40 39 31
35 42 33
41 31 28
34 32 27
43 46 42
44 38 34
33 34 28
31 27 21
25 30 24
42 42 36
42 39 35
31 36 27
56 46 45
75 60 59
46 41 41
51 34 26
46 49 42
30 38 29
42 37 35
22 25 15
61 44 43
32 28 21
32 29 26
61 46 44
64 59 55
32 36 28
43 33 28
46 29 24
38 41 31
51 28 25
35 43 34
34 22 18
35 26 25
57 53 52
38 40 37
60 43 42
49 36 27
36 32 25
55 57 49
40 22 17
37 26 24
45 38 35
40 29 27
43 27 21
51 36 33
73 71 68
39 32 31
51 27 26
37 40 31
36 38 32
35 33 26
32 18 12
65 46 46
38 32 31
39 39 34
39 40 29
31 22 18
47 37 34
30 38 30
31 29 24
61 54 52
46 34 30
42 36 34
33 31 25
48 25 22
36 34 33
56 56 52
42 38 36
37 33 28
44 44 35
60 52 52
34 32 32
28 35 26
41 36 29
44 35 35
47 37 32
29 36 28
61 45 43
46 40 40
46 27 24
45 39 29
39 47 35
41 41 39
44 41 35
40 31 30
47 43 42
43 31 25
37 35 32
74 73 72
61 60 57
45 40 36
42 39 34
36 22 15
33 30 28
51 46 37
44 28 24
49 41 40
56 53 52
48 41 39
44 35 33
79 53 50
49 33 32
58 32 32
40 39 28
49 30 30
39 22 20
47 49 46
65 49 46
34 28 24
51 46 39
57 32 27
37 28 26
49 36 36
52 36 35
43 40 37
54 50 48
29 32 23
121 118 116
45 43 34
52 44 37
68 39 32
61 53 51
73 64 62
42 17 17
56 48 43
33 30 27
44 38 33
44 45 40
41 27 27
42 46 33
31 30 26
55 52 37
39 42 37
56 42 31
20 18 16
38 31 25
47 33 30
47 29 29
31 30 27
41 32 32
28 28 27
33 29 28
64 59 58
32 33 26
50 48 46
32 27 26
32 25 21
58 48 41
45 51 36
32 28 23
40 39 36
34 33 27
30 25 21
37 35 34
45 46 42
60 33 25
44 23 23
38 31 19
40 41 29
37 16 15
49 29 29
27 26 25
60 44 42
49 38 34
56 49 47
36 32 22
78 74 67
42 53 38
35 19 19
50 43 41
68 39 35
23 31 22
53 44 44
40 35 32
54 54 42
40 23 23
47 36 32
68 43 38
32 45 28
37 22 22
40 13 11
31 22 20
56 47 47
28 29 23
64 44 44
49 20 20
23 39 23
46 43 41
50 41 36
44 25 21
89 30 30
36 34 29
47 36 36
38 33 30
44 31 31
43 43 39
42 50 33
39 38 34
53 41 40
33 20 20
98 87 83
55 23 21
32 16 16
48 35 35
45 43 43
48 42 38
37 35 34
37 38 35
19 22 9
61 59 59
50 35 33
57 53 52
56 58 46
54 51 50
35 35 30
40 28 24
39 27 23
47 41 39
36 23 23
35 26 24
35 32 27
53 38 30
53 18 12
38 40 34
50 29 29
34 18 17
40 36 26
40 36 36
50 42 36
77 54 49
42 36 30
34 24 23
62 46 43
57 16 16
51 42 31
36 26 19
41 28 27
32 38 25
38 31 26
38 35 35
23 35 22
40 38 36
45 27 21
39 31 27
46 43 43
43 44 38
38 31 24
23 23 14
61 37 37
46 40 38
40 40 34
36 24 21
83 27 27
59 52 45
34 32 24
33 24 23
50 43 40
40 43 40
57 51 51
45 46 37
34 29 25
24 29 23
41 43 38
53 54 52
16 12 11
30 21 20
42 47 37
49 44 39
23 6 6
32 22 22
38 29 23
24 21 16
61 56 55
23 18 18
34 30 26
48 38 38
19 7 5
56 39 36
56 52 52
40 26 26
34 19 19
55 65 42
29 31 26
36 33 29
45 34 34
21 27 20
34 25 21
40 37 34
44 46 35
56 28 25
42 29 29
41 20 13
37 29 29
60 54 54
33 33 31
43 44 39
44 30 21
43 38 33
36 45 36
40 32 32
36 32 32
26 25 25
31 34 20
40 10 9
33 7 6
43 6 5
24 7 6
39 10 10
20 6 3
42 11 11
0 0 0
0 0 0
0 0 0
0 0 0
0 0 0
0 0 0
0 0 0
0 0 0
0 0 0
0 0 0
0 0 0
0 0 0
0 0 0
0 0 0
0 0 0
0 0 0
0 0 0
0 0 0
0 0 0
0 0 0
0 0 0
0 0 0
0 0 0
0 0 0
0 0 0
0 0 0
0 0 0
7 10 3
9 17 5
13 19 11
9 26 8
16 47 16
14 27 14
38 75 42
23 44 23
30 34 28
47 20 11
29 32 29
51 51 50
35 28 25
34 34 31
46 43 40
41 37 33
24 18 15
43 43 43
25 19 11
33 31 28
27 25 18
37 28 22
37 42 36
51 39 29
59 39 36
31 30 24
55 53 45
27 35 27
30 39 29
41 37 37
47 53 45
20 27 15
19 5 2
16 12 7
44 48 44
31 25 23
30 23 17
26 34 27
21 29 21
41 32 23
34 40 34
49 47 42
28 25 22
102 57 52
29 51 31
55 24 21
30 38 30
42 49 40
39 24 24
56 54 51
45 37 32
42 32 30
14 16 14
57 61 42
47 32 25
34 36 33
25 25 14
32 34 27
22 22 22
30 36 22
34 36 34
31 42 32
17 23 14
41 39 35
15 15 15
39 47 39
39 33 23
23 18 18
43 42 37
22 31 23
48 49 42
33 17 14
37 35 29
24 34 23
39 37 29
26 25 22
34 31 27
25 15 9
43 39 28
40 43 36
44 41 38
24 25 22
36 30 25
42 49 36
35 34 21
40 42 34
50 49 43
37 31 26
40 36 34
38 33 23
22 9 6
34 43 33
18 26 17
48 49 47
45 40 35
30 34 30
48 44 38
32 33 26
43 50 43
44 44 36
43 33 29
31 25 19
43 55 34
43 43 33
44 48 44
47 32 28
49 49 43
35 38 33
35 37 27
38 42 33
49 29 25
46 38 25
55 27 23
39 33 29
51 36 27
58 54 50
41 37 32
42 42 36
32 28 22
58 55 48
53 40 32
39 41 37
29 24 20
39 36 30
9 13 8
47 55 48
34 38 31
49 29 24
54 53 47
36 50 31
39 35 24
42 36 32
46 42 37
63 48 45
47 46 40
53 51 48
38 36 28
26 31 21
44 46 38
38 35 26
47 47 39
40 35 34
36 26 21
39 41 32
72 68 65
61 43 41
33 35 31
36 42 34
52 36 32
44 35 31
78 48 44
30 32 19
37 32 23
35 35 32
44 42 32
34 35 29
21 25 18
54 47 33
34 37 30
46 46 43
65 63 57
38 30 29
27 22 13
44 37 36
52 52 46
32 32 32
38 31 30
40 46 34
41 45 41
30 34 29
38 37 28
32 25 23
19 21 15
43 47 43
45 35 33
48 36 32
40 44 40
52 57 49
34 31 24
56 36 34
48 40 37
37 42 35
45 53 40
41 37 32
34 44 35
32 36 26
44 37 30
42 41 27
37 44 36
29 17 13
35 38 32
43 44 40
55 48 44
32 32 27
39 39 26
31 30 24
64 79 61
46 45 33
27 26 25
46 43 40
31 28 25
51 36 35
56 40 34
37 35 26
36 45 34
35 29 24
45 40 30
47 30 28
39 27 27
36 31 30
39 50 39
61 47 39
27 26 19
33 39 33
52 48 41
61 48 47
40 44 41
45 53 43
49 38 30
37 37 27
36 48 36
64 61 56
70 38 35
52 44 41
36 30 23
42 40 33
40 38 31
60 60 57
24 16 15
39 29 24
50 41 40
36 29 27
57 52 48
29 27 26
29 34 25
44 38 28
42 44 34
61 55 53
52 54 50
44 37 27
39 35 34
37 21 16
48 52 45
33 29 28
36 44 34
32 25 20
34 32 28
52 48 44
35 34 29
37 35 28
48 40 32
46 49 46
33 36 34
57 53 51
33 32 26
31 36 26
52 36 34
43 39 34
38 37 30
34 19 19
40 35 31
50 36 30
51 51 45
22 22 18
104 86 86
39 33 28
39 35 34
28 37 27
87 85 83
33 30 26
44 53 38
36 35 30
48 35 28
39 28 25
39 19 17
52 45 44
60 50 48
47 39 36
42 40 33
71 50 50
46 47 39
44 28 22
50 39 36
47 39 37
61 52 51
40 25 24
68 63 61
36 35 34
24 25 19
75 52 45
45 37 33
47 46 43
45 46 42
58 50 46
63 46 39
50 47 44
31 36 30
34 31 26
50 36 36
49 46 39
36 33 24
49 29 29
39 37 34
32 23 20
33 33 23
39 30 18
80 36 34
66 65 63
51 46 41
45 39 38
39 30 30
32 20 19
43 52 41
54 30 27
66 49 47
29 36 29
99 96 94
52 53 48
46 46 42
39 36 34
31 32 27
26 25 21
38 33 32
60 45 40
39 38 30
59 25 25
48 43 37
54 53 40
42 37 31
17 18 9
31 34 29
56 27 22
48 36 30
27 33 26
74 41 31
39 34 29
67 54 54
50 48 46
35 36 35
41 37 36
36 37 32
58 54 50
55 59 51
44 31 26
57 54 53
31 24 22
58 55 52
47 39 37
67 63 60
48 36 35
56 38 38
24 24 18
50 28 28
47 47 36
52 44 42
29 22 20
39 32 26
56 52 48
43 31 30
33 22 21
46 45 42
47 40 37
55 39 37
45 48 36
35 34 32
58 48 43
25 20 18
71 54 51
34 37 34
67 45 37
37 24 24
33 28 20
49 46 41
58 44 37
56 29 27
50 43 42
39 41 33
41 35 32
60 28 27
78 74 74
46 28 23
75 64 60
42 35 32
42 28 23
48 39 35
48 39 38
32 32 26
44 42 36
33 36 33
51 37 34
37 34 30
54 47 42
52 45 44
31 24 24
46 35 27
30 28 24
38 29 27
55 50 40
52 48 46
63 49 38
16 20 15
46 25 24
48 46 39
49 39 39
35 33 33
22 26 22
50 43 43
77 54 49
24 20 17
42 36 28
49 50 42
38 26 24
39 36 24
47 39 36
28 21 13
50 46 45
40 30 28
45 35 28
44 44 41
52 53 50
31 19 19
45 38 33
75 68 68
39 41 35
34 29 22
42 49 37
33 15 13
40 33 25
43 36 35
29 17 11
50 46 45
54 46 45
33 23 23
37 39 27
53 37 33
36 21 20
36 25 18
56 44 43
50 25 25
49 44 38
39 34 31
46 36 30
45 36 32
36 46 29
44 30 27
68 39 32
36 33 33
41 29 27
40 34 31
29 33 29
34 28 27
47 39 36
39 25 25
42 19 17
42 33 31
32 23 23
28 22 17
41 50 40
44 32 31
47 48 42
56 48 45
48 31 30
41 31 30
47 33 33
39 29 25
48 26 14
41 28 27
46 25 20
42 26 26
41 31 31
49 44 43
35 31 26
38 36 31
38 28 22
41 36 36
60 34 33
31 17 15
44 35 32
62 34 22
27 14 14
39 35 34
39 37 23
51 46 44
47 42 39
38 26 26
52 45 43
27 24 24
47 34 26
55 21 17
37 24 23
43 33 32
94 90 90
48 42 39
31 20 19
61 52 49
35 24 22
42 32 29
31 16 15
45 28 21
43 35 31
50 43 35
35 37 28
45 37 37
53 55 40
41 26 26
45 27 26
39 42 29
37 47 36
49 32 32
56 34 28
46 44 41
59 55 51
33 16 15
40 35 32
26 15 14
54 46 43
40 27 27
89 62 58
43 37 33
29 19 19
54 28 22
24 22 16
22 13 13
55 44 44
34 29 23
58 47 42
49 42 37
41 40 35
41 33 33
51 48 47
33 21 15
45 38 33
35 27 27
45 32 32
52 41 41
39 32 27
68 37 34
32 33 28
45 25 24
41 39 39
44 38 30
63 55 54
34 8 8
42 42 33
38 24 24
40 29 28
24 31 23
44 42 39
51 14 13
22 18 17
35 32 20
34 43 24
60 45 45
39 24 24
34 32 28
23 21 20
52 25 24
34 28 23
22 24 19
45 32 31
112 102 102
39 36 36
43 25 19
30 26 20
46 22 20
32 9 8
28 6 6
39 11 10
15 4 2
52 14 14
47 13 13
67 15 14
28 7 7
0 0 0
0 0 0
0 0 0
0 0 0
0 0 0
0 0 0
0 0 0
0 0 0
0 0 0
0 0 0
0 0 0
0 0 0
0 0 0
0 0 0
0 0 0
0 0 0
0 0 0
0 0 0
0 0 0
0 0 0
0 0 0
0 0 0
0 0 0
0 0 0
0 0 0
0 0 0
0 0 0
0 0 0
16 27 15
33 25 13
15 56 19
16 32 15
10 7 3
20 24 13
14 23 12
15 32 17
19 30 20
24 36 24
23 18 11
38 35 28
23 19 17
39 32 30
22 22 17
30 20 20
46 44 41
51 42 38
30 26 24
31 20 16
35 39 35
22 21 13
33 37 32
52 46 43
39 36 32
29 35 23
23 21 21
57 56 51
43 32 30
26 33 21
40 32 32
42 45 40
58 21 20
25 32 26
38 45 39
23 28 22
15 19 14
20 25 18
73 34 28
43 23 17
34 41 33
24 11 8
45 46 35
43 31 30
35 27 24
33 28 22
49 36 34
16 19 16
36 30 23
32 39 29
35 26 22
72 72 72
37 43 36
20 19 12
41 29 28
59 59 55
50 43 41
57 53 47
52 35 32
31 39 31
37 35 30
25 25 17
37 36 29
38 35 26
21 25 19
40 34 25
30 32 28
41 48 32
26 26 18
54 45 43
34 50 33
54 53 46
60 60 56
31 33 25
23 23 19
46 43 39
43 50 44
29 30 22
41 39 34
32 31 28
41 29 23
44 38 35
32 15 14
44 47 43
20 25 14
46 43 34
29 41 30
34 42 26
56 55 51
38 35 30
49 50 49
65 64 62
31 46 32
51 39 32
37 32 25
27 28 21
40 43 38
40 33 30
47 43 40
33 35 32
59 37 34
43 33 31
64 63 60
41 40 38
53 54 52
38 47 35
31 34 30
58 43 41
37 26 23
27 29 24
44 40 34
38 35 31
50 32 21
127 35 34
55 56 52
25 32 21
40 41 33
26 27 22
65 63 60
50 50 45
41 40 36
22 30 21
57 50 47
36 37 30
32 27 22
60 63 58
39 28 21
33 39 26
56 46 43
41 42 34
37 33 31
30 30 28
44 25 25
54 38 32
42 39 33
57 55 51
49 43 38
27 28 25
22 23 16
43 40 35
28 20 20
49 40 40
45 43 35
36 45 36
40 37 33
79 74 72
49 43 40
46 45 40
42 29 28
64 69 64
42 36 32
48 43 37
21 27 20
53 42 38
37 43 33
34 36 33
43 26 24
50 78 50
39 41 35
47 43 36
40 47 39
35 41 30
64 46 37
45 37 34
47 46 40
42 35 35
69 53 44
43 39 33
36 36 33
31 29 23
34 24 23
42 38 33
31 28 27
57 35 31
47 43 38
60 46 45
45 38 33
48 55 41
37 35 31
41 26 25
51 51 47
28 23 23
41 50 42
56 47 39
49 50 43
30 38 29
40 41 36
38 39 34
37 32 30
41 46 37
38 45 38
41 27 13
49 34 28
42 43 34
34 39 34
48 39 35
51 48 38
43 48 34
101 102 100
53 49 44
37 36 27
41 43 41
45 46 45
30 32 24
49 43 41
33 29 23
32 23 18
50 52 46
52 38 37
21 28 16
39 39 32
36 38 32
46 43 37
27 27 25
45 31 27
38 37 36
49 38 28
63 63 60
38 34 32
42 27 25
73 31 28
51 34 32
46 43 33
93 51 47
40 33 27
23 29 23
41 36 27
40 36 29
63 51 45
35 39 30
47 46 41
45 45 41
34 35 30
39 27 26
35 30 23
45 43 40
29 30 26
25 25 17
49 38 35
33 37 27
46 33 30
44 33 31
46 44 38
47 33 30
60 51 49
38 35 35
60 47 45
63 51 51
49 45 37
57 58 56
53 54 53
23 27 22
39 42 37
49 39 33
89 79 77
73 48 42
46 54 41
52 47 44
63 65 62
59 59 56
37 36 35
39 36 28
54 45 40
44 37 27
62 60 59
40 39 35
54 34 28
40 25 22
69 61 58
55 48 45
63 56 51
55 57 52
57 52 46
42 36 36
48 50 46
57 46 43
57 36 35
53 42 40
37 30 23
45 38 35
19 20 11
36 33 24
37 42 35
40 35 31
36 28 24
35 32 32
51 48 42
53 51 45
52 59 49
70 68 65
55 57 55
50 39 37
56 45 42
33 34 23
57 58 56
40 38 35
40 31 30
41 40 35
41 30 26
57 49 45
37 25 20
56 45 43
69 69 68
48 40 34
54 47 45
27 14 14
30 29 26
33 34 28
53 41 39
54 53 51
49 25 23
63 47 41
52 47 44
35 29 21
38 32 26
43 21 20
49 32 32
50 52 48
60 52 50
40 44 37
36 39 32
37 28 25
41 31 29
65 49 45
57 43 42
40 28 25
29 26 20
45 38 35
41 36 30
46 38 34
55 43 41
41 31 31
25 18 10
50 48 37
34 35 31
35 29 20
60 52 51
66 52 44
45 36 29
44 41 37
51 47 44
53 41 37
39 29 26
51 40 37
30 18 10
53 46 42
105 43 43
40 24 23
21 34 21
54 34 32
58 49 46
41 37 37
37 34 25
56 41 39
48 39 38
70 68 66
47 35 35
40 37 33
51 52 47
32 31 25
48 42 35
48 52 43
31 28 19
35 27 26
38 35 34
80 79 68
48 47 41
55 50 50
36 25 21
44 31 30
41 24 24
37 42 37
34 35 21
54 43 41
37 32 29
57 50 49
60 49 48
66 30 28
53 39 37
39 13 11
48 42 26
43 27 27
49 39 34
36 21 21
42 36 33
45 38 33
35 31 24
54 31 27
52 50 43
53 55 47
42 35 34
33 33 30
45 31 28
41 45 39
29 25 19
41 26 26
50 62 47
33 36 27
66 59 57
37 32 30
27 32 25
45 37 35
48 37 36
57 43 36
54 46 46
41 29 23
45 34 31
47 65 40
31 37 30
47 35 35
37 26 25
38 30 25
27 27 19
40 26 22
30 14 13
40 33 32
50 32 26
57 42 41
46 33 31
47 39 32
46 25 23
56 45 43
54 46 41
46 40 34
54 38 38
51 44 43
47 45 39
47 41 35
71 63 62
24 7 7
46 38 29
29 25 20
33 29 22
41 33 31
48 32 30
33 33 27
40 38 36
40 35 34
38 22 21
43 34 34
41 35 29
22 22 15
40 36 22
34 27 22
41 28 28
51 26 19
53 34 30
48 40 34
37 27 24
40 34 29
43 41 35
43 26 23
51 45 38
49 43 39
42 29 27
54 48 48
68 34 33
65 41 36
39 38 33
38 28 26
80 76 75
55 34 33
40 47 40
66 36 34
48 33 30
38 30 30
39 38 32
32 31 23
36 28 26
36 31 30
47 41 38
26 18 16
62 38 38
54 47 43
37 35 31
39 38 36
36 31 30
46 31 26
42 42 37
48 27 25
42 30 27
63 28 28
47 41 32
43 38 35
67 67 65
59 52 50
59 43 43
23 16 13
33 24 24
40 33 30
26 19 13
41 37 37
46 32 31
28 27 22
58 55 53
36 30 27
47 41 41
53 39 39
51 39 39
69 63 63
65 51 51
41 42 31
50 36 30
44 39 36
40 19 17
51 51 46
49 25 25
42 30 30
27 18 16
36 30 25
34 12 10
26 11 11
47 38 38
43 43 39
38 31 30
37 22 20
37 30 27
41 33 27
41 33 27
42 36 32
47 38 38
19 20 15
35 31 25
12 11 10
57 54 53
62 59 59
35 26 24
47 49 43
40 41 35
31 15 15
50 24 21
19 15 9
42 33 28
62 61 59
46 40 34
70 66 65
43 31 23
18 23 15
37 31 31
32 20 13
32 31 27
40 21 19
33 25 24
32 23 18
38 27 26
37 26 25
46 37 36
34 27 26
47 46 41
47 51 36
45 24 24
31 26 23
30 33 26
48 38 38
48 21 21
39 45 37
49 36 33
32 31 21
28 27 11
45 32 29
38 28 28
38 22 21
49 29 24
36 7 7
39 11 10
95 21 21
26 7 7
32 8 8
44 11 11
38 10 9
30 8 6
24 7 6
0 0 0
0 0 0
0 0 0
0 0 0
0 0 0
0 0 0
0 0 0
0 0 0
0 0 0
0 0 0
0 0 0
0 0 0
0 0 0
0 0 0
0 0 0
0 0 0
0 0 0
0 0 0
0 0 0
0 0 0
0 0 0
0 0 0
0 0 0
0 0 0
0 0 0
0 0 0
0 0 0
15 27 16
18 28 16
16 24 14
17 29 16
18 34 19
16 22 10
17 30 16
13 25 10
13 25 13
10 6 3
29 38 28
41 54 29
37 27 24
42 58 43
54 49 46
27 7 7
32 37 31
41 39 26
30 37 29
46 41 40
27 25 23
37 30 29
22 26 21
28 30 26
34 31 26
36 38 28
41 55 40
29 29 29
58 55 52
49 33 22
39 35 33
31 32 26
32 22 14
35 27 16
35 38 36
35 42 35
22 28 22
56 51 39
37 36 34
38 37 25
29 32 29
42 56 41
32 34 26
39 39 37
59 55 52
35 32 22
51 58 50
44 41 40
31 41 32
29 37 28
42 35 30
48 49 46
20 24 14
32 34 26
60 64 59
16 23 13
37 41 36
19 37 20
38 40 36
25 26 22
41 41 34
53 51 43
54 47 42
35 36 35
35 42 32
44 47 38
30 35 28
30 19 16
29 22 20
49 43 40
23 29 22
48 42 38
36 36 28
44 48 43
35 40 33
37 44 38
31 45 32
56 35 31
36 29 26
32 27 24
38 43 38
53 67 54
40 31 27
58 51 48
42 39 36
25 29 24
25 36 23
50 34 28
37 34 28
31 21 11
40 44 36
47 45 39
58 49 44
43 42 37
25 28 25
35 27 24
44 39 33
23 35 23
38 37 33
37 27 25
32 49 29
41 39 32
35 28 22
20 16 16
18 25 17
43 37 32
40 60 36
40 32 26
32 40 32
30 30 28
45 43 37
36 49 37
58 46 42
47 41 32
39 37 33
45 25 20
53 52 43
28 32 22
47 36 26
28 48 30
42 45 41
47 26 24
29 34 24
51 49 44
46 56 42
45 28 21
43 45 41
38 18 16
31 28 20
27 33 24
38 23 21
47 48 41
55 48 41
33 30 25
29 36 28
49 51 46
47 44 41
42 43 33
43 43 34
45 52 42
57 52 45
62 55 55
31 29 26
51 46 44
30 27 19
66 66 64
45 38 33
37 35 27
35 32 25
37 32 28
41 37 33
53 56 49
52 51 47
40 42 34
68 46 43
96 95 94
45 52 39
24 30 17
28 29 23
31 40 28
59 49 46
43 26 23
20 31 19
37 46 32
46 39 33
38 38 32
44 32 31
38 31 29
58 51 50
29 32 23
47 47 43
41 37 33
44 38 34
40 42 37
45 41 36
40 40 36
41 43 38
36 35 32
44 43 36
49 55 50
39 45 31
32 18 12
41 44 37
41 32 25
31 33 26
40 45 40
48 48 47
33 46 32
43 43 38
44 37 31
29 31 23
49 44 39
28 31 25
117 160 100
47 38 37
33 38 33
25 36 22
29 23 18
40 21 19
44 51 44
44 55 40
94 96 94
49 44 40
23 34 22
43 39 37
50 44 44
39 41 32
64 64 61
18 21 18
37 28 24
45 46 41
29 36 29
48 46 36
51 47 45
57 28 24
44 25 25
36 38 32
29 26 20
51 51 46
32 26 20
56 49 46
61 60 56
47 45 45
61 54 49
44 19 17
51 56 39
49 39 32
31 41 32
64 54 48
49 43 38
39 34 30
41 24 24
30 20 13
42 40 34
56 54 50
39 40 35
41 31 29
37 25 19
52 38 34
45 52 33
78 77 76
46 40 28
45 37 32
76 78 75
39 38 32
49 45 42
70 73 63
69 56 47
53 43 39
38 25 20
36 39 32
33 38 31
58 48 45
38 25 25
34 33 25
47 38 31
58 55 48
25 40 27
39 29 28
95 97 92
43 43 41
44 31 27
54 40 35
34 35 31
49 36 34
56 55 51
31 33 26
53 54 47
44 39 36
35 26 25
44 42 36
28 22 18
24 26 20
53 45 45
43 48 41
50 48 43
48 52 39
48 41 37
51 50 50
44 36 22
43 28 26
54 57 53
39 31 26
55 60 53
45 36 26
74 73 69
49 52 47
58 58 56
49 41 38
27 20 19
43 47 39
36 52 33
34 35 23
48 49 42
41 40 36
56 41 37
58 43 41
54 52 48
61 40 37
36 35 35
38 32 29
38 42 38
57 33 30
46 41 38
46 51 43
42 35 34
68 70 66
59 40 39
46 37 32
55 52 48
53 56 42
55 55 52
38 33 31
49 46 46
47 40 38
37 36 32
48 56 41
31 36 29
62 45 37
67 61 61
34 30 28
47 46 40
50 39 33
43 40 36
41 31 25
50 41 33
36 32 27
33 26 25
65 48 43
47 43 39
52 50 44
61 44 42
43 40 36
41 23 22
45 50 42
44 28 24
40 34 32
42 35 34
51 38 36
55 31 29
53 34 26
44 41 35
58 37 37
40 36 35
67 65 63
60 50 48
51 32 31
40 29 29
46 30 25
47 35 33
56 44 44
28 24 18
50 39 35
58 54 50
45 42 30
44 31 27
67 66 64
27 22 22
62 53 52
41 28 27
30 35 26
77 40 38
26 24 18
32 27 26
64 59 53
55 37 33
45 25 23
33 28 18
51 50 50
63 59 58
52 32 32
52 60 45
29 9 8
44 35 35
35 31 21
82 78 75
44 31 24
38 44 34
46 40 39
42 35 31
48 45 41
34 24 22
70 61 61
44 33 33
57 46 43
36 26 22
42 42 34
41 35 30
50 30 27
63 23 21
49 44 42
45 32 31
36 34 29
76 42 41
32 31 25
43 26 20
54 41 36
50 47 42
48 33 30
53 39 38
36 20 17
63 54 52
49 42 37
26 24 24
61 31 30
43 26 26
33 33 24
47 31 31
46 33 30
38 42 33
39 35 25
45 32 30
44 38 38
38 36 25
38 27 27
47 35 35
51 35 35
54 45 45
52 36 28
55 42 40
34 28 20
33 36 28
33 34 24
49 32 30
44 42 40
43 42 37
38 35 24
40 28 28
38 24 24
46 31 26
33 19 19
38 31 28
42 33 31
33 33 25
33 29 28
36 23 22
52 47 44
58 40 33
56 51 51
51 47 42
44 37 35
63 46 38
43 35 33
31 28 28
49 27 27
45 33 32
51 42 39
48 47 46
30 21 21
49 22 21
39 37 34
53 47 37
46 55 38
21 22 13
35 19 18
49 49 45
35 15 14
44 37 36
32 33 28
36 26 20
65 60 59
44 39 34
62 34 34
28 21 19
51 52 36
41 27 21
66 64 60
62 55 55
56 45 44
57 50 47
43 37 35
54 28 27
48 25 25
45 41 41
34 25 24
52 26 19
38 24 23
55 34 27
40 39 37
56 57 54
34 32 25
35 27 26
42 39 34
42 31 24
37 22 20
34 21 21
46 43 34
46 44 35
44 42 36
56 39 39
43 28 27
31 27 25
34 28 26
51 36 35
41 37 34
37 26 25
54 36 33
39 35 32
34 33 26
33 16 16
56 51 45
40 26 22
54 37 37
39 30 27
53 53 49
37 24 24
31 26 26
43 36 35
51 45 45
44 22 20
40 33 27
31 21 20
32 14 12
54 25 20
30 10 8
35 31 26
41 34 26
25 20 13
35 34 26
33 30 25
33 30 23
48 45 44
39 23 23
110 108 105
40 28 25
27 20 19
44 54 41
54 56 48
43 35 30
53 38 36
33 18 16
30 30 29
39 31 28
37 34 32
39 36 36
28 26 24
48 39 39
44 38 34
24 38 25
44 43 40
43 40 40
43 28 28
75 70 69
40 36 36
49 34 33
46 41 41
63 54 50
54 44 44
40 40 33
24 21 19
17 17 14
31 32 30
28 13 11
45 38 35
43 44 39
25 12 11
49 43 43
36 36 32
63 66 57
42 34 34
16 20 15
29 21 21
38 17 16
29 7 6
76 21 21
38 10 9
35 8 8
51 11 11
39 11 9
18 5 4
22 10 5
45 12 9
2 1 0
0 0 0
0 0 0
0 0 0
0 0 0
0 0 0
0 0 0
0 0 0
0 0 0
0 0 0
0 0 0
0 0 0
0 0 0
0 0 0
0 0 0
0 0 0
0 0 0
0 0 0
0 0 0
0 0 0
0 0 0
0 0 0
0 0 0
0 0 0
0 0 0
0 0 0
0 0 0
0 0 0
0 1 0
13 25 14
12 13 7
12 12 5
30 41 22
16 22 12
23 28 15
36 66 37
16 27 15
16 26 15
22 42 23
13 17 10
16 24 15
40 42 39
35 40 33
39 51 30
29 15 8
38 35 29
33 24 17
29 30 22
40 33 30
35 32 29
40 37 33
33 27 17
62 40 37
48 37 29
33 33 29
21 23 14
37 42 37
38 34 33
40 34 32
24 22 20
26 30 25
30 31 27
46 46 44
30 19 16
37 46 38
33 26 22
35 26 23
37 29 26
47 40 34
34 39 35
58 57 53
52 48 47
45 22 18
40 30 23
43 49 44
45 55 45
45 44 42
35 36 22
43 44 42
33 24 19
38 40 32
29 31 29
44 37 33
86 46 42
43 42 40
53 47 42
26 19 15
31 36 30
39 41 35
39 38 28
42 44 38
31 17 12
42 41 33
52 37 34
27 30 25
48 38 36
26 28 23
59 49 44
29 34 28
50 42 35
44 27 24
29 29 21
41 37 33
22 25 15
52 56 52
39 44 36
50 51 46
44 45 38
11 14 8
32 35 32
21 25 20
32 23 14
30 25 20
29 32 26
32 25 19
48 43 40
42 24 19
36 33 24
35 35 33
46 39 33
46 39 33
33 33 21
41 19 14
31 34 31
40 35 29
34 37 31
42 31 26
44 42 24
50 37 32
37 49 29
51 50 47
25 25 20
20 18 16
48 46 39
29 34 30
48 49 46
66 46 38
39 37 32
31 29 24
24 27 23
35 39 35
36 36 34
32 28 18
32 34 28
39 38 31
38 38 37
50 50 48
56 48 48
30 28 21
27 23 20
39 39 39
39 29 23
28 33 23
40 38 31
44 35 30
41 41 33
62 63 62
50 51 44
32 28 24
29 36 28
50 58 38
46 47 41
28 25 16
58 61 54
32 35 32
56 50 46
31 29 25
53 60 52
43 43 35
23 23 17
49 38 34
34 27 26
53 31 28
41 42 39
33 39 33
33 32 25
50 41 33
59 55 53
42 40 37
39 47 39
54 54 48
27 33 23
27 35 28
29 33 26
37 38 37
43 44 35
47 39 35
35 36 34
40 40 34
47 54 46
37 32 26
66 64 64
60 53 48
30 33 26
41 37 34
30 27 21
105 103 101
35 41 30
56 36 31
75 71 70
42 52 43
33 37 32
56 50 49
48 50 44
35 35 28
24 30 23
56 57 55
52 55 44
48 42 40
33 34 25
46 33 23
38 30 26
67 60 56
38 26 22
38 26 23
38 46 39
22 20 16
38 31 27
47 42 36
49 48 48
50 66 48
41 40 39
20 25 17
46 42 36
32 31 27
60 63 53
31 39 29
50 43 37
44 46 44
32 18 17
42 38 33
49 44 39
37 36 28
31 37 31
44 35 31
30 24 18
47 38 31
67 49 48
42 34 31
42 44 41
48 44 41
49 44 42
46 48 30
48 35 30
44 44 30
54 42 41
33 26 25
31 28 22
40 40 28
45 35 31
37 39 37
55 62 51
43 41 36
33 23 21
59 48 46
65 44 42
51 49 47
46 42 36
34 31 22
89 66 64
41 36 32
42 27 24
37 41 34
27 33 23
54 38 33
56 47 43
44 30 30
38 28 24
43 38 38
48 40 32
54 55 51
34 31 26
60 60 57
36 32 22
37 36 35
49 42 32
49 46 39
58 57 53
21 30 20
38 37 34
28 21 17
55 46 44
33 32 23
86 131 76
49 43 42
70 69 65
45 46 42
30 31 22
49 38 36
39 26 24
36 18 12
59 52 51
38 21 21
43 39 38
33 28 25
46 29 25
44 48 43
68 61 58
33 19 12
23 23 17
43 42 34
53 44 41
37 39 31
53 49 47
53 48 45
42 31 28
36 33 33
63 59 57
34 32 28
32 30 26
49 48 44
54 52 50
32 33 27
40 31 31
62 71 53
48 49 43
33 29 29
31 32 23
56 50 49
34 28 22
34 41 31
37 34 32
52 43 37
77 73 71
55 44 42
21 26 22
59 32 23
34 37 34
41 44 37
72 49 41
47 39 32
45 41 33
45 47 42
47 47 47
29 38 27
63 57 55
46 55 47
68 63 62
47 34 29
55 46 44
42 41 33
53 50 46
36 33 32
57 51 51
31 33 29
55 46 43
58 52 51
49 33 33
46 40 38
35 30 30
35 36 31
50 32 29
32 35 29
44 36 31
45 30 29
54 42 39
62 40 37
49 48 43
74 59 59
41 38 34
41 16 12
40 20 17
37 29 26
44 42 36
53 46 43
65 61 57
34 30 28
44 32 31
53 45 40
45 38 33
55 46 38
45 28 27
34 31 27
36 27 20
69 71 66
38 32 30
44 36 35
38 27 26
39 28 23
43 38 33
60 51 44
46 41 38
27 17 15
62 53 48
58 42 39
26 18 14
48 28 25
42 39 28
48 32 32
47 44 39
38 38 30
53 50 50
47 41 39
42 40 32
39 23 21
33 28 25
47 38 34
49 48 46
61 51 49
39 38 35
56 43 34
49 47 41
51 43 41
37 36 29
22 27 21
38 37 32
48 50 43
57 61 50
37 39 34
45 41 41
45 35 31
29 24 24
33 34 28
19 17 10
45 33 28
50 37 24
41 27 26
43 21 21
36 36 26
48 30 28
52 35 34
31 32 26
49 38 30
64 34 30
56 40 35
36 32 24
70 36 33
46 31 30
41 22 18
48 42 40
59 57 51
51 40 37
66 36 35
42 36 31
38 42 32
37 33 28
73 52 49
41 40 32
54 50 48
31 41 27
43 34 33
40 32 30
52 38 35
45 38 37
35 25 25
44 21 20
56 70 53
48 42 40
42 26 23
52 26 25
77 46 43
41 30 26
40 24 23
20 23 17
32 31 28
52 53 42
36 39 32
80 76 75
44 38 33
54 41 38
50 34 33
55 44 35
91 25 25
55 50 50
79 33 32
60 52 51
42 34 31
40 34 33
61 55 52
62 50 47
51 32 29
29 22 22
38 30 30
49 44 40
59 55 53
47 29 21
38 24 20
40 27 25
53 43 35
44 28 24
31 24 24
38 39 31
45 27 25
31 24 17
74 62 61
43 34 31
51 38 36
31 30 24
35 32 32
50 28 24
45 33 32
41 40 37
53 39 38
46 22 16
61 47 46
34 36 29
38 25 25
59 53 48
42 35 35
33 30 30
58 40 39
61 55 53
26 26 20
49 33 27
56 55 46
61 48 46
38 27 27
54 38 38
41 30 29
63 55 53
58 43 39
42 38 36
33 32 27
43 63 29
31 25 25
38 40 37
44 36 36
56 41 40
50 36 36
51 35 30
42 44 38
40 23 15
43 37 29
41 30 28
42 39 38
24 25 21
32 30 23
44 34 28
58 55 54
35 26 25
38 38 30
34 32 20
57 45 43
32 29 27
42 25 24
19 27 19
31 27 19
49 44 40
44 41 40
43 32 31
35 33 27
35 27 25
55 15 14
52 41 37
30 27 26
60 78 50
42 25 25
41 39 29
65 45 44
63 30 30
37 32 28
41 30 25
41 26 25
36 33 30
42 30 28
49 22 21
74 60 54
38 26 26
51 27 27
32 12 8
48 40 36
35 39 34
38 31 29
27 16 15
52 42 41
47 32 31
43 37 34
48 33 27
43 43 38
72 45 41
34 23 18
54 51 50
33 28 26
29 20 18
44 28 28
40 45 35
37 37 28
46 19 19
32 16 16
55 44 44
55 48 48
40 39 39
31 32 24
37 41 31
30 29 23
67 72 65
36 25 23
34 37 32
48 47 45
24 18 17
38 10 9
41 11 10
57 12 11
28 8 7
67 9 9
32 9 8
27 9 7
28 8 6
20 6 4
24 6 6
26 7 7
0 0 0
0 0 0
0 0 0
0 0 0
0 0 0
0 0 0
0 0 0
0 0 0
0 0 0
0 0 0
0 0 0
0 0 0
0 0 0
0 0 0
0 0 0
0 0 0
0 0 0
0 0 0
0 0 0
0 0 0
0 0 0
0 0 0
0 0 0
0 0 0
0 0 0
0 0 0
0 0 0
12 24 13
10 17 9
17 34 19
17 31 17
25 49 27
15 24 13
15 31 15
8 14 5
18 36 19
18 33 18
14 22 12
40 31 18
18 26 19
63 27 23
50 49 44
29 34 28
31 30 30
54 34 32
30 29 22
39 41 37
39 38 35
30 23 22
29 34 22
33 34 33
24 23 20
34 36 32
37 23 19
19 11 7
35 37 34
10 19 10
30 32 25
19 27 17
37 43 33
56 49 41
27 30 19
29 36 29
45 34 28
37 38 36
56 50 43
33 30 24
39 39 29
32 41 30
64 62 61
38 42 36
36 48 37
34 32 29
26 29 24
34 32 28
27 30 25
26 29 25
25 25 23
34 38 28
31 36 30
32 44 30
40 30 24
52 47 37
53 55 52
26 25 21
25 37 25
28 28 24
40 36 30
47 39 34
57 63 55
27 29 19
25 30 25
51 36 31
55 57 55
27 37 28
40 35 29
22 25 19
27 36 28
25 34 25
56 49 43
56 59 54
38 30 26
50 45 40
33 25 21
65 64 58
19 25 20
35 33 32
64 58 54
34 39 31
21 25 16
38 28 23
45 32 28
35 43 31
27 30 23
59 45 39
27 32 25
53 43 30
67 70 67
21 24 18
43 48 42
52 46 41
30 32 25
45 45 39
32 25 22
39 33 28
51 49 42
44 45 38
17 28 18
49 42 38
42 35 32
44 42 39
61 52 45
48 50 47
100 50 44
63 58 54
33 35 27
25 15 13
43 50 42
49 34 27
59 58 56
35 35 25
41 43 33
44 36 31
50 46 44
61 62 57
32 43 32
12 17 12
45 32 29
60 52 51
48 48 46
115 64 62
9 4 3
39 42 37
35 43 35
23 36 24
27 26 23
28 38 28
36 26 25
17 28 17
41 31 26
38 46 33
59 59 55
39 46 34
24 23 20
22 30 21
55 42 30
30 28 23
42 51 39
32 33 31
23 22 16
23 30 17
35 82 38
28 16 14
32 27 25
30 33 26
65 36 27
55 32 29
46 21 18
44 49 44
32 25 19
47 55 43
24 26 21
31 32 26
32 37 29
89 66 60
52 54 39
37 38 33
46 49 45
29 46 30
40 33 32
36 44 29
68 49 47
26 28 19
31 36 25
36 29 21
33 24 21
50 34 25
55 74 54
34 30 25
39 35 25
41 41 40
85 47 42
38 40 35
37 34 30
36 50 34
40 38 35
28 28 17
31 32 30
31 35 29
51 47 45
85 85 84
56 77 56
38 32 29
46 52 46
18 23 17
52 35 32
41 30 29
56 55 47
34 37 29
38 33 27
35 30 23
31 34 29
43 32 28
42 31 29
45 35 27
47 45 40
58 58 56
38 43 35
51 39 32
56 41 37
51 47 45
30 26 25
48 52 41
32 32 28
32 34 26
45 35 28
42 43 41
38 35 30
49 44 37
46 40 28
45 42 33
46 42 39
55 46 40
121 51 46
33 54 29
32 27 20
63 39 37
58 34 28
38 46 33
40 51 39
42 31 28
21 22 13
33 40 33
52 55 51
34 28 27
48 43 39
29 28 24
45 36 35
49 44 40
51 52 41
41 58 42
90 53 46
44 37 32
39 36 32
63 38 37
42 42 36
27 37 26
71 61 55
30 40 30
37 22 22
43 45 39
59 43 39
39 41 30
54 44 41
83 66 59
44 45 36
32 30 27
52 39 36
37 33 30
56 37 33
48 39 34
37 30 21
41 40 35
32 33 30
28 27 24
46 40 38
35 38 35
24 35 23
57 49 44
49 42 39
49 48 42
48 47 45
56 51 47
49 47 38
32 32 28
29 28 21
46 33 28
43 36 33
54 44 41
55 55 54
79 70 67
51 53 44
46 29 22
51 50 47
58 59 58
63 60 56
54 47 40
40 31 28
38 26 21
30 35 28
92 91 89
48 44 37
44 44 37
39 35 33
31 15 15
46 37 35
36 33 28
41 53 39
47 32 32
44 38 31
45 39 34
50 39 36
45 45 38
51 42 39
56 58 56
50 33 33
35 27 19
45 41 37
29 30 25
40 40 37
25 30 22
38 41 27
36 34 28
68 53 52
57 47 46
61 47 43
60 39 38
36 30 30
38 28 21
31 18 17
49 52 46
32 35 26
41 29 22
32 21 21
38 34 34
57 26 22
36 31 22
53 47 42
75 62 57
49 41 31
49 48 39
52 33 33
36 29 23
46 42 42
34 23 22
53 48 46
42 44 38
55 51 49
46 30 30
39 34 29
29 29 27
53 46 41
27 30 22
40 31 29
52 25 24
54 36 34
55 39 28
42 37 35
35 32 27
47 32 30
35 38 32
46 32 27
86 44 41
48 24 24
40 30 27
34 38 30
29 24 23
33 22 19
32 25 16
42 32 32
44 30 30
54 24 21
45 34 31
36 36 31
51 53 46
59 53 50
58 48 46
20 18 10
39 20 20
45 32 32
25 28 19
26 40 26
70 68 65
43 38 38
45 36 35
36 38 29
42 31 28
43 44 39
36 23 22
67 62 60
46 17 16
53 36 30
34 30 29
50 50 45
40 39 39
21 24 19
32 16 11
49 32 23
42 38 30
68 57 53
43 19 19
45 43 41
41 41 29
32 29 26
56 44 39
33 29 22
60 18 17
42 33 25
58 47 46
31 29 25
34 25 24
40 33 28
46 38 38
51 43 32
44 33 28
78 37 29
31 24 18
53 52 50
51 38 35
62 48 42
38 24 23
45 36 35
43 40 36
40 38 33
44 46 40
30 29 28
28 34 28
35 37 29
43 51 38
55 51 49
57 37 26
55 59 50
32 32 26
44 42 39
55 34 31
43 38 37
40 34 26
54 46 45
62 56 55
68 57 53
57 57 51
53 53 50
56 36 36
50 35 35
38 25 23
37 26 22
52 31 29
48 37 37
38 41 37
52 57 46
46 31 31
60 43 42
51 41 32
33 34 23
45 37 26
42 42 42
56 53 53
73 28 25
42 44 41
56 45 38
43 32 32
47 28 22
48 41 35
36 28 26
33 24 21
41 16 16
58 49 47
30 25 18
56 51 51
58 34 33
49 39 34
26 23 23
35 36 33
22 16 16
61 56 53
55 35 31
47 42 36
34 22 21
47 30 30
42 38 37
36 34 24
49 34 34
26 29 22
35 20 20
39 9 8
44 19 14
27 16 14
41 33 28
27 18 16
33 33 22
49 42 41
49 38 35
67 61 58
52 50 40
42 34 33
44 29 22
38 15 15
75 32 25
32 16 15
46 47 44
48 42 42
50 39 39
46 30 23
50 43 43
45 39 36
44 13 11
29 15 11
40 34 34
57 53 45
67 61 58
50 44 39
30 27 26
37 36 35
38 26 25
53 30 27
39 28 27
32 25 25
41 28 27
44 36 36
44 31 31
47 44 39
40 31 24
25 6 5
42 32 25
77 34 33
31 21 21
37 30 29
41 29 29
44 36 30
19 7 5
44 30 28
39 34 29
57 43 43
45 40 39
58 49 49
28 8 8
32 16 15
61 52 42
32 21 18
40 39 28
42 31 31
42 34 30
55 36 36
40 28 25
35 9 8
37 28 26
29 27 27
41 26 21
30 27 26
42 26 21
51 37 36
43 30 29
72 54 54
35 30 29
61 55 54
55 39 39
50 31 31
36 17 15
75 69 69
46 34 31
34 29 28
46 37 35
32 25 20
52 39 39
35 36 32
88 78 75
45 38 34
23 7 6
42 41 39
34 29 20
68 33 33
47 54 42
29 27 25
30 15 15
43 48 39
44 47 43
32 23 22
35 15 15
55 16 15
52 13 12
33 7 6
65 17 17
48 9 7
51 13 13
32 10 8
57 15 15
43 10 9
42 7 7
20 6 5
13 3 2
0 0 0
0 0 0
0 0 0
0 0 0
0 0 0
0 0 0
0 0 0
0 0 0
0 0 0
0 0 0
0 0 0
0 0 0
0 0 0
0 0 0
0 0 0
0 0 0
0 0 0
0 0 0
0 0 0
0 0 0
0 0 0
0 0 0
0 0 0
0 0 0
0 0 0
0 0 0
0 0 0
12 24 13
26 31 18
3 9 3
16 35 14
17 32 16
17 27 15
14 24 14
16 32 15
23 43 25
11 16 9
18 27 15
22 38 22
17 25 12
12 22 8
52 45 39
35 36 34
47 47 43
57 55 55
21 23 11
23 24 22
43 45 42
48 36 34
21 19 14
59 48 41
44 39 33
61 50 47
21 23 19
30 26 16
55 41 27
30 34 28
60 63 57
55 43 40
53 56 53
67 66 65
28 28 22
45 68 46
39 33 25
33 34 26
39 34 31
49 47 45
29 32 24
48 51 44
28 25 20
42 43 36
30 28 23
38 35 20
30 26 21
29 40 26
44 35 32
43 44 32
44 54 41
20 26 16
18 28 19
39 44 39
45 46 38
35 33 29
40 40 34
63 53 37
37 20 17
33 31 26
55 54 50
38 40 31
51 29 28
53 68 55
24 34 24
51 48 40
53 59 51
45 36 25
41 36 28
46 47 46
33 40 29
41 43 38
24 28 24
59 52 51
32 40 32
31 34 20
34 45 33
38 37 30
43 44 41
33 30 26
46 48 45
52 51 51
17 24 14
63 49 47
35 40 22
70 61 59
35 42 35
37 33 32
28 39 27
28 19 16
52 42 39
22 32 17
40 44 35
45 30 24
45 38 35
48 58 44
35 34 26
54 45 34
44 44 42
49 29 27
23 24 20
38 38 33
46 45 40
67 73 67
59 48 47
53 37 35
51 50 46
36 29 25
48 46 38
45 48 40
28 30 25
25 19 13
41 44 41
34 43 34
57 42 35
32 44 30
33 54 35
61 61 57
38 45 35
36 32 21
51 56 41
35 26 24
37 41 34
39 45 38
68 47 41
48 39 37
42 29 23
51 56 51
41 41 34
41 37 27
41 39 35
27 38 22
35 38 31
35 44 30
34 23 15
44 49 44
38 36 31
43 58 40
67 47 44
38 40 31
28 28 20
42 42 37
19 24 17
63 63 61
46 52 42
42 42 39
27 37 27
41 37 32
33 34 27
33 42 34
66 56 52
61 49 45
40 41 35
28 34 25
36 40 34
43 48 39
50 63 46
40 41 38
33 36 31
32 29 29
39 40 34
50 48 43
47 45 43
45 46 42
38 34 27
33 41 34
48 56 47
25 28 20
47 44 41
47 30 28
66 63 62
44 42 40
41 43 38
36 35 34
43 48 41
53 48 41
51 51 45
28 14 14
44 42 33
38 38 32
39 42 38
43 41 32
55 44 39
38 22 13
41 40 33
47 40 32
53 50 44
39 42 33
37 30 27
51 48 46
35 28 23
50 34 33
51 50 44
34 39 34
53 54 47
48 42 40
49 46 39
33 25 20
60 53 49
15 17 15
46 46 37
49 37 37
41 33 31
65 60 57
38 44 38
56 54 50
36 41 35
43 36 34
50 40 39
43 39 39
23 31 20
46 36 31
35 38 29
31 29 25
45 31 27
35 33 30
51 46 41
30 33 20
49 50 44
50 58 48
43 33 32
41 48 36
37 32 26
40 29 21
45 48 44
29 30 29
42 40 36
67 59 57
45 47 39
45 41 34
38 31 28
27 18 16
30 36 30
30 30 21
34 35 28
30 27 23
29 31 22
52 47 43
38 41 32
29 37 26
52 42 37
43 33 27
38 38 31
40 44 36
35 30 26
50 47 42
39 42 34
26 26 20
38 20 17
55 47 44
44 35 29
30 31 24
42 46 39
53 45 43
50 49 49
49 41 40
38 34 26
67 62 56
49 29 26
44 35 33
30 42 30
53 55 49
50 43 43
22 6 5
55 42 34
52 42 34
47 52 45
44 39 36
43 37 36
50 44 34
40 43 38
45 44 40
53 39 35
49 43 42
41 33 23
54 47 41
46 38 32
37 35 31
48 47 42
50 56 47
43 32 29
62 55 50
38 33 31
38 25 25
50 50 45
33 20 14
52 35 34
49 52 44
52 44 41
45 40 36
26 29 17
64 49 41
49 48 46
35 19 17
26 31 25
59 46 43
54 50 46
55 49 46
30 24 20
40 49 34
30 24 20
50 40 40
46 28 25
53 35 30
31 30 21
73 67 64
40 39 29
33 23 18
44 41 36
45 36 35
60 49 48
51 30 28
30 26 19
42 30 22
43 32 29
81 73 73
52 36 33
31 22 16
40 42 36
44 25 16
42 38 32
50 50 47
39 25 22
19 27 15
52 41 35
37 27 23
65 57 54
30 28 22
40 39 32
64 60 56
44 38 37
42 41 36
50 33 28
34 23 18
42 39 37
67 56 53
35 42 32
43 37 30
46 44 31
53 43 43
43 46 41
27 22 19
50 45 41
41 24 23
43 18 18
36 36 35
44 29 27
30 38 31
48 35 32
24 29 19
61 59 56
67 44 39
45 41 39
38 34 32
54 25 24
60 47 45
52 44 44
53 32 31
49 43 41
34 36 24
48 44 42
31 31 29
60 51 43
50 47 41
40 31 26
56 44 44
42 29 29
40 34 33
49 41 36
54 36 34
40 37 29
42 38 35
54 52 52
39 36 29
58 46 44
33 19 19
49 49 40
59 45 45
30 9 9
53 38 35
71 58 58
40 42 29
50 44 41
57 44 44
67 38 35
36 39 34
43 38 27
29 32 21
38 34 32
56 42 41
42 38 36
36 29 22
42 37 34
78 47 47
46 34 30
38 35 33
41 29 26
44 44 36
85 74 70
89 62 45
59 54 52
41 30 30
48 35 29
48 44 37
44 27 26
31 26 23
28 23 22
40 40 36
26 20 12
46 34 33
49 38 38
92 33 33
46 29 27
42 32 28
41 29 26
45 30 30
40 35 27
77 52 48
41 26 26
48 42 42
30 24 23
46 42 37
47 38 38
52 40 35
48 32 28
74 61 61
48 41 37
51 46 43
25 31 25
45 44 38
43 44 37
45 36 36
75 26 22
43 37 37
47 48 44
39 34 34
39 32 31
56 51 49
66 60 59
62 40 29
62 46 42
44 35 25
59 45 45
34 34 34
34 30 25
49 36 33
66 36 31
54 36 30
53 38 38
49 44 36
40 36 34
24 24 14
30 27 21
31 22 21
36 23 22
44 41 32
51 35 29
71 35 31
42 22 21
39 24 24
41 32 27
27 11 8
41 34 34
56 50 47
60 36 36
46 41 40
52 45 37
44 34 30
54 46 36
69 47 45
33 26 21
76 69 69
40 32 27
47 46 32
36 29 28
49 51 46
57 32 32
97 97 94
37 16 16
51 43 39
56 51 42
43 34 31
45 35 32
45 40 39
33 31 24
42 16 16
58 40 40
55 54 44
56 52 46
52 41 31
36 30 26
47 40 35
47 35 30
48 35 32
56 53 46
46 17 17
53 43 43
49 47 43
45 42 38
35 23 23
63 53 53
47 41 41
55 47 45
54 40 35
55 31 30
47 40 39
48 25 25
45 22 18
55 39 39
43 28 25
46 43 37
44 30 30
44 41 35
38 57 34
38 25 20
41 40 38
53 39 38
44 39 36
49 42 40
70 33 33
21 10 10
39 35 31
58 54 46
24 26 17
58 53 53
34 17 16
25 28 20
43 30 29
67 27 26
23 25 20
22 11 7
28 22 22
46 29 29
41 30 30
22 23 18
37 38 32
52 55 46
70 25 24
56 48 37
33 26 19
48 31 27
45 36 36
40 47 37
42 41 34
56 37 28
43 32 31
48 33 33
58 53 53
45 41 31
62 46 42
40 27 24
36 25 22
33 20 20
29 22 17
38 31 31
31 40 27
45 33 26
37 31 24
47 38 38
34 23 22
32 9 8
54 6 6
30 9 8
35 10 9
48 11 11
29 8 7
27 8 7
30 8 8
26 7 6
37 11 10
43 11 10
20 4 3
17 4 4
0 0 0
0 0 0
0 0 0
0 0 0
0 0 0
0 0 0
0 0 0
0 0 0
0 0 0
0 0 0
0 0 0
0 0 0
0 0 0
0 0 0
0 0 0
0 0 0
0 0 0
0 0 0
0 0 0
0 0 0
0 0 0
0 0 0
0 0 0
0 0 0
0 0 0
0 0 0
0 0 0
11 18 10
13 19 10
15 18 10
18 31 17
17 29 17
12 18 9
19 26 15
16 25 14
9 18 9
13 28 11
17 26 15
24 44 24
28 50 29
16 29 16
14 22 11
40 37 35
27 21 13
60 50 49
43 40 31
37 29 24
35 37 35
45 28 24
39 28 22
39 26 23
28 24 22
38 28 26
43 35 35
20 16 13
44 43 37
38 37 35
29 33 29
43 41 36
31 31 29
19 29 18
18 18 10
33 37 33
29 30 29
14 17 14
75 67 58
48 50 48
51 48 45
43 37 28
38 30 20
29 30 24
47 39 35
42 36 30
45 38 28
10 18 9
46 49 42
41 44 39
62 61 58
43 43 40
23 28 23
34 32 28
24 25 21
49 44 41
35 31 28
29 32 29
35 56 38
46 48 41
23 24 14
45 32 28
41 34 29
53 52 45
36 48 28
53 53 53
33 43 33
19 27 20
27 29 17
70 66 60
27 30 23
23 33 23
49 70 47
52 44 40
26 33 22
54 46 41
48 39 36
40 25 20
31 28 23
27 27 22
66 56 52
44 56 42
30 32 30
42 44 42
34 34 29
58 61 54
34 30 24
31 35 28
42 43 40
40 41 35
41 28 20
39 49 40
31 25 18
44 46 37
25 32 24
46 34 31
64 47 44
30 32 22
59 62 48
36 31 25
40 43 34
43 26 19
16 26 17
70 32 27
68 46 42
23 22 18
48 52 44
43 46 43
37 30 24
45 47 44
32 33 25
19 16 15
27 38 25
32 38 32
43 45 39
48 39 36
44 38 35
33 33 31
34 39 33
56 48 40
43 29 23
33 39 30
47 37 28
54 49 43
40 42 34
34 36 33
41 46 39
53 40 36
39 40 34
57 58 50
77 69 66
41 40 31
59 42 37
28 26 20
56 45 41
19 27 19
22 33 22
52 48 42
39 28 23
38 33 27
27 37 25
18 25 19
43 43 39
37 29 26
55 47 42
51 38 36
30 31 26
30 15 9
41 26 17
35 33 28
45 54 44
40 41 35
42 44 35
58 49 45
46 63 47
205 41 35
19 16 10
31 27 23
44 39 34
50 57 46
34 23 19
53 41 34
52 44 40
50 53 41
51 45 39
60 53 49
44 40 32
35 36 24
37 41 32
47 46 41
37 41 37
52 33 26
45 43 37
50 35 34
20 27 17
48 52 46
52 52 51
32 39 31
33 37 31
45 42 40
34 41 35
59 42 35
20 24 19
45 36 33
31 35 27
44 39 33
69 63 58
36 38 29
60 61 53
86 42 38
39 44 37
57 53 48
43 39 38
37 23 15
21 15 14
35 20 18
41 41 36
46 36 35
43 43 30
50 39 38
26 36 27
56 52 48
40 36 32
47 49 41
51 38 32
37 38 35
35 32 25
57 55 54
47 49 40
22 15 11
39 59 38
30 25 22
37 38 32
38 36 34
64 49 47
52 47 47
53 37 31
43 61 42
29 35 23
41 37 34
37 34 30
42 34 27
49 49 45
43 53 44
40 41 37
61 55 53
42 32 27
47 46 42
50 43 37
45 42 40
48 39 37
44 37 33
33 38 31
31 53 33
59 35 28
43 36 30
37 40 37
41 40 31
55 46 42
57 52 44
31 24 21
28 31 26
38 35 30
42 33 29
45 43 37
44 31 27
53 47 38
56 60 56
22 32 22
33 24 20
42 45 40
38 25 24
45 40 31
43 39 36
58 43 38
40 37 34
71 43 41
34 36 33
39 34 27
34 33 29
44 32 24
36 49 33
68 67 62
51 54 47
32 18 18
44 45 38
51 50 44
73 59 56
32 37 31
47 39 36
58 62 58
51 44 42
61 44 38
42 37 31
46 40 36
54 40 37
30 26 19
43 37 34
47 39 36
47 40 38
41 26 22
29 37 29
54 52 44
59 55 54
36 28 27
30 32 30
47 35 31
43 35 25
50 45 39
34 35 32
24 36 23
37 34 27
43 43 40
49 49 48
52 44 36
53 45 44
56 33 26
36 26 26
48 42 41
62 44 41
34 23 20
44 36 34
49 52 45
45 49 42
77 85 68
38 27 26
46 32 27
45 42 36
80 79 76
55 47 44
48 53 46
45 38 34
19 22 16
44 33 30
43 40 39
59 58 57
81 86 79
44 51 42
37 33 23
48 62 41
42 36 30
70 62 60
56 34 32
61 59 58
37 24 21
30 35 24
40 35 33
48 47 42
34 35 25
54 66 44
66 64 55
51 45 44
28 31 23
52 39 35
36 42 34
36 29 24
37 31 29
72 43 40
61 51 49
47 35 31
49 43 37
57 30 30
39 24 23
65 57 56
53 35 33
54 42 37
62 42 39
50 34 32
58 38 31
33 32 28
46 40 35
68 39 39
49 17 11
52 54 45
52 47 39
58 61 55
34 40 30
45 35 34
54 31 30
31 38 27
42 37 37
74 77 71
29 26 24
56 34 28
52 48 41
47 34 30
32 12 11
60 50 43
41 36 36
35 32 30
56 50 34
53 50 47
59 56 50
48 50 38
30 28 19
44 36 34
47 48 43
49 39 35
51 47 44
57 43 41
40 34 30
45 39 37
43 38 29
37 37 31
46 42 39
37 37 28
42 43 34
58 38 32
50 38 36
60 52 50
33 32 25
36 36 31
32 20 19
42 28 28
35 29 28
64 57 55
36 22 18
222 89 88
38 34 29
49 52 46
50 47 43
45 47 44
87 43 42
23 19 13
46 39 36
61 45 45
37 27 25
49 24 22
52 40 39
71 65 63
49 49 43
57 39 33
58 43 38
38 36 30
46 49 39
52 46 43
59 30 30
54 43 39
62 59 55
44 29 24
45 38 31
84 37 37
54 49 46
29 22 17
43 51 42
104 101 100
50 46 40
44 43 40
57 51 47
62 28 23
51 32 32
30 25 16
49 40 36
36 26 22
38 32 29
38 39 37
28 15 14
44 41 33
43 29 26
48 21 20
34 25 14
47 40 36
59 39 32
36 32 24
39 31 31
34 32 30
44 37 30
56 50 48
40 31 27
31 19 16
58 49 48
37 35 32
51 36 32
67 63 62
28 31 22
41 33 26
44 38 33
66 46 45
46 49 41
27 43 28
43 32 32
47 32 32
58 28 28
54 32 31
47 43 37
34 26 26
45 48 38
44 37 34
48 44 44
53 40 37
68 60 56
44 36 31
32 34 23
31 23 20
64 40 35
45 30 29
34 23 23
24 20 13
29 8 7
46 22 16
44 35 32
50 42 39
42 28 25
37 29 25
49 45 41
37 29 22
51 32 28
34 18 15
33 29 24
46 48 41
43 35 29
67 65 60
50 42 40
27 27 22
35 27 24
32 22 20
39 34 33
32 19 18
51 42 40
40 10 10
58 47 44
47 24 22
63 68 60
38 40 31
28 25 25
51 35 34
35 15 15
45 35 33
49 39 39
47 38 37
40 35 28
57 34 34
27 22 20
46 27 27
38 27 26
78 68 67
45 27 22
25 21 20
54 47 44
27 25 18
42 31 31
40 21 19
51 45 45
31 14 12
24 15 14
49 42 40
41 31 28
41 26 25
28 21 21
52 45 42
47 40 37
31 17 17
46 38 37
43 19 19
64 46 44
33 26 22
37 30 26
43 29 27
46 31 22
45 29 27
24 27 19
49 41 38
46 49 44
35 27 27
43 35 33
32 34 31
37 23 22
34 22 22
52 39 38
33 15 15
18 11 10
40 17 13
58 51 44
23 40 23
27 34 23
69 62 61
31 32 29
34 15 14
31 9 8
29 9 7
35 8 7
40 8 7
55 14 13
55 14 14
47 12 11
21 9 6
35 7 5
34 10 8
36 6 5
48 13 13
52 14 14
24 7 6
30 9 8
0 0 0
0 0 0
0 0 0
0 0 0
0 0 0
0 0 0
0 0 0
0 0 0
0 0 0
0 0 0
0 0 0
0 0 0
0 0 0
0 0 0
0 0 0
0 0 0
0 0 0
0 0 0
0 0 0
0 0 0
0 0 0
0 0 0
0 0 0
0 0 0
0 0 0
0 0 0
0 0 0
11 20 11
18 33 18
19 27 15
10 16 9
21 32 18
13 19 9
33 63 36
13 17 10
12 21 12
14 26 13
13 23 13
17 25 12
19 37 19
14 19 10
19 34 19
24 38 19
41 31 24
23 23 21
29 30 29
41 42 30
24 22 20
39 28 26
46 40 33
33 34 32
56 58 55
46 35 31
53 54 52
21 11 8
24 29 22
18 19 18
30 35 23
26 37 25
56 64 55
18 30 19
32 33 27
21 29 17
53 51 43
43 41 30
33 37 32
36 34 29
44 46 37
50 41 38
49 43 29
44 50 44
38 40 36
41 48 41
30 28 17
23 24 18
46 30 24
36 43 34
45 32 26
37 36 27
58 77 47
33 33 24
30 33 29
30 21 21
39 27 25
85 80 79
22 18 11
23 29 22
36 47 36
38 34 32
39 24 21
55 49 44
30 38 31
44 21 18
51 53 48
24 37 24
48 37 33
42 44 42
34 34 28
47 43 39
42 43 37
55 58 55
69 72 69
34 43 33
35 36 28
42 40 36
48 64 45
36 39 30
49 46 41
59 71 56
41 50 35
61 37 31
31 21 15
24 32 23
28 24 19
45 46 39
32 40 32
29 28 22
24 24 20
24 27 17
44 23 15
35 36 28
33 47 32
54 54 49
47 46 42
43 40 36
22 21 20
50 28 23
43 39 35
67 78 64
30 43 30
43 40 35
49 34 27
42 44 38
58 59 54
47 43 35
57 48 41
38 37 25
48 53 44
36 38 27
48 44 36
44 39 34
46 42 38
43 40 37
69 62 59
37 40 33
45 31 28
44 48 40
45 51 46
30 30 28
57 43 38
41 29 23
37 30 28
36 40 36
43 43 38
31 42 30
28 30 24
48 55 45
33 51 35
32 24 20
38 38 36
36 39 32
45 49 38
38 41 33
42 43 41
47 51 44
45 54 43
34 40 32
39 33 28
83 37 33
44 48 38
37 42 33
36 37 35
44 41 36
46 33 29
46 42 38
41 24 22
34 38 31
35 48 36
64 47 44
40 32 26
44 51 44
32 24 19
25 30 25
56 53 51
80 78 77
40 42 38
43 43 37
34 41 32
30 25 23
42 44 38
48 59 45
19 25 14
54 46 43
46 41 36
72 60 56
54 41 34
70 60 59
40 45 36
14 18 11
33 39 30
25 22 22
46 45 43
52 47 32
25 22 17
43 40 30
48 51 37
35 37 26
37 46 29
35 47 36
41 37 33
38 25 23
32 31 30
44 37 31
53 44 40
51 36 33
50 47 42
25 26 18
41 33 31
52 40 36
66 54 42
46 45 32
63 50 49
48 30 23
61 55 55
47 46 39
39 44 36
42 39 34
54 49 42
54 50 46
36 27 21
39 30 24
40 46 35
44 44 32
47 46 38
44 40 35
45 34 32
56 49 45
55 45 39
43 40 37
39 36 30
53 36 35
47 48 42
31 35 28
49 43 35
40 40 35
61 59 55
47 39 36
33 44 27
98 55 47
39 34 24
41 26 22
37 35 32
48 48 45
46 31 31
30 31 22
61 57 51
62 49 47
37 39 30
52 33 26
40 43 36
44 39 31
45 47 41
43 39 32
77 126 76
51 36 30
41 42 40
66 61 57
60 48 41
56 49 47
37 36 33
45 33 29
58 32 30
32 30 18
42 52 43
37 35 35
55 54 50
34 30 27
47 51 40
82 78 76
31 24 16
35 31 26
35 37 29
33 37 31
61 64 60
24 21 20
59 46 43
48 36 33
56 37 34
51 42 38
59 47 35
49 45 42
48 40 36
31 39 31
63 47 44
40 34 29
35 28 23
54 52 49
33 30 29
39 46 39
65 55 53
30 26 24
50 35 27
53 57 50
44 44 37
62 64 57
39 31 28
50 42 37
43 40 35
35 35 27
61 51 49
54 68 50
37 36 29
50 28 24
70 63 57
21 25 21
30 33 29
67 70 65
33 25 18
50 31 29
47 44 42
59 50 48
43 44 36
23 27 21
46 41 33
45 32 30
50 38 35
40 34 34
57 35 31
53 51 45
36 38 35
35 31 27
81 76 75
70 71 68
45 28 25
69 65 64
48 36 35
74 68 66
38 40 38
53 27 26
46 35 32
57 45 44
38 35 31
51 37 33
57 55 52
51 52 49
27 31 27
64 61 60
42 27 18
48 40 40
51 44 39
52 36 20
44 37 33
46 37 31
55 58 45
53 48 41
49 35 34
47 49 39
63 41 35
42 34 24
59 48 48
48 36 36
38 37 32
58 47 44
43 31 31
73 49 38
55 47 40
39 42 39
73 30 27
39 36 32
34 29 25
67 62 58
36 31 30
58 46 44
59 33 32
34 34 32
42 37 33
53 42 40
53 44 44
45 34 34
41 40 34
56 40 38
43 31 29
33 31 25
50 44 41
43 40 33
42 30 19
26 19 19
48 53 46
72 62 61
45 39 34
38 32 31
56 45 39
50 41 32
55 39 37
64 49 46
42 30 27
55 44 41
27 15 15
65 60 54
32 29 29
56 44 40
34 30 22
54 28 27
40 38 32
46 29 25
40 19 19
63 56 52
53 35 30
55 44 43
32 26 25
50 35 33
55 47 42
47 32 25
51 30 27
47 40 31
61 54 54
41 38 38
35 41 29
66 57 55
35 37 25
31 31 27
40 15 15
56 47 40
45 48 44
37 30 23
49 31 28
50 47 39
64 34 31
35 37 34
54 44 40
59 45 39
39 40 37
50 35 34
36 19 19
52 53 45
55 39 34
40 34 24
51 50 45
66 62 56
46 22 22
29 25 21
37 42 28
58 41 37
45 26 24
54 52 46
38 32 26
51 39 37
44 47 39
24 23 18
109 49 45
59 70 54
70 26 24
49 29 29
38 38 30
51 44 41
50 43 42
58 52 50
55 41 37
44 38 27
52 37 36
30 32 27
31 26 20
44 29 29
44 37 33
67 51 48
39 35 31
59 48 47
45 46 41
33 26 24
39 26 25
42 39 30
61 48 48
64 92 57
42 28 28
44 41 34
59 46 46
46 32 31
54 33 32
27 29 19
81 69 67
29 25 25
30 27 22
47 29 28
69 65 62
61 35 34
37 43 37
47 35 31
36 17 14
54 40 31
36 26 19
42 26 21
54 37 36
41 39 33
72 52 52
65 51 46
37 33 32
40 33 32
50 41 39
56 59 49
72 64 61
48 42 36
65 42 38
35 33 30
33 22 22
69 62 50
61 37 31
62 47 46
41 32 31
65 52 47
32 36 27
31 25 20
48 37 31
40 42 30
42 40 30
63 62 60
54 53 48
49 44 42
63 59 54
36 28 22
40 32 21
36 27 26
50 33 32
44 17 13
39 47 38
49 40 36
28 23 19
41 23 18
38 30 20
48 32 30
58 48 48
59 48 47
49 25 24
47 38 35
37 22 22
44 44 37
56 25 24
47 28 27
46 22 22
39 31 30
36 21 16
24 19 18
22 12 12
62 57 51
35 28 23
38 38 34
45 36 32
47 36 36
51 36 28
52 40 37
33 26 21
46 24 21
45 27 27
48 34 34
51 45 38
47 47 42
61 55 55
35 36 32
46 38 34
53 41 38
26 24 17
32 32 24
39 15 15
35 21 20
40 33 30
44 34 30
21 20 12
46 32 32
38 25 18
30 26 18
48 34 34
33 32 32
34 10 9
92 42 42
57 46 46
55 37 37
44 33 32
25 7 7
23 21 17
68 68 66
68 33 33
37 30 28
48 42 35
34 20 19
28 17 15
24 14 13
30 8 7
48 12 11
37 9 8
31 8 6
31 9 8
23 5 5
41 9 8
40 8 7
67 18 17
40 11 8
30 8 6
37 10 10
10 4 2
27 6 5
5 2 1
0 0 0
0 0 0
0 0 0
0 0 0
0 0 0
0 0 0
0 0 0
0 0 0
0 0 0
0 0 0
0 0 0
0 0 0
0 0 0
0 0 0
0 0 0
0 0 0
0 0 0
0 0 0
0 0 0
0 0 0
0 0 0
0 0 0
0 0 0
0 0 0
0 0 0
0 0 0
0 0 0
12 19 11
13 25 12
23 43 24
20 34 20
4 8 2
12 9 4
13 19 10
28 48 27
20 34 19
19 31 17
19 29 16
15 29 15
18 33 19
13 28 12
19 35 19
12 15 7
41 46 27
25 17 10
9 20 7
59 61 57
47 30 20
49 30 25
37 31 25
44 29 24
51 44 35
33 31 28
28 31 27
72 58 55
48 43 32
41 43 41
30 28 27
27 32 26
29 28 24
53 49 46
53 49 48
29 29 22
51 46 44
50 49 45
36 26 21
42 40 34
60 49 47
46 48 44
69 70 65
32 33 29
37 43 36
28 18 13
38 31 29
34 33 27
42 53 40
62 55 47
51 47 30
50 53 46
62 60 58
47 33 29
42 42 41
51 63 47
32 44 33
40 41 35
47 61 43
47 37 29
55 46 42
33 38 27
48 40 33
30 30 25
19 19 16
25 24 15
54 51 36
43 42 36
28 32 27
63 57 51
31 28 27
46 46 38
30 23 13
31 37 29
41 42 39
48 38 35
35 42 30
32 37 29
33 43 31
55 35 31
38 27 24
29 36 23
29 31 29
38 44 36
35 42 33
28 34 27
34 36 28
40 30 28
39 42 35
31 45 30
40 47 40
51 42 35
29 39 23
42 47 42
17 25 17
21 23 18
27 38 26
43 37 27
28 38 27
36 34 28
55 47 45
41 41 35
38 31 29
37 31 27
45 39 35
56 52 50
59 44 37
33 37 33
34 34 26
54 42 34
27 33 27
54 55 34
42 36 33
46 46 44
37 43 30
20 30 19
38 50 33
64 57 51
52 35 27
66 43 32
79 49 46
42 43 40
71 63 60
44 42 36
27 29 19
48 51 46
38 38 32
57 46 42
23 36 20
47 50 44
29 37 30
50 53 47
47 52 40
32 37 31
46 32 27
37 41 38
29 21 13
39 46 39
50 38 31
49 53 44
50 42 41
29 29 21
25 28 24
33 32 29
39 34 32
19 29 19
29 29 21
36 50 31
68 44 42
22 23 20
40 41 35
32 26 23
44 42 39
65 52 46
38 42 37
48 41 32
40 35 28
52 51 40
59 57 50
25 25 24
43 34 29
25 23 14
113 34 26
42 36 33
44 43 30
33 33 29
51 40 29
25 28 24
49 45 43
51 37 34
44 38 31
37 44 38
34 34 21
24 24 22
30 37 30
47 43 36
39 27 26
33 36 32
61 53 51
44 36 33
32 33 23
58 43 36
35 34 30
41 31 24
59 62 55
67 56 52
40 46 39
38 32 29
40 37 31
27 27 22
49 42 35
27 23 17
43 34 26
40 27 26
70 58 54
37 33 31
46 49 45
30 38 26
67 65 59
50 37 33
44 48 41
34 39 34
42 38 35
40 44 30
36 34 30
46 50 42
35 34 32
87 45 37
72 117 76
29 22 18
46 49 38
55 60 54
58 52 49
52 44 36
45 43 40
47 44 41
59 62 57
33 38 28
44 38 32
10 9 4
55 51 46
83 39 34
49 43 39
40 37 35
66 42 30
40 43 38
39 37 35
37 33 26
30 27 19
30 35 26
64 62 59
36 40 34
56 47 35
45 31 23
43 48 33
41 36 33
45 43 38
69 54 53
59 52 47
42 42 29
48 39 32
38 31 28
44 40 34
38 38 30
40 28 23
46 39 35
74 68 67
46 46 38
36 38 30
45 36 32
43 47 42
47 26 24
46 50 43
43 30 22
74 63 57
55 50 49
35 28 27
48 50 47
48 50 46
40 59 41
43 23 22
22 21 21
69 66 63
50 54 44
20 16 10
45 27 21
42 34 33
40 30 29
66 48 47
47 38 37
39 36 32
45 38 33
65 60 58
44 50 40
26 32 24
62 33 27
48 46 37
43 42 38
31 34 29
35 15 15
48 45 43
59 51 47
36 46 34
48 43 40
35 42 35
37 34 29
40 42 33
52 35 33
28 24 21
38 42 34
52 45 41
44 29 26
44 42 36
47 34 27
56 36 34
61 40 36
36 38 36
43 37 33
35 32 28
47 49 45
43 37 27
34 33 23
35 33 29
48 45 42
35 27 24
53 52 49
31 34 20
46 29 28
42 33 33
36 36 31
53 65 50
54 45 40
38 31 30
57 44 41
75 62 60
54 40 39
51 46 44
64 59 58
43 36 33
39 33 33
29 29 27
67 57 50
51 40 39
66 57 55
50 44 31
35 29 29
35 33 25
51 28 28
33 29 22
43 43 31
56 39 34
53 55 50
105 102 99
57 44 44
32 28 23
42 32 27
46 46 35
48 34 30
42 36 32
41 39 37
49 43 39
75 34 29
41 32 26
42 24 21
42 33 28
45 51 44
70 60 57
39 28 25
47 51 40
50 42 36
51 39 37
46 38 29
40 43 39
41 35 30
44 33 32
52 47 44
44 47 40
38 48 29
30 41 30
43 31 29
41 37 32
47 31 26
25 20 15
26 25 25
54 40 39
60 50 48
39 28 22
39 19 19
48 46 42
48 47 43
42 38 30
60 37 35
63 56 51
62 44 37
38 36 32
49 42 39
38 29 28
55 45 38
36 32 26
68 65 63
41 31 29
53 43 39
61 57 49
37 36 28
39 32 30
61 48 47
60 55 55
37 28 28
29 22 20
86 39 39
41 31 30
33 17 11
41 32 31
34 31 17
47 35 35
54 34 34
50 27 19
65 50 46
48 33 27
48 29 29
59 52 52
38 33 30
45 34 31
40 22 22
26 8 8
41 38 24
46 35 34
21 20 12
43 38 33
39 36 28
57 41 41
74 71 70
56 52 50
45 29 29
29 21 12
42 36 30
50 44 42
95 47 45
49 50 46
35 43 34
70 59 58
47 36 36
79 41 41
47 33 30
36 41 33
46 54 44
41 45 39
54 39 38
39 37 33
41 32 26
42 32 25
48 41 40
80 59 59
52 33 32
46 44 41
45 35 31
57 50 49
44 45 40
56 39 33
54 46 45
62 48 45
49 39 32
45 40 34
55 40 40
48 45 42
41 28 21
27 26 20
38 32 31
58 58 52
62 54 48
50 45 34
34 25 19
39 31 30
48 38 36
45 32 25
44 38 35
48 40 34
54 52 48
49 36 30
19 22 18
63 40 40
34 18 16
43 35 31
66 49 49
42 27 23
45 32 32
38 20 19
64 66 55
31 28 24
36 31 27
42 30 29
45 24 20
37 24 23
45 18 16
33 18 18
36 25 19
30 29 27
79 42 42
47 32 30
29 16 11
44 39 36
43 42 41
32 11 8
38 31 27
37 19 19
31 29 21
47 30 29
36 27 27
70 42 38
51 43 38
31 25 24
46 41 39
49 39 34
65 57 52
44 36 34
34 33 30
42 31 31
48 35 35
54 44 40
55 35 29
50 36 33
39 28 27
50 41 39
44 40 35
27 24 22
63 55 53
65 60 60
77 69 68
51 38 35
27 24 18
50 43 41
39 25 21
54 35 34
44 33 29
24 22 14
60 49 49
40 36 31
33 27 24
29 25 25
42 35 30
42 36 36
52 53 49
36 27 24
49 39 39
67 51 45
54 50 50
56 46 44
34 31 26
33 36 27
49 38 37
27 25 19
65 58 56
73 66 66
52 50 50
31 28 23
15 11 7
44 37 34
42 34 34
54 43 38
38 28 28
38 26 25
38 36 36
33 22 21
59 32 27
23 15 14
87 54 53
77 36 33
23 13 13
42 36 32
45 31 26
48 45 39
37 27 22
24 13 13
31 27 20
47 35 33
49 42 42
44 27 27
21 3 2
30 7 7
26 8 7
50 12 11
21 4 4
59 16 15
32 11 6
30 9 8
33 9 7
39 11 10
30 7 6
43 11 10
53 14 12
18 6 3
23 7 5
48 13 13
0 0 0
0 0 0
0 0 0
0 0 0
0 0 0
0 0 0
0 0 0
0 0 0
0 0 0
0 0 0
0 0 0
0 0 0
0 0 0
0 0 0
0 0 0
0 0 0
0 0 0
0 0 0
0 0 0
0 0 0
0 0 0
0 0 0
0 0 0
0 0 0
0 0 0
0 0 0
0 0 0
7 3 1
12 23 10
20 29 15
25 45 25
22 38 20
20 31 16
17 33 17
28 52 30
11 14 6
14 15 9
10 8 3
10 20 11
9 9 3
33 60 35
20 25 12
21 31 16
20 38 21
33 46 32
14 20 14
30 36 27
38 39 37
42 27 25
30 31 29
33 27 24
50 40 37
47 46 44
20 21 18
54 34 27
56 57 55
36 36 35
49 46 42
45 37 35
25 27 25
42 31 27
41 39 38
86 133 85
40 37 36
14 27 14
28 28 22
54 51 48
31 36 30
46 45 41
52 50 48
44 44 43
41 43 41
45 37 34
36 24 15
31 26 20
40 44 36
30 32 24
27 38 26
97 61 60
42 40 33
58 61 54
39 39 36
37 38 32
108 111 108
31 30 25
35 37 32
56 35 30
35 34 26
41 30 23
64 67 64
55 54 53
31 29 25
44 51 36
37 44 37
12 16 10
32 41 33
40 43 37
55 45 38
45 41 39
28 27 22
46 36 32
49 35 26
44 45 44
48 51 45
42 48 43
28 41 26
45 50 42
32 36 28
34 39 30
43 50 38
40 39 32
18 23 18
33 31 23
32 36 29
62 52 52
47 41 40
37 37 27
60 39 32
47 45 39
22 32 21
51 39 29
12 22 13
46 53 44
40 46 40
27 29 22
37 42 26
47 40 33
42 35 33
51 48 45
38 45 37
80 45 37
65 42 35
54 59 53
52 62 45
32 34 27
44 36 31
29 24 21
43 34 30
38 35 30
149 148 147
52 58 50
34 40 29
38 34 27
41 64 42
35 28 22
48 49 42
33 33 27
55 55 47
55 44 38
35 42 36
39 28 26
41 30 25
33 38 32
66 61 58
32 31 26
36 23 19
48 36 32
33 20 19
47 38 26
36 41 25
24 19 11
51 29 23
33 39 28
37 39 33
58 49 46
27 38 28
38 38 29
43 48 36
46 36 32
46 33 26
41 48 39
51 51 47
25 24 20
50 40 33
46 49 46
28 24 20
32 31 26
37 34 31
42 47 39
44 39 34
52 52 46
33 16 10
50 46 38
26 29 25
36 35 28
50 43 39
48 49 41
38 43 39
58 54 49
57 49 41
37 47 38
45 38 30
39 34 28
59 57 46
50 44 41
47 42 39
44 45 40
21 20 18
46 43 39
45 44 36
51 51 46
40 36 18
64 66 52
26 34 25
36 38 32
36 38 27
87 51 45
33 27 20
63 46 42
51 40 31
29 33 26
54 47 37
33 44 34
40 41 37
42 37 29
63 55 52
33 41 32
39 38 32
47 40 33
44 42 38
31 35 27
50 43 37
42 39 34
57 55 50
48 38 36
39 43 35
46 39 36
58 58 55
58 39 35
47 44 39
35 30 26
27 14 11
69 50 46
38 38 28
75 69 55
51 58 51
47 34 34
82 80 79
45 34 32
60 58 53
62 53 48
54 48 48
50 45 39
40 46 35
50 54 49
68 62 59
32 29 21
39 38 34
34 25 21
35 35 32
34 25 24
42 38 32
45 46 40
42 41 32
25 34 20
45 29 26
53 38 33
31 34 28
45 36 35
33 32 31
32 29 20
53 63 51
52 53 51
32 24 22
61 35 30
41 38 30
36 35 26
73 77 68
49 49 34
73 66 60
58 40 36
41 33 27
52 53 43
44 40 36
34 41 34
41 44 39
59 49 46
50 48 42
61 53 53
44 45 41
50 45 45
57 52 47
46 28 25
50 42 35
30 29 24
57 48 47
48 48 44
46 38 34
49 27 22
43 31 30
47 24 21
33 27 22
35 38 34
54 50 50
43 46 43
45 25 23
45 29 25
35 31 22
47 52 45
78 78 73
38 26 26
41 39 35
38 26 24
44 38 36
31 31 22
44 45 42
57 45 40
36 35 31
63 56 54
55 56 54
64 57 51
37 36 34
38 34 29
50 40 36
42 42 37
56 36 35
49 49 43
40 43 32
35 30 27
52 37 29
47 45 36
43 41 35
46 34 31
42 23 23
41 28 24
33 16 16
32 29 25
46 48 43
41 30 26
56 53 47
61 58 53
47 50 44
48 40 37
80 62 60
32 25 21
48 39 33
44 40 39
44 40 35
51 34 34
44 51 38
63 62 54
45 37 33
48 47 43
52 43 37
56 43 41
45 45 37
54 55 45
29 25 25
42 31 27
61 60 59
49 42 38
38 16 14
53 36 29
40 39 31
51 39 36
57 53 51
49 41 36
50 43 39
26 22 16
40 44 36
54 39 38
53 47 44
42 28 24
78 44 40
31 23 20
46 42 40
26 19 15
43 41 39
53 35 33
41 40 38
57 43 37
31 24 19
41 33 33
37 37 34
54 42 37
54 31 30
55 34 29
43 42 35
46 46 35
36 33 28
62 62 50
44 33 30
36 37 32
57 42 42
65 32 27
90 86 86
43 46 35
31 22 20
57 40 36
43 40 35
38 24 20
71 53 51
34 34 29
42 36 33
61 51 49
40 24 22
48 41 36
46 41 37
62 45 45
41 33 30
44 43 40
56 38 35
63 39 36
42 43 42
43 32 25
58 31 31
49 52 44
67 57 55
57 54 50
41 41 36
46 42 40
54 45 42
58 66 58
56 37 37
20 20 15
32 34 26
47 41 31
50 48 46
61 56 53
35 29 21
49 37 37
26 24 23
51 57 45
41 35 31
49 33 26
45 24 24
60 48 43
62 34 34
69 60 58
56 46 45
59 54 46
49 33 26
34 27 23
43 44 35
49 44 39
59 48 46
43 41 37
68 55 53
28 18 12
39 34 28
46 31 26
49 45 42
59 47 46
47 34 31
46 24 24
49 34 31
51 54 47
42 37 32
61 56 54
49 29 27
39 11 10
47 30 29
39 34 31
45 42 36
51 49 44
37 28 26
40 24 23
60 42 41
68 46 44
37 24 24
47 34 30
33 40 28
38 23 17
57 48 36
49 35 35
41 38 33
62 54 52
47 39 35
46 28 23
37 35 30
64 57 54
36 40 33
46 49 42
60 38 33
41 36 29
36 19 16
48 36 34
48 20 13
25 18 18
49 30 30
27 24 19
34 32 22
46 37 31
68 55 55
39 16 16
47 38 35
57 45 44
60 39 39
32 19 13
64 62 60
46 25 24
44 33 32
40 31 30
46 42 29
38 25 19
32 17 16
42 38 34
40 33 25
30 19 19
42 38 32
66 46 40
45 41 41
45 29 28
39 25 19
54 45 33
28 15 15
159 59 58
47 39 37
76 56 55
37 15 12
45 31 31
39 31 29
58 41 38
45 46 42
68 50 43
32 37 26
35 36 31
39 30 30
39 28 28
47 35 24
36 35 28
49 27 26
38 32 29
46 32 31
27 25 19
69 61 59
40 38 32
33 18 18
34 33 28
36 28 25
25 32 22
35 16 16
43 29 23
42 40 38
46 34 28
46 31 24
82 80 80
45 28 28
67 48 43
36 33 27
49 34 28
59 56 55
55 40 40
45 29 27
51 40 34
43 34 34
36 15 15
37 26 24
30 12 12
31 27 23
57 41 39
37 36 27
39 33 29
45 35 34
76 40 39
40 30 26
71 50 46
65 35 34
32 24 20
32 22 21
38 25 18
39 34 25
33 21 17
23 14 13
48 37 37
64 35 30
38 32 32
25 19 13
34 26 26
45 43 42
52 32 27
32 16 15
37 30 26
41 37 35
44 32 27
105 28 24
28 26 26
52 46 44
34 21 19
41 32 31
64 48 47
29 33 24
67 47 39
23 6 5
43 10 9
44 9 8
41 11 10
47 13 12
44 12 12
44 11 11
43 12 11
61 12 12
42 11 11
29 8 8
38 10 10
42 11 10
59 16 15
34 10 9
31 9 7
20 6 5
0 0 0
0 0 0
0 0 0
0 0 0
0 0 0
0 0 0
0 0 0
0 0 0
0 0 0
0 0 0
0 0 0
0 0 0
0 0 0
0 0 0
0 0 0
0 0 0
0 0 0
0 0 0
0 0 0
0 0 0
0 0 0
0 0 0
0 0 0
0 0 0
0 0 0
0 0 0
0 0 0
9 14 8
23 50 24
26 51 24
12 21 12
9 15 7
18 29 16
16 23 10
19 37 20
16 29 14
16 32 17
18 34 19
17 32 17
20 38 20
20 40 18
12 23 12
14 30 16
15 31 17
22 42 23
20 25 19
34 35 31
15 29 16
35 30 24
72 49 45
56 61 53
27 27 25
33 27 26
23 27 20
34 32 31
52 59 47
39 32 28
35 51 34
34 33 29
16 17 11
17 24 17
37 40 37
35 40 29
41 39 29
26 29 25
58 52 48
45 40 39
44 42 40
47 43 35
35 35 24
29 25 20
35 38 31
39 47 40
33 27 19
62 57 52
32 29 23
54 38 29
35 38 35
41 40 31
31 48 29
34 38 34
37 35 33
36 36 29
30 39 25
54 47 45
55 46 38
29 11 9
13 18 14
37 39 36
25 28 23
24 21 12
33 33 27
19 26 15
45 48 43
54 39 29
58 43 39
63 38 33
50 50 47
22 36 20
39 30 20
48 51 44
32 38 31
39 36 32
33 41 33
34 33 26
31 33 25
28 24 18
34 29 19
39 46 39
46 47 42
18 30 18
43 28 27
69 28 26
51 48 42
39 40 35
40 43 34
39 40 36
32 36 27
35 39 34
40 37 34
46 32 31
32 40 32
35 31 28
40 38 32
41 42 32
55 48 39
35 29 24
39 48 37
33 33 26
33 22 15
29 39 30
46 49 42
70 39 37
66 63 59
43 43 38
55 52 48
36 47 37
17 16 10
37 36 30
50 42 38
27 23 19
38 41 35
33 35 20
52 42 36
35 30 21
39 32 30
40 29 27
63 64 60
24 28 20
42 27 21
34 32 29
46 47 43
45 27 25
49 42 39
71 54 52
30 28 21
39 32 25
69 50 50
63 60 54
43 45 34
48 40 35
39 37 31
43 42 31
32 35 29
41 37 31
21 29 18
30 29 21
43 48 35
55 53 47
37 33 31
73 68 44
50 53 46
45 48 41
38 45 31
49 48 43
36 41 28
40 45 38
46 47 35
63 58 56
41 43 36
46 35 31
40 42 32
31 30 24
53 44 43
47 32 24
48 51 48
45 46 40
33 25 19
38 42 36
34 34 30
55 51 46
109 105 102
49 46 42
44 38 32
22 10 6
35 34 31
29 33 28
34 32 25
41 48 38
12 14 7
38 29 27
38 46 38
37 36 32
40 40 32
45 34 32
23 24 19
60 53 47
41 39 34
36 33 28
48 47 36
55 54 50
57 49 42
54 43 38
39 41 31
58 59 55
30 36 29
28 39 26
49 32 31
49 34 25
29 22 21
74 72 69
52 59 48
45 49 45
56 47 43
50 46 44
77 45 39
128 240 140
43 39 33
39 36 26
46 35 29
50 42 37
52 53 43
37 32 28
64 65 62
40 52 38
45 44 40
58 46 43
53 49 44
40 42 35
53 51 47
54 50 43
29 32 29
47 44 34
39 43 38
46 47 41
49 45 40
68 43 40
36 23 22
43 34 26
54 55 53
49 41 33
47 54 38
40 54 40
43 37 28
33 34 28
53 52 50
41 40 31
25 14 13
45 38 28
25 23 23
32 21 20
34 33 28
79 80 60
60 53 47
58 46 44
29 36 28
30 32 30
56 62 55
42 48 39
57 42 38
37 31 27
143 146 143
55 40 34
36 26 21
55 57 50
41 44 41
43 42 39
51 49 44
51 43 39
45 43 42
25 26 23
43 47 36
49 42 37
50 38 37
62 63 59
48 44 43
50 51 48
31 37 27
39 43 34
50 44 44
65 63 57
53 49 42
56 34 30
42 27 23
48 49 36
47 38 37
33 28 22
49 53 48
47 46 44
39 41 38
27 38 27
39 39 32
49 41 35
43 35 32
48 41 41
40 31 30
57 43 40
51 41 36
55 48 43
29 25 23
40 41 37
43 45 38
67 38 29
30 32 26
57 49 44
53 50 45
46 37 32
45 40 34
39 41 35
29 36 29
27 25 20
54 42 41
75 70 69
46 42 36
43 34 31
54 50 47
37 52 38
66 59 49
50 45 42
33 29 28
53 41 38
41 33 33
40 44 38
32 24 21
32 26 20
48 43 41
54 28 27
49 38 37
44 38 34
75 56 52
51 54 47
55 42 38
24 24 21
39 38 31
42 48 38
59 48 45
123 60 57
39 29 24
76 50 47
47 45 40
53 37 33
40 38 35
58 40 39
46 35 33
66 64 58
69 64 64
56 54 52
44 43 40
50 43 42
57 61 50
60 63 57
46 45 40
49 42 38
37 40 29
37 28 26
38 30 29
54 45 38
42 24 24
47 36 36
47 32 30
44 39 39
47 41 40
48 45 35
29 18 12
59 46 46
43 40 38
38 29 27
53 43 37
44 28 21
51 44 42
46 51 36
50 49 46
28 20 19
29 27 23
46 32 30
36 29 28
66 61 61
57 40 37
41 31 26
79 89 78
30 24 19
48 36 30
43 41 36
49 36 32
65 65 61
44 30 30
46 33 27
43 39 38
59 56 52
66 59 59
44 38 35
47 33 33
54 49 44
40 41 34
61 52 50
51 48 40
44 43 31
44 32 32
53 41 36
62 53 47
58 38 38
32 31 25
34 28 26
52 49 39
49 24 20
67 38 38
81 76 73
49 44 40
43 40 39
52 50 41
59 51 45
59 49 44
46 38 28
71 69 65
28 29 28
51 39 33
52 47 40
49 51 42
64 57 55
34 21 20
37 34 33
54 37 30
49 31 29
49 39 39
48 37 30
40 34 34
55 45 36
34 27 26
56 35 30
54 48 45
33 16 15
45 30 30
34 34 31
52 49 45
46 45 41
39 43 38
43 38 30
57 59 53
51 42 36
54 51 45
45 39 37
28 22 14
59 48 39
51 35 35
54 48 48
53 47 44
46 33 33
42 34 31
43 29 29
61 55 53
43 35 32
37 38 33
48 41 38
49 43 41
45 41 36
50 38 35
37 30 23
46 33 28
60 58 52
41 38 36
38 31 22
41 28 27
39 36 26
36 25 25
63 39 36
53 43 42
45 30 24
54 37 31
44 35 30
58 34 30
62 46 38
64 36 33
41 40 35
56 46 41
36 35 30
38 32 32
51 49 49
54 39 35
44 32 32
50 38 37
54 51 51
44 29 24
32 28 24
58 47 45
51 55 45
47 41 31
55 49 49
37 24 21
41 25 23
32 28 26
63 49 49
37 32 29
32 25 25
69 58 57
39 34 34
50 22 21
52 43 43
49 28 28
26 21 16
37 31 28
44 37 23
32 25 24
69 66 65
51 43 42
42 30 27
40 29 29
47 34 30
51 50 47
83 80 77
59 32 27
41 35 30
54 39 36
45 38 35
50 31 29
43 24 19
90 73 73
41 37 34
50 51 44
47 36 36
28 8 7
57 51 49
50 29 29
46 35 32
39 16 16
47 41 36
29 26 24
56 32 32
39 25 23
38 22 17
42 28 26
53 49 47
68 34 26
21 20 17
49 38 36
36 24 22
44 22 22
63 59 56
53 48 44
40 32 26
46 40 39
48 42 37
58 54 53
51 41 37
37 30 26
44 34 34
55 46 35
46 48 40
31 31 23
58 41 32
46 22 22
33 17 17
57 34 29
54 36 33
47 31 30
41 31 30
60 34 27
39 31 30
38 44 28
40 30 26
39 32 26
42 21 20
56 66 54
40 23 19
48 47 41
49 42 42
44 41 39
85 40 36
41 37 37
37 9 7
39 37 33
48 38 36
41 33 33
27 8 6
42 9 8
38 8 7
56 14 14
36 10 9
32 10 9
27 7 6
29 7 6
22 6 5
57 14 14
50 13 13
42 12 11
50 13 13
38 8 8
40 11 10
31 7 7
27 7 7
2 0 0
0 0 0
0 0 0
0 0 0
0 0 0
0 0 0
0 0 0
0 0 0
0 0 0
0 0 0
0 0 0
0 0 0
0 0 0
0 0 0
0 0 0
0 0 0
0 0 0
0 0 0
0 0 0
0 0 0
0 0 0
0 0 0
0 0 0
0 0 0
0 0 0
0 0 0
0 0 0
0 0 0
26 51 29
16 28 15
26 51 29
12 22 12
18 36 18
16 23 13
21 38 22
22 36 21
20 37 20
19 35 20
15 24 13
15 25 12
15 32 17
22 20 9
17 27 15
11 19 9
16 26 15
13 25 14
17 30 16
31 16 11
32 31 21
50 48 46
40 34 23
30 24 20
35 36 34
45 46 40
24 26 19
53 35 30
25 31 23
39 44 39
37 39 37
23 23 14
33 37 33
36 25 25
23 23 21
48 50 48
40 43 29
40 36 27
39 44 40
48 45 31
56 58 55
15 23 13
14 28 15
76 76 74
42 49 31
46 49 41
90 87 86
26 29 24
39 33 28
22 24 13
42 47 42
30 49 30
32 26 22
42 31 25
35 26 19
48 31 25
33 29 21
20 26 20
75 28 16
26 27 18
34 40 24
45 49 45
50 32 24
48 50 43
17 24 17
36 36 22
14 20 12
54 39 35
94 47 44
45 46 37
30 31 26
56 50 47
24 26 24
48 42 34
49 45 44
38 42 39
75 39 35
46 47 42
49 51 46
63 55 50
38 36 28
42 45 39
26 29 23
49 43 42
52 63 49
36 48 35
58 46 37
47 41 37
45 37 34
39 35 27
57 46 41
39 32 26
41 40 38
47 42 33
41 42 35
35 35 29
20 17 10
38 40 34
35 36 29
41 44 37
44 43 34
64 65 64
58 54 47
53 53 39
36 31 30
45 49 40
53 58 52
19 33 20
55 49 46
19 18 12
58 46 40
27 30 25
45 37 32
51 54 49
47 50 46
35 38 35
59 52 49
24 36 25
45 42 32
27 37 25
42 67 34
52 51 43
53 66 52
59 60 56
41 47 39
34 32 27
39 41 39
47 43 36
29 30 26
36 36 33
50 50 48
66 48 44
33 38 32
42 27 25
44 49 40
63 50 44
38 23 15
43 36 30
37 49 35
40 38 33
52 42 37
31 43 31
55 46 44
43 39 32
37 38 34
61 41 39
40 45 36
40 31 26
64 42 36
58 58 50
40 44 39
88 57 52
48 46 41
34 32 24
53 47 45
30 32 30
42 45 40
59 64 54
47 43 34
67 48 41
40 42 28
44 35 34
47 55 40
55 50 48
33 34 28
46 55 47
35 46 36
43 37 33
61 39 31
117 57 50
34 29 19
50 47 42
65 71 64
47 54 45
48 45 44
50 42 42
59 60 59
37 26 22
35 37 31
8 16 9
41 42 40
39 54 36
74 70 68
47 43 39
42 18 13
41 40 35
41 31 25
36 31 27
77 71 68
28 32 27
38 31 26
41 41 37
43 41 33
45 46 41
46 52 40
47 41 38
49 45 41
25 25 15
36 32 31
61 59 58
48 37 24
48 48 44
50 46 34
45 41 36
42 38 31
40 40 36
28 36 26
52 43 37
42 39 36
54 45 41
52 36 35
53 54 47
58 55 53
33 24 20
35 39 32
42 43 37
54 52 50
55 42 35
39 47 38
42 40 35
37 46 38
46 51 38
56 52 45
40 43 33
27 33 26
43 30 25
60 56 55
82 83 81
55 55 43
63 45 35
35 30 21
26 24 16
35 27 25
51 43 42
50 45 38
45 23 20
51 48 43
38 39 32
38 44 38
39 30 23
53 44 38
51 44 42
72 69 66
58 45 43
41 46 41
38 35 29
57 45 42
43 38 30
60 47 43
44 40 35
48 38 32
33 45 31
31 34 23
34 30 21
34 34 26
59 57 49
31 34 30
41 42 37
23 8 7
37 32 32
43 41 33
53 40 36
57 53 43
44 30 26
33 29 27
40 41 32
51 45 43
42 44 34
38 33 28
36 39 27
65 45 44
61 49 36
37 35 32
77 78 72
46 36 34
77 75 74
43 39 34
42 40 39
52 40 39
45 37 31
56 35 34
37 26 20
36 37 28
40 34 31
46 43 37
35 36 29
49 45 42
22 22 17
33 35 29
58 41 34
49 44 40
52 46 39
52 49 47
40 37 34
59 52 43
51 48 46
53 34 31
50 48 34
37 31 30
37 23 18
45 38 30
32 30 27
48 48 44
63 62 57
65 55 55
64 51 49
42 31 27
41 28 24
44 34 29
48 41 34
42 34 29
34 30 23
73 71 69
52 50 46
35 25 17
51 31 28
69 68 62
44 37 34
27 31 25
45 44 38
55 29 28
60 47 45
52 42 41
58 46 40
36 35 31
43 44 34
47 33 32
45 45 39
63 58 57
44 39 34
67 50 45
50 41 38
61 60 54
47 31 27
62 60 55
50 39 35
43 43 36
51 47 45
37 34 28
43 48 42
62 51 42
48 46 45
52 47 36
59 37 34
46 43 41
50 48 46
48 26 22
48 46 39
50 35 31
42 40 35
61 56 46
40 28 27
51 34 32
64 45 38
63 56 52
57 65 47
90 84 82
73 63 61
47 37 32
27 24 24
44 32 28
49 45 42
44 38 34
37 30 27
50 37 34
45 33 29
49 40 35
51 41 35
46 37 32
44 33 29
35 23 19
58 49 41
53 48 48
62 47 44
59 48 43
48 34 33
48 51 42
39 28 28
56 52 52
53 45 44
48 46 45
41 41 37
57 58 54
43 27 26
44 38 36
62 54 50
44 30 29
50 39 38
49 48 44
52 37 36
40 35 27
39 25 22
50 50 44
38 32 25
60 40 37
40 34 29
27 10 8
35 26 19
50 34 30
50 39 27
33 28 22
55 49 43
80 80 79
52 37 28
44 32 31
38 33 29
55 56 52
58 53 52
45 35 29
95 92 90
44 40 34
58 55 53
48 43 37
43 40 37
51 39 34
50 31 31
59 55 48
65 40 34
47 34 32
31 31 25
28 29 20
59 46 43
41 36 34
53 44 38
48 39 37
44 30 30
78 77 74
40 36 31
84 78 76
47 27 23
40 35 29
34 29 22
52 26 25
48 40 38
53 28 27
55 36 31
41 37 27
51 37 37
75 70 69
64 49 49
64 57 57
53 38 38
50 47 44
48 26 26
51 32 31
36 30 27
38 16 12
66 37 34
39 45 36
51 20 19
53 44 40
45 28 26
35 22 22
55 42 40
45 28 22
55 36 36
47 39 39
63 35 32
42 31 28
57 26 20
44 37 29
60 29 29
40 32 32
37 24 21
68 67 64
38 26 26
83 47 43
65 57 54
29 20 12
61 57 55
48 32 28
38 26 25
50 31 29
42 29 23
53 21 19
48 43 43
47 29 27
47 33 32
51 47 43
56 58 50
51 26 22
41 27 27
43 36 35
40 38 32
90 32 31
31 11 10
40 24 24
41 25 22
47 43 39
49 39 39
49 38 33
44 50 35
42 31 29
47 38 35
46 29 25
34 28 25
51 44 41
38 22 17
42 32 30
39 35 34
37 25 22
124 50 44
45 41 37
53 50 48
49 45 43
51 38 34
31 15 15
36 22 21
44 32 31
42 22 21
42 29 29
29 19 19
50 36 35
48 49 41
52 41 31
45 37 34
58 54 50
42 34 33
34 34 30
33 34 31
64 51 47
54 45 41
38 28 27
43 17 17
40 18 18
28 26 16
52 44 39
52 43 41
46 20 18
30 26 24
48 28 27
36 37 32
66 63 60
36 31 23
44 31 27
39 30 27
52 32 30
41 36 30
50 24 23
35 23 23
35 34 29
56 57 53
34 25 25
62 58 58
33 23 23
34 18 16
48 48 44
32 29 25
54 32 31
39 29 24
34 33 26
35 28 26
42 32 25
44 8 7
27 8 7
106 11 11
51 16 13
23 8 5
31 6 6
43 14 9
31 9 7
71 12 9
41 8 7
48 11 11
26 9 7
59 16 15
27 7 6
39 9 9
42 12 11
56 15 15
36 7 6
47 12 12
46 13 12
0 0 0
0 0 0
0 0 0
0 0 0
0 0 0
0 0 0
0 0 0
0 0 0
0 0 0
0 0 0
0 0 0
0 0 0
0 0 0
0 0 0
0 0 0
0 0 0
0 0 0
0 0 0
0 0 0
0 0 0
0 0 0
0 0 0
0 0 0
0 0 0
0 0 0
0 0 0
0 0 0
9 15 9
17 32 16
17 23 12
13 22 12
23 43 24
31 52 29
12 18 10
10 15 8
16 33 17
26 41 23
39 75 42
23 36 19
13 22 12
15 28 15
11 14 7
15 22 12
8 16 8
21 40 22
15 26 14
13 17 9
34 35 29
45 35 33
32 33 31
42 32 26
17 18 14
45 42 37
39 39 35
42 43 39
32 43 32
34 37 33
28 30 25
27 29 24
36 32 27
35 42 35
39 44 37
55 40 34
18 22 16
41 33 29
24 20 12
52 45 39
36 39 36
55 55 51
49 49 48
31 35 32
33 34 24
46 39 34
58 57 56
34 24 23
42 38 34
41 42 36
33 25 24
47 27 19
49 51 41
50 31 26
37 40 34
52 78 52
64 32 28
35 35 23
33 35 28
45 28 23
39 35 35
37 38 32
33 33 23
37 43 37
38 36 31
57 57 51
44 46 39
24 26 19
46 45 40
41 34 26
39 39 32
34 40 33
41 39 39
26 31 18
34 35 28
53 33 27
126 43 37
53 56 50
32 39 33
33 34 22
85 88 84
49 48 45
37 32 27
39 48 40
41 36 32
47 51 42
37 38 34
27 26 20
47 45 37
20 28 19
35 35 28
35 37 31
40 40 34
27 20 16
42 32 30
20 24 15
41 46 41
52 50 47
30 36 30
34 27 25
35 41 34
26 23 14
46 42 37
33 31 26
32 43 33
33 33 30
50 44 40
32 39 30
30 31 27
22 27 19
29 41 29
37 39 27
47 32 26
29 33 29
40 27 20
38 34 28
29 30 18
36 38 36
57 44 42
49 46 40
35 30 25
22 23 19
41 33 24
67 39 34
66 52 49
39 40 35
25 32 25
24 31 21
50 49 43
43 48 42
18 23 17
33 33 28
32 29 25
43 45 38
42 29 24
42 35 31
25 22 21
34 31 26
44 35 28
35 32 28
38 38 24
67 38 31
46 49 45
43 34 26
41 41 32
34 27 26
42 32 25
44 39 31
49 53 43
32 32 22
43 47 40
35 32 27
44 44 35
30 33 21
49 46 34
41 33 30
29 25 18
64 28 24
46 50 44
59 57 51
56 43 35
40 33 27
34 25 20
41 46 37
51 44 38
64 95 59
38 33 32
36 38 31
54 53 48
43 33 29
45 43 28
36 29 19
39 43 35
62 50 47
42 45 38
45 42 30
50 37 32
33 37 27
49 44 40
32 34 30
32 39 31
55 54 50
43 47 36
48 40 33
35 36 30
39 39 30
29 33 24
51 40 38
55 53 51
42 45 41
58 60 51
36 37 33
54 51 47
37 36 34
39 37 31
36 41 36
43 40 33
37 36 30
52 45 41
75 77 75
46 45 41
31 24 22
44 42 38
45 41 33
39 29 23
36 47 36
40 36 34
30 34 30
34 27 21
56 53 47
36 20 15
46 42 37
35 37 32
54 43 42
54 31 31
44 47 37
39 39 36
28 31 27
60 41 36
91 89 88
44 37 31
29 38 23
39 40 32
33 32 30
59 54 49
71 66 64
42 39 35
46 43 40
48 49 44
41 30 26
27 30 27
46 25 23
51 54 48
43 32 26
35 39 31
84 39 33
37 44 34
58 45 40
60 52 49
65 53 51
24 29 24
40 42 33
55 37 33
34 34 30
44 45 37
56 54 53
53 53 49
34 29 25
36 43 32
42 38 33
32 41 31
43 39 32
43 50 38
47 30 29
58 41 37
39 29 22
49 41 40
42 41 40
57 55 45
45 42 32
49 30 30
62 57 53
65 63 58
51 38 33
22 25 19
39 45 37
34 36 29
51 42 39
74 52 47
43 47 38
50 46 42
81 76 74
63 55 54
50 48 41
60 49 43
57 54 51
52 49 41
38 41 29
36 35 31
49 43 41
45 36 28
57 56 51
42 30 29
41 34 28
50 47 41
24 22 13
64 61 59
52 47 46
38 44 38
44 29 27
51 50 40
42 44 35
61 46 43
56 48 46
79 53 48
23 33 22
38 41 36
55 52 33
38 30 29
42 21 20
46 49 41
66 58 57
65 53 50
59 43 35
40 35 31
41 42 34
71 60 58
60 61 55
39 35 30
89 41 37
32 25 22
35 25 24
37 31 26
34 32 23
57 43 37
35 37 33
48 39 35
51 48 46
50 47 36
41 39 28
50 64 44
39 34 29
52 36 29
38 34 32
42 40 38
56 47 43
47 45 41
51 37 35
52 40 31
56 49 48
87 85 80
49 29 26
47 41 37
29 35 27
45 41 38
57 42 40
33 31 26
47 43 35
60 39 35
58 52 46
37 62 39
45 38 37
32 35 32
57 41 39
61 53 53
36 45 32
58 51 44
82 54 47
57 56 45
40 33 27
31 26 19
30 26 22
35 18 12
42 37 25
47 34 26
56 54 47
29 23 19
52 51 48
49 48 43
41 25 24
51 38 36
49 36 30
44 36 34
42 52 39
57 48 44
77 72 68
63 53 52
46 31 28
35 36 28
45 37 30
66 48 47
45 33 32
46 32 29
43 28 28
42 41 39
66 57 55
44 27 24
75 44 38
101 98 98
60 41 39
49 47 41
45 40 35
68 35 28
36 35 25
44 34 32
36 27 17
47 42 35
32 25 21
54 41 40
50 43 43
32 21 18
50 67 49
59 45 43
36 25 16
41 35 35
46 41 39
50 46 46
45 35 31
42 43 36
17 24 13
36 34 28
45 49 36
46 35 30
58 34 33
43 29 26
24 24 19
52 42 40
33 20 20
49 40 36
56 43 35
49 46 39
67 42 38
26 27 21
35 34 31
56 34 29
72 69 69
41 37 32
26 34 25
43 40 35
44 32 31
80 59 56
57 38 36
52 48 41
36 40 32
60 70 55
40 35 31
67 57 54
48 39 38
64 46 39
39 38 29
47 39 29
50 37 37
61 53 50
55 46 44
52 23 17
56 46 46
51 24 24
36 21 17
39 41 34
48 50 46
41 32 32
42 36 30
48 31 28
54 35 35
31 39 25
54 40 39
23 19 19
34 27 23
47 37 25
37 34 31
60 38 34
42 31 30
89 80 80
40 27 26
48 31 30
54 38 37
37 28 28
45 30 30
46 45 35
42 20 20
43 20 20
52 41 41
49 38 32
51 47 43
49 46 45
53 46 42
54 32 28
39 31 28
68 55 47
44 20 18
78 61 61
27 18 11
39 22 21
43 36 36
44 40 35
44 24 20
42 24 23
42 29 26
33 8 7
38 36 34
43 18 17
56 41 41
39 21 19
50 50 41
71 51 49
50 50 46
57 41 39
44 24 21
33 21 14
57 56 56
48 30 29
40 35 29
59 47 45
53 46 37
44 40 35
30 27 11
67 72 60
43 39 32
38 41 35
31 32 31
72 39 34
119 111 110
52 33 32
46 31 29
41 31 27
35 30 25
52 48 45
39 40 32
42 30 30
35 28 25
45 41 36
36 28 28
51 44 43
50 35 31
19 5 4
55 33 33
58 55 51
41 24 23
57 55 54
46 36 32
57 56 50
36 37 26
34 29 24
48 37 28
33 30 20
45 41 31
49 43 39
43 41 38
58 44 43
57 46 46
41 40 32
42 36 35
41 25 25
52 40 37
51 18 15
24 18 11
37 35 29
47 32 29
62 48 48
41 17 17
46 31 31
39 40 33
28 30 25
51 31 30
35 20 20
53 42 42
68 67 65
59 56 56
44 24 23
38 36 26
30 29 25
42 35 33
23 15 15
42 12 10
29 9 8
35 8 7
38 11 10
34 8 7
38 8 7
57 15 14
28 7 7
31 9 8
58 15 15
38 10 10
54 15 14
48 13 12
77 20 20
41 10 10
28 7 7
35 10 9
41 9 8
14 5 2
2 1 0
0 0 0
0 0 0
0 0 0
0 0 0
0 0 0
0 0 0
0 0 0
0 0 0
0 0 0
0 0 0
0 0 0
0 0 0
0 0 0
0 0 0
0 0 0
0 0 0
0 0 0
0 0 0
0 0 0
0 0 0
0 0 0
0 0 0
0 0 0
0 0 0
0 0 0
0 0 0
0 0 0
8 17 8
13 17 7
16 17 9
9 13 6
12 18 9
16 25 14
12 20 11
15 19 10
18 33 18
16 34 16
12 21 11
20 34 19
10 11 6
26 51 29
13 12 7
21 40 22
18 24 13
11 13 7
16 26 14
14 25 13
14 22 12
36 30 26
39 32 25
21 25 19
34 35 29
33 30 24
45 40 35
24 38 24
45 38 33
51 45 37
30 27 22
43 48 35
34 39 33
20 17 15
49 55 48
37 40 28
43 39 37
20 23 19
31 23 19
40 43 38
49 36 31
34 59 36
37 32 30
36 54 37
43 49 40
38 36 32
53 63 53
46 35 32
30 25 20
38 39 35
41 49 42
53 66 54
43 49 39
56 59 54
37 32 29
42 40 34
73 25 23
27 47 25
32 44 29
31 33 24
31 37 27
43 35 27
26 28 25
48 33 28
53 34 32
41 41 34
26 24 18
46 45 38
40 46 38
30 33 27
36 35 30
36 44 37
35 31 21
34 36 28
40 36 30
46 36 33
39 48 38
53 46 40
22 31 19
57 54 46
33 41 33
30 35 30
18 26 19
37 47 35
45 41 33
34 40 31
40 41 39
30 30 27
64 55 54
29 38 30
29 29 19
28 40 28
33 42 27
45 49 44
45 28 25
28 32 28
62 52 45
41 47 34
42 47 33
60 55 54
29 31 28
32 36 25
46 31 30
41 36 30
38 38 32
29 38 22
69 72 66
38 52 32
74 62 56
43 46 43
34 35 26
45 32 29
44 45 39
46 48 45
32 24 17
24 34 25
31 43 31
49 50 48
46 41 32
39 35 29
45 44 35
28 36 29
52 42 34
36 37 29
44 38 31
48 45 37
57 46 43
22 39 23
50 48 46
45 39 33
41 49 38
48 35 31
48 60 48
22 25 19
58 57 55
23 27 22
45 55 46
66 89 67
54 37 36
46 59 47
24 24 14
45 41 35
42 43 42
43 38 33
29 45 28
60 58 54
32 36 29
84 86 83
47 43 33
48 49 45
53 51 44
46 31 27
29 22 21
51 70 49
62 51 42
48 44 36
40 47 36
43 37 31
42 60 30
52 45 44
66 66 62
51 40 36
30 32 25
31 30 23
31 43 28
113 114 111
34 35 32
41 39 36
57 64 58
50 34 28
48 32 27
42 45 39
40 28 24
52 54 50
46 61 40
44 29 27
39 40 36
26 29 22
61 63 52
44 41 35
42 48 37
43 50 41
77 68 63
36 28 21
41 37 37
42 43 40
38 34 26
34 27 22
51 46 45
49 36 33
66 63 62
38 50 38
42 39 36
37 35 29
46 51 44
73 61 59
46 45 39
51 42 40
49 44 42
36 32 23
42 38 32
16 7 4
33 20 17
44 48 43
52 41 32
42 35 32
51 29 24
41 42 38
59 39 38
55 56 52
30 31 24
38 40 37
44 41 37
85 78 74
46 33 29
66 114 70
47 38 37
43 41 39
47 33 28
51 36 36
49 32 28
31 38 30
48 49 44
49 52 45
41 42 35
56 56 53
36 34 28
35 35 30
53 32 29
36 34 27
64 59 56
45 41 39
41 33 24
33 39 28
61 63 58
44 38 35
49 45 40
19 25 19
51 53 45
41 40 34
39 38 37
41 44 37
53 68 48
57 51 48
24 30 25
35 34 31
50 34 33
35 35 32
49 47 46
51 42 42
46 45 42
43 44 39
53 51 50
38 41 34
40 44 37
58 54 47
42 35 26
56 50 45
35 35 30
80 60 55
40 29 27
47 38 37
48 33 31
46 40 36
52 43 43
47 33 30
43 45 41
44 42 36
43 46 42
45 38 34
41 42 31
52 49 44
42 31 28
64 54 52
45 36 32
37 28 27
95 72 72
49 41 40
33 26 19
40 37 34
53 33 28
47 41 33
45 38 31
52 33 29
48 35 30
48 42 40
50 39 36
64 72 51
46 40 35
28 34 18
42 42 36
44 29 27
62 54 49
50 38 34
39 38 31
50 29 24
46 36 32
49 40 36
44 33 27
35 30 19
52 50 40
53 56 50
49 30 27
55 49 40
50 47 43
53 47 35
55 64 52
84 80 79
42 39 37
47 43 42
53 44 42
73 57 54
70 59 58
50 54 48
38 31 28
41 50 36
36 31 28
40 41 30
48 43 37
43 37 31
50 37 34
54 53 48
38 33 28
43 38 36
55 47 44
53 53 49
29 28 19
52 49 41
40 34 28
46 37 32
31 28 24
57 46 46
37 33 29
45 44 42
54 48 38
36 33 27
43 42 33
42 36 33
58 54 49
43 39 24
64 58 58
54 38 33
54 47 45
39 28 24
40 43 35
85 77 76
23 26 17
46 45 41
44 50 40
62 52 50
44 53 42
48 41 35
47 48 42
55 40 32
53 41 39
51 53 50
55 40 38
33 27 26
46 40 37
47 34 32
62 45 43
62 53 52
77 66 65
71 82 67
32 28 24
34 25 24
33 30 28
38 31 26
40 40 33
43 37 29
57 46 39
100 99 89
84 78 78
45 40 35
42 40 36
57 54 45
53 40 35
46 27 24
109 98 93
71 67 65
60 52 50
48 37 35
43 28 23
39 35 32
45 31 30
49 43 40
106 107 105
45 38 28
41 36 36
43 38 28
69 67 63
66 58 49
52 41 35
45 36 33
49 51 37
45 32 29
47 59 42
42 25 21
51 37 27
40 37 33
61 56 56
55 42 39
45 38 34
55 39 37
48 37 33
42 38 36
55 49 43
58 49 34
51 48 43
52 45 45
51 51 50
55 41 38
37 37 35
41 36 34
49 37 36
62 47 44
43 37 33
48 41 40
40 32 30
55 46 40
51 47 38
32 55 32
55 48 45
46 35 28
44 35 35
39 31 27
50 27 24
36 34 26
58 32 31
37 32 32
47 42 42
67 60 60
53 29 29
45 52 44
41 32 32
48 40 38
32 23 20
42 40 37
42 40 36
49 45 40
40 32 32
37 12 10
63 43 40
54 47 47
32 24 23
36 34 28
43 29 24
49 44 29
57 42 36
46 43 41
48 37 30
42 35 30
49 24 21
76 35 31
51 40 40
53 32 30
58 32 32
57 45 44
50 44 41
41 39 36
70 32 28
54 48 45
51 38 38
45 48 42
44 23 21
58 47 44
41 38 32
39 26 24
43 33 30
40 31 30
41 30 27
50 25 25
51 41 34
54 45 42
51 32 31
55 48 44
46 33 30
50 27 27
47 44 38
39 27 27
43 29 29
54 34 29
29 30 23
74 42 38
48 26 20
71 73 67
65 30 28
55 47 44
38 19 19
28 20 20
60 40 40
42 43 38
56 37 33
53 39 36
37 31 28
53 47 45
56 46 41
63 60 59
42 16 15
51 32 27
50 48 41
46 25 22
48 33 32
38 32 30
86 65 65
32 9 9
35 27 27
51 40 30
81 65 64
54 54 50
50 62 43
42 28 25
44 39 37
35 27 25
50 42 37
25 17 17
42 31 28
55 43 42
46 12 12
42 33 29
38 17 16
48 29 28
16 8 4
30 24 24
33 30 23
42 36 36
37 37 30
59 33 33
42 37 35
29 19 18
52 37 37
43 28 21
41 28 25
40 37 29
45 41 41
60 53 50
56 50 48
38 23 21
33 22 22
70 53 51
41 16 15
16 15 8
46 23 23
40 20 13
27 17 17
24 19 18
38 24 24
42 36 32
29 23 22
64 41 39
38 33 30
39 10 9
37 10 9
110 30 30
31 7 7
50 10 9
27 6 6
57 16 15
36 11 9
43 11 10
19 8 4
36 11 9
27 6 5
45 13 11
31 5 5
52 14 13
34 9 8
32 8 8
28 7 7
28 6 6
28 8 7
30 5 5
34 4 4
0 0 0
0 0 0
0 0 0
0 0 0
0 0 0
0 0 0
0 0 0
0 0 0
0 0 0
0 0 0
0 0 0
0 0 0
0 0 0
0 0 0
0 0 0
0 0 0
0 0 0
0 0 0
0 0 0
0 0 0
0 0 0
0 0 0
0 0 0
0 0 0
0 0 0
0 0 0
0 0 0
9 4 2
12 24 12
12 25 14
18 33 18
16 25 14
23 36 21
28 53 30
21 32 18
20 40 22
28 60 29
15 20 7
16 11 6
12 23 9
22 36 20
20 44 22
20 33 19
16 32 17
17 20 11
21 25 14
11 22 10
13 25 12
11 25 12
26 48 28
50 31 30
48 53 47
27 24 21
38 43 31
47 34 24
35 20 17
78 79 76
31 30 23
30 33 25
53 54 51
39 32 26
38 40 32
93 40 37
44 40 35
8 14 7
29 35 20
26 24 21
23 19 11
53 69 50
35 41 35
49 43 39
145 255 160
21 27 20
54 31 24
57 43 40
103 103 101
34 39 28
42 37 35
31 15 10
26 27 25
26 38 27
49 49 43
40 42 38
45 39 35
45 23 21
46 42 35
46 50 45
35 25 19
58 62 53
40 36 24
37 42 31
31 34 27
42 35 35
55 43 39
32 35 30
46 31 25
32 31 23
46 45 42
51 50 47
25 31 25
64 68 63
40 38 33
50 51 49
55 58 46
41 30 22
52 42 36
33 39 30
53 54 48
39 38 27
28 32 25
40 41 35
46 32 29
50 44 40
56 46 43
34 32 27
74 69 68
25 31 21
41 46 34
54 46 40
41 37 33
13 16 13
31 38 22
43 35 34
37 43 36
72 60 55
40 43 39
55 52 45
41 48 40
39 46 38
52 38 34
30 35 23
48 26 23
47 47 38
31 33 31
64 60 54
43 47 42
30 32 19
40 36 29
28 22 16
49 57 50
36 37 22
76 77 75
54 62 52
20 25 18
53 40 38
36 35 28
44 35 32
52 39 34
42 33 29
58 57 53
59 52 46
38 38 29
31 29 21
60 50 47
67 68 64
39 30 22
57 61 51
25 32 24
34 34 28
52 51 44
36 35 24
40 45 35
55 49 44
43 46 40
32 33 23
39 34 29
49 35 30
46 43 36
33 38 26
46 46 42
44 38 33
38 33 32
28 35 24
36 39 31
45 44 35
50 44 35
37 40 32
52 51 50
37 32 27
60 61 55
16 16 15
66 68 61
50 59 48
45 42 35
44 36 32
58 50 44
44 44 42
38 43 34
61 54 52
55 45 37
39 41 38
21 25 21
30 41 30
34 30 27
37 27 24
47 57 48
44 35 25
55 58 52
44 44 34
63 64 56
40 44 33
56 55 44
47 45 40
40 37 32
35 37 33
47 49 32
54 45 40
52 45 39
55 56 50
45 44 41
69 64 60
45 53 42
68 43 39
46 49 41
61 72 61
37 34 21
50 39 34
41 43 35
45 37 29
31 34 28
45 43 34
46 51 44
45 44 41
41 45 40
61 55 53
40 36 31
48 44 37
26 33 26
52 39 36
39 25 24
48 42 28
76 76 75
57 57 50
52 46 38
41 48 39
42 42 39
28 35 26
38 40 33
51 51 45
51 44 42
38 38 35
42 37 31
34 40 25
49 41 38
38 36 29
45 33 31
34 31 26
52 38 31
48 48 43
58 54 49
38 36 33
35 42 36
39 40 32
40 42 36
71 39 36
79 52 50
51 50 41
42 44 36
30 38 30
55 41 39
50 36 34
57 36 29
35 36 29
42 44 35
34 38 31
31 21 21
48 53 43
32 34 31
53 53 50
44 57 43
55 51 45
56 49 48
54 68 51
54 50 44
40 34 30
88 36 36
47 42 39
46 44 40
42 36 31
38 36 26
29 20 19
64 45 40
48 45 39
37 32 23
52 32 30
62 46 38
43 32 32
40 42 36
110 52 51
34 32 25
40 29 28
35 36 33
47 45 36
118 119 116
42 38 35
57 44 38
57 39 36
41 45 39
48 40 38
67 48 45
55 45 37
66 46 45
39 42 37
31 30 23
52 44 42
58 53 48
65 63 60
60 56 54
52 38 36
50 48 46
49 45 44
57 40 39
81 66 66
49 38 36
40 42 38
36 38 35
57 48 48
33 21 17
54 53 47
58 52 49
35 20 13
72 44 37
38 27 26
54 43 38
33 42 33
61 65 60
63 65 59
35 29 26
22 18 15
62 52 42
30 29 26
63 52 50
55 39 39
45 39 33
50 29 28
49 47 42
58 32 32
40 35 33
42 37 34
43 36 33
36 41 34
45 41 33
50 44 35
39 35 31
45 44 39
51 45 38
53 60 49
41 28 28
44 39 36
77 40 37
59 29 23
55 37 37
34 28 27
39 36 33
41 44 32
34 34 30
44 45 42
51 36 33
43 26 22
59 50 50
39 31 29
54 55 37
63 60 59
37 32 27
36 29 18
60 56 51
47 38 35
39 31 29
43 33 33
41 42 38
64 63 54
57 43 40
68 51 45
44 41 37
36 38 30
55 38 31
55 40 37
52 41 39
48 49 44
54 53 50
41 32 27
60 52 51
49 24 23
64 37 36
45 44 41
49 38 37
50 47 44
49 26 24
70 70 58
46 36 36
54 52 28
56 41 31
70 44 41
40 36 31
25 23 19
35 30 24
50 53 38
64 45 36
69 58 54
38 42 30
46 45 39
42 38 32
55 31 30
42 31 26
44 49 41
50 43 42
38 37 36
43 35 31
58 47 45
50 41 37
38 25 25
32 26 26
38 36 31
47 40 34
45 44 41
44 41 38
50 42 39
60 41 34
35 31 25
48 37 35
33 39 33
82 30 30
37 31 26
53 39 35
64 52 50
44 48 39
37 37 28
45 35 28
41 40 32
58 55 48
52 39 39
59 54 50
39 31 29
63 31 28
67 40 37
43 41 39
63 46 45
63 45 42
51 47 44
83 81 79
56 52 50
33 27 23
48 43 41
52 55 53
37 33 28
32 26 22
43 32 28
42 38 33
62 64 53
78 72 72
45 34 27
58 50 49
47 49 36
50 40 37
50 46 41
47 38 35
48 40 38
51 32 29
80 52 52
45 30 26
36 15 14
43 32 31
65 71 62
40 28 25
57 48 45
55 28 27
54 31 30
52 51 46
43 30 26
49 41 38
37 30 30
49 27 22
35 30 27
58 45 39
43 29 28
45 41 30
45 24 21
35 26 26
35 29 18
45 32 31
61 44 34
59 31 30
64 50 46
55 36 36
44 37 32
42 29 23
67 61 53
50 46 44
38 17 17
54 42 42
44 21 15
36 40 30
44 33 33
38 31 20
46 21 21
54 39 37
51 45 44
34 21 19
44 25 24
46 37 33
41 44 26
36 29 28
28 15 14
29 18 16
59 46 43
44 23 22
29 23 20
39 21 21
45 24 23
40 26 26
51 57 40
53 33 33
31 10 9
41 40 32
55 46 44
48 35 35
60 55 52
23 22 13
37 27 26
48 38 38
41 31 27
52 41 39
44 37 32
53 47 45
52 40 39
52 53 49
68 55 53
40 36 28
51 26 25
55 47 44
67 45 43
49 46 39
46 33 32
47 30 27
47 33 30
37 36 30
38 35 30
42 31 26
50 27 22
50 47 41
38 30 30
36 34 26
34 19 18
32 26 26
31 20 20
34 27 25
57 36 33
53 37 37
39 23 23
48 39 39
39 32 28
48 26 25
46 27 23
45 29 29
26 17 17
36 12 12
32 28 20
51 40 40
33 24 24
44 33 30
47 49 40
37 18 12
40 29 25
38 15 12
50 37 36
40 36 29
25 26 18
44 29 23
53 45 44
30 21 17
35 29 23
39 26 18
53 26 26
62 64 58
48 35 33
40 34 34
38 31 29
41 37 33
38 9 8
30 7 7
34 7 6
49 8 8
30 8 7
28 8 7
45 12 11
30 9 7
30 8 7
41 11 11
34 8 7
48 14 11
32 7 6
67 18 18
33 8 8
49 13 13
57 9 8
36 10 10
42 11 11
40 12 10
20 6 5
19 5 5
0 0 0
0 0 0
0 0 0
0 0 0
0 0 0
0 0 0
0 0 0
0 0 0
0 0 0
0 0 0
0 0 0
0 0 0
0 0 0
0 0 0
0 0 0
0 0 0
0 0 0
0 0 0
0 0 0
0 0 0
0 0 0
0 0 0
0 0 0
0 0 0
0 0 0
0 0 0
0 0 0
33 65 37
22 34 19
17 30 17
16 27 14
14 23 12
11 19 6
15 26 14
18 32 17
16 26 14
11 15 8
21 39 22
13 21 10
18 27 15
28 54 31
24 42 23
18 32 16
8 19 10
18 30 17
15 27 13
17 22 12
18 31 18
20 34 19
14 29 15
23 21 16
40 42 40
43 37 36
31 48 33
22 21 18
28 27 19
34 34 31
38 46 38
28 28 24
66 36 30
37 38 35
27 28 24
41 31 18
42 45 38
29 33 28
18 26 19
33 39 33
38 38 35
23 23 22
26 20 17
33 26 15
39 42 38
22 27 20
43 50 43
51 54 47
38 53 37
32 32 29
37 40 35
59 105 64
33 29 20
43 35 27
36 28 25
34 39 33
43 42 36
21 43 24
55 52 47
38 35 33
39 39 32
14 20 14
18 8 5
37 52 34
48 44 28
57 49 45
51 47 40
31 34 26
43 27 20
64 40 37
57 54 45
39 38 31
33 46 30
49 53 47
50 37 33
31 27 23
43 37 32
56 41 35
81 80 75
51 42 39
38 37 31
36 51 36
48 44 41
48 47 44
45 42 39
29 35 26
57 58 53
48 56 46
47 53 45
20 27 20
32 34 25
22 40 24
35 40 34
55 60 45
47 33 25
31 38 31
72 118 70
50 51 44
31 42 32
52 55 47
33 31 28
50 52 50
32 35 30
25 27 24
49 43 35
33 40 31
35 43 35
39 40 32
49 47 36
50 37 29
13 22 12
35 41 29
49 49 42
47 51 38
57 60 53
41 47 36
38 29 28
24 38 24
66 56 55
51 53 51
29 36 24
45 48 38
33 35 32
46 30 21
43 43 39
33 40 32
44 36 29
43 38 31
58 56 55
58 48 41
36 46 34
29 39 28
50 49 43
42 44 38
43 46 39
63 57 50
40 43 32
37 39 35
36 32 27
42 50 42
27 31 18
44 37 25
41 47 37
35 41 30
38 28 25
24 26 21
41 46 38
32 41 32
45 58 42
86 85 80
35 43 28
32 30 24
32 32 26
31 34 27
54 55 49
41 41 33
45 35 30
40 46 35
34 35 30
34 36 28
42 30 23
58 55 48
30 38 28
51 44 36
48 40 36
37 39 34
42 43 41
70 60 45
42 45 38
57 67 55
46 31 27
58 47 44
40 35 32
31 31 27
54 41 35
27 29 21
36 24 20
28 29 23
42 44 35
25 32 24
45 46 43
54 54 51
61 60 57
46 41 36
32 31 22
62 63 58
141 143 141
50 31 29
55 37 31
54 52 45
25 26 16
44 36 25
52 44 39
39 34 27
53 49 44
41 47 37
47 50 45
46 28 22
56 57 56
29 34 29
35 31 27
56 59 53
42 38 32
52 46 41
33 37 25
49 34 24
42 16 15
60 48 45
29 28 21
44 33 30
41 37 29
41 42 38
44 47 37
44 48 43
35 32 26
44 48 43
23 34 23
66 31 30
56 43 37
46 50 45
27 47 28
45 50 40
45 43 37
47 37 35
52 55 49
48 51 48
54 37 31
52 40 35
41 34 27
58 55 48
34 32 29
48 42 38
38 37 25
40 38 30
54 49 47
50 49 45
37 33 30
40 36 32
59 43 35
76 51 46
61 52 46
54 30 24
53 45 45
38 39 38
58 56 47
51 52 49
39 37 32
60 51 48
60 52 50
57 45 36
42 43 36
57 43 34
37 40 26
48 40 33
52 51 40
56 52 49
65 50 47
46 44 36
49 52 44
40 41 38
36 36 35
42 53 35
52 60 45
46 53 40
51 40 33
40 33 31
38 33 27
32 22 17
39 41 26
27 23 18
47 53 46
31 24 24
34 19 18
23 23 19
44 42 40
44 40 36
58 51 51
46 43 33
44 43 29
36 34 32
40 27 26
47 48 45
60 54 53
33 28 27
42 34 30
40 37 34
44 35 29
37 47 36
62 56 50
40 38 35
45 42 40
44 54 42
51 45 43
34 30 27
47 44 40
37 33 33
44 38 30
58 55 48
44 42 30
70 49 48
36 31 28
34 27 22
46 46 41
57 58 50
63 56 53
38 37 32
39 37 32
57 49 46
39 45 37
47 48 37
47 40 31
54 51 49
56 46 43
34 37 27
51 60 48
48 34 33
42 35 32
34 36 33
53 50 46
44 33 32
52 50 48
50 33 27
43 45 39
58 46 42
36 20 19
54 41 39
31 27 23
50 45 35
40 37 33
45 42 34
34 32 20
53 45 42
45 37 34
40 35 34
59 40 37
41 45 38
42 31 26
37 35 29
49 38 34
39 35 31
44 38 35
56 50 50
49 32 32
41 41 39
66 47 47
48 57 35
36 25 21
43 36 33
44 44 43
59 44 42
50 41 41
82 49 38
40 22 20
36 24 23
40 39 33
50 43 41
22 29 18
52 40 33
57 35 35
89 89 87
31 22 19
48 43 42
47 53 39
39 39 36
38 41 27
42 42 39
30 36 26
47 38 34
40 30 29
60 50 49
54 46 38
30 17 15
42 41 37
57 55 51
50 40 38
42 43 38
57 45 44
50 30 28
34 31 23
47 47 46
33 37 27
57 50 47
60 47 44
48 35 31
37 31 24
24 13 13
56 59 52
48 28 26
70 63 60
61 61 54
43 38 37
38 39 28
31 20 15
50 39 35
48 42 33
37 30 29
33 35 28
38 21 20
54 46 43
43 25 19
38 32 31
52 36 36
48 49 44
44 34 30
32 25 21
30 18 15
41 44 38
55 41 38
37 33 25
36 38 29
74 100 71
41 32 29
55 45 44
52 44 37
54 48 46
29 38 25
43 27 24
53 33 32
45 42 31
50 41 33
25 33 23
54 48 45
53 42 42
20 11 9
59 48 47
26 32 21
44 27 27
66 57 57
44 32 29
37 40 28
57 28 26
51 30 30
55 38 38
43 44 29
55 44 43
51 44 41
37 25 21
32 34 26
62 54 52
63 55 51
40 20 20
55 48 47
36 23 20
55 43 42
60 51 43
48 45 42
43 26 26
54 41 40
34 27 19
43 42 42
62 58 50
40 31 26
64 69 50
43 36 33
32 19 19
51 49 47
58 44 43
55 30 28
48 36 36
48 41 33
42 38 38
53 45 45
41 24 23
42 25 24
55 32 31
39 32 29
49 28 24
29 28 23
59 48 43
25 14 13
51 33 23
57 44 41
47 36 35
46 23 21
75 70 69
57 40 40
83 72 71
56 41 36
48 44 42
24 19 17
37 17 15
71 39 36
34 15 15
45 39 36
50 31 31
53 37 32
50 20 18
86 82 80
37 25 25
71 27 26
32 25 25
45 24 16
56 53 49
46 45 42
58 44 42
53 45 44
57 36 35
47 25 25
40 30 29
39 34 30
46 37 35
32 32 25
56 41 40
39 31 27
58 33 33
37 42 29
45 33 25
34 32 25
43 18 17
59 50 50
67 52 48
36 27 26
32 22 18
42 29 29
47 31 30
34 23 20
44 25 22
51 42 42
51 45 45
37 19 18
52 56 45
77 72 69
59 41 38
30 26 25
75 36 30
41 21 21
32 13 13
45 27 27
55 43 42
35 27 25
62 44 40
41 36 34
44 24 24
46 41 40
35 28 22
65 56 55
40 28 20
60 51 51
18 24 14
53 39 34
56 37 34
49 29 29
55 48 46
47 44 38
31 33 29
55 51 50
40 25 24
33 28 23
36 38 33
22 16 15
31 9 7
32 8 7
33 10 8
34 9 8
60 16 15
30 8 7
35 8 7
18 7 5
40 10 9
35 10 9
81 22 20
41 10 10
31 6 6
40 13 11
36 11 9
36 10 9
45 10 10
46 11 10
22 6 3
14 2 2
35 8 8
27 7 6
38 3 3
0 0 0
0 0 0
0 0 0
0 0 0
0 0 0
0 0 0
0 0 0
0 0 0
0 0 0
0 0 0
0 0 0
0 0 0
0 0 0
0 0 0
0 0 0
0 0 0
0 0 0
0 0 0
0 0 0
0 0 0
0 0 0
0 0 0
0 0 0
0 0 0
0 0 0
0 0 0
0 0 0
13 15 9
19 30 17
15 30 15
30 55 31
21 41 23
12 22 10
14 25 13
11 26 13
18 24 12
11 13 7
16 29 16
14 18 7
25 38 22
15 24 12
17 29 16
25 37 21
19 38 18
23 45 25
15 26 14
17 30 17
20 30 16
16 26 15
22 35 19
11 19 9
18 18 10
26 26 23
24 22 21
35 33 28
51 43 40
69 55 50
30 31 29
18 27 18
43 39 34
23 27 22
37 41 35
40 40 32
33 35 28
52 44 40
43 24 21
48 39 30
63 48 43
44 50 41
40 37 34
39 40 31
28 38 29
65 45 41
43 36 30
53 57 47
41 39 35
53 59 53
64 59 56
34 34 29
43 28 22
22 29 21
42 36 34
45 40 28
40 41 34
51 47 44
41 38 32
27 35 24
31 33 26
23 30 17
41 40 33
38 36 27
39 33 27
45 48 34
47 42 34
37 40 34
52 49 45
33 39 25
50 36 35
25 36 26
41 37 26
23 32 23
42 44 39
38 40 30
70 65 63
40 50 37
40 38 33
33 35 26
40 43 34
56 58 53
37 33 23
40 44 32
53 55 48
24 38 22
44 52 44
20 29 19
48 41 34
39 40 33
33 35 27
36 33 26
54 38 31
44 32 29
97 50 44
58 58 43
28 31 27
34 26 19
43 38 34
32 37 31
37 34 25
34 41 34
58 52 46
29 28 23
26 31 23
42 32 25
39 37 30
40 39 35
51 45 35
32 32 24
26 39 27
34 37 30
29 32 29
39 44 34
51 46 42
32 34 23
36 35 28
43 45 36
47 42 38
34 40 34
39 40 31
40 32 25
34 36 30
51 45 40
40 39 32
47 46 37
54 51 49
28 39 25
71 46 38
83 80 75
35 29 24
39 37 33
30 27 18
46 53 44
34 36 34
42 41 38
50 47 43
31 34 29
50 54 38
52 51 47
58 44 38
47 42 34
105 47 45
57 49 46
39 39 32
40 45 35
47 49 39
44 52 43
44 37 35
23 26 21
39 41 32
28 29 23
45 53 43
48 48 44
45 32 29
52 52 44
50 45 42
48 50 47
39 34 31
36 34 30
36 47 36
48 47 40
66 38 32
55 54 48
52 59 50
26 37 26
66 54 51
48 54 48
38 27 27
50 51 47
31 36 25
44 48 41
55 56 46
49 36 29
54 59 54
39 26 21
42 45 39
54 50 39
72 72 67
33 40 33
49 34 31
50 56 46
37 38 26
25 27 25
34 38 26
59 47 44
45 24 23
42 43 40
49 66 46
44 36 31
42 32 27
31 34 31
23 29 23
43 39 32
49 48 41
55 61 51
55 55 53
42 43 40
72 64 61
44 52 42
44 44 40
41 29 26
44 37 28
39 42 38
55 52 50
40 37 33
45 39 32
42 42 40
27 17 16
61 61 52
48 41 33
54 48 46
53 32 27
28 26 18
49 38 33
70 65 62
27 28 22
54 53 42
48 47 44
30 35 22
39 42 32
36 39 36
50 53 49
50 42 38
55 53 51
45 37 34
62 53 45
29 31 26
51 42 42
43 28 20
36 36 25
42 53 39
52 45 41
40 44 40
30 28 23
49 49 43
39 37 28
52 42 34
52 52 46
43 49 37
76 67 67
63 48 44
52 40 37
66 40 38
58 22 21
43 41 36
76 73 68
44 39 35
60 46 45
41 34 27
53 50 45
44 38 32
45 39 36
61 49 44
33 38 31
39 39 37
50 45 38
39 47 35
63 53 50
44 34 30
47 30 29
52 30 27
46 45 40
53 48 45
55 50 49
52 38 34
41 32 29
48 43 40
49 47 40
40 36 30
39 45 36
57 42 39
47 42 35
26 19 12
57 47 42
56 47 42
42 47 37
36 30 29
50 51 46
47 43 40
33 22 20
55 54 45
106 103 102
48 48 39
42 37 35
67 72 56
53 37 36
58 47 43
63 52 48
46 44 35
53 54 45
57 52 50
43 39 37
48 24 22
53 49 47
65 46 41
38 40 33
49 52 41
44 50 43
50 31 28
44 23 22
29 32 24
46 33 30
51 45 39
60 59 49
62 61 56
45 40 38
51 47 44
64 57 53
65 61 58
96 170 101
38 25 16
63 57 56
52 41 38
40 43 36
78 73 71
43 35 31
50 34 33
34 34 25
56 50 43
59 48 44
51 38 36
46 47 42
52 39 37
76 73 63
40 34 34
59 53 51
41 32 27
27 27 24
53 43 43
64 30 30
48 42 36
50 41 35
37 30 21
44 36 31
54 42 37
51 52 47
49 53 45
58 47 37
82 78 76
75 65 64
43 31 23
43 37 35
49 44 40
56 46 45
29 29 24
43 42 40
36 36 36
49 36 36
48 42 26
54 53 51
38 34 28
39 25 24
48 49 43
69 54 53
49 53 46
63 59 56
40 41 35
38 29 26
58 58 45
65 46 41
50 21 17
70 60 58
61 54 54
49 50 42
57 51 48
50 49 42
48 49 45
39 29 29
34 32 24
54 45 40
32 30 22
76 63 62
53 30 27
66 55 48
54 40 39
49 43 41
47 36 30
66 60 57
39 30 24
52 41 39
56 36 35
45 31 24
81 73 72
48 34 30
38 33 25
33 28 24
39 32 29
31 30 17
36 32 25
61 55 51
49 32 30
33 35 25
60 51 48
58 51 50
53 46 41
61 65 54
53 49 47
52 42 36
50 21 21
78 53 52
46 33 28
49 45 34
62 51 48
68 66 62
45 39 39
30 28 26
50 24 23
34 19 19
47 21 21
42 29 27
47 40 34
48 33 26
48 17 15
47 31 28
51 40 35
52 36 36
46 42 37
41 30 26
34 16 15
34 25 20
42 39 39
46 31 26
36 29 29
33 19 13
54 39 39
55 43 38
67 60 58
39 24 19
43 40 27
49 40 33
52 36 35
59 33 28
37 32 19
52 42 40
51 52 48
50 44 44
64 48 48
51 19 19
38 19 19
53 28 27
43 33 30
41 34 33
51 49 45
48 37 31
43 29 27
41 37 35
55 41 36
36 27 22
67 49 49
63 26 24
45 38 34
47 23 23
39 33 29
48 38 31
39 31 28
40 39 33
50 44 36
36 36 29
43 38 35
47 23 20
52 54 41
47 23 22
33 23 23
67 48 46
50 28 22
60 23 23
58 56 53
34 40 29
63 36 31
44 33 27
37 21 21
46 50 40
52 31 26
97 86 84
41 44 35
32 26 17
56 47 41
55 34 27
50 41 38
36 24 24
39 23 18
40 34 31
49 19 18
53 46 44
45 42 39
42 43 38
65 58 57
53 30 29
79 73 72
42 31 29
39 39 30
38 34 32
52 45 43
49 41 38
50 40 37
43 34 34
49 27 27
38 27 26
62 41 39
50 39 39
43 36 32
32 25 20
54 39 37
46 25 25
52 52 48
55 44 44
47 32 26
67 44 40
45 46 40
47 44 39
33 25 19
25 31 21
50 32 31
36 32 28
32 22 20
48 41 40
58 54 47
48 46 44
61 52 50
48 46 39
65 41 36
38 22 17
31 23 20
56 34 30
51 35 34
27 16 12
35 22 18
35 35 29
73 62 62
52 53 42
49 49 39
47 44 41
31 23 21
27 24 20
45 35 34
82 80 80
55 46 46
44 39 36
82 76 76
57 34 30
50 40 39
52 55 46
36 22 21
21 17 14
44 45 37
48 38 35
34 33 22
38 20 20
62 8 6
30 7 6
35 10 8
47 13 12
31 9 8
31 8 7
54 15 14
28 7 6
47 13 12
47 11 9
31 8 8
49 13 13
36 9 9
42 9 9
24 7 6
67 16 16
49 13 12
38 11 10
37 11 9
28 7 7
62 14 14
44 11 11
28 7 6
14 3 3
0 0 0
0 0 0
0 0 0
0 0 0
0 0 0
0 0 0
0 0 0
0 0 0
0 0 0
0 0 0
0 0 0
0 0 0
0 0 0
0 0 0
0 0 0
0 0 0
0 0 0
0 0 0
0 0 0
0 0 0
0 0 0
0 0 0
0 0 0
0 0 0
0 0 0
0 0 0
0 0 0
9 13 7
21 34 20
15 36 17
17 35 17
8 14 3
18 30 17
17 31 17
12 21 11
18 32 18
19 33 18
15 24 13
15 24 13
11 22 11
15 24 13
18 28 14
15 24 12
13 32 14
16 29 15
15 24 13
17 30 17
16 28 15
18 35 19
12 23 8
13 24 13
24 38 21
29 31 19
32 30 25
38 28 21
18 26 18
31 32 28
85 58 53
37 39 31
38 36 30
19 19 10
31 31 30
25 23 21
38 36 21
39 28 26
43 34 31
32 29 24
18 23 12
39 33 32
26 32 26
48 36 24
35 27 22
33 26 20
50 46 37
53 41 39
24 30 24
40 41 26
73 71 69
46 37 32
30 40 26
43 34 31
50 39 33
44 57 44
51 54 48
52 34 30
53 41 37
27 34 25
30 27 20
50 60 46
33 37 26
47 41 28
31 47 32
29 22 17
44 49 39
46 60 39
36 39 35
29 35 25
48 39 32
30 39 31
46 44 36
41 40 34
37 39 36
72 74 71
49 43 38
55 56 50
45 45 42
50 59 49
28 24 19
50 49 47
43 49 41
30 36 30
44 39 34
37 33 24
44 41 40
57 55 52
48 36 33
55 43 37
27 29 26
35 40 31
31 28 19
60 52 30
49 52 48
72 74 71
63 67 63
67 67 64
49 43 34
28 24 19
45 40 31
50 29 26
45 43 37
25 27 23
33 40 31
41 46 36
25 32 25
37 31 29
44 45 41
35 39 33
43 40 35
57 55 53
47 48 44
32 48 31
28 35 28
37 50 37
22 35 23
46 42 41
47 50 38
61 47 37
52 51 43
43 40 33
50 56 44
37 37 28
38 35 29
38 41 28
51 46 39
46 49 40
36 31 26
57 60 57
24 33 22
31 38 29
49 51 41
17 14 12
45 44 35
58 54 48
44 47 42
41 41 35
33 50 31
39 39 35
36 36 32
37 34 26
39 42 33
49 46 45
42 49 42
58 73 54
83 48 45
56 40 38
86 81 77
47 48 42
31 44 28
95 59 42
32 40 29
57 59 52
55 36 23
40 40 35
50 55 50
41 40 34
46 30 27
47 64 44
39 38 32
60 54 49
48 48 41
47 48 38
45 32 31
35 31 22
43 41 33
28 24 18
67 62 55
31 31 23
50 56 46
41 38 27
42 43 36
35 33 26
36 39 31
50 56 49
68 39 32
68 92 67
42 50 38
51 47 43
39 34 24
40 41 32
48 46 37
51 42 41
35 32 27
53 47 45
55 54 48
44 38 35
46 50 42
85 66 59
77 83 77
66 63 57
52 69 50
71 47 44
44 45 36
36 36 35
36 41 36
40 47 39
47 40 34
59 43 37
45 50 37
54 56 49
57 59 50
55 54 48
40 34 31
44 49 41
59 45 39
54 56 45
79 42 35
48 30 28
45 42 34
37 39 35
40 37 29
37 39 33
50 110 51
38 38 30
49 41 31
39 26 24
50 52 46
47 43 40
50 41 36
42 47 41
36 29 28
66 64 62
42 44 39
125 127 125
48 59 37
48 55 45
52 45 44
55 56 54
55 75 53
46 43 33
61 52 49
50 39 38
45 64 43
53 51 49
41 34 27
62 63 59
48 37 33
41 35 33
37 26 24
72 70 67
53 36 31
51 52 49
38 46 37
58 56 45
52 41 40
47 52 46
44 31 26
49 42 40
43 30 26
60 49 39
23 29 22
34 38 29
58 54 47
34 29 27
50 29 29
66 63 60
53 51 46
42 38 36
57 40 35
44 40 35
61 41 40
42 47 35
43 35 31
39 30 29
48 42 40
42 31 23
63 56 54
57 58 49
48 50 41
50 33 30
50 42 36
48 35 35
50 54 43
26 23 19
42 39 25
42 40 35
54 49 39
60 40 40
53 48 38
47 31 30
37 39 35
34 27 26
55 47 46
58 57 54
50 45 38
44 31 26
96 87 86
53 50 49
61 50 49
41 40 29
55 54 49
32 32 23
37 32 26
57 47 40
47 37 29
31 35 27
51 45 40
41 41 34
52 39 37
59 47 47
47 44 40
56 51 48
51 45 39
57 57 47
48 43 41
44 41 36
67 50 47
36 38 24
46 40 29
46 42 42
49 46 39
52 40 36
42 38 31
53 50 46
53 39 38
72 50 49
60 43 39
65 53 52
48 50 39
37 29 25
38 50 38
59 33 29
36 40 33
47 29 29
48 42 37
59 55 53
51 49 47
42 38 27
48 44 36
39 38 34
58 50 46
41 32 32
53 57 53
51 37 35
51 50 47
45 37 36
122 51 47
43 29 26
48 37 34
46 38 37
34 39 30
57 47 42
36 24 20
41 26 22
41 41 29
39 29 28
47 31 27
60 46 46
47 44 41
49 41 36
53 49 47
45 36 29
44 35 32
42 42 38
55 48 45
36 27 27
73 58 53
41 35 30
48 49 38
34 16 14
48 36 33
41 23 22
39 35 31
50 33 31
54 39 37
52 40 40
51 39 37
54 55 43
36 38 27
66 63 60
44 38 33
51 39 37
54 53 50
34 22 16
47 41 40
48 50 43
46 28 27
48 46 38
46 51 39
46 37 35
52 37 34
45 49 36
65 58 56
49 39 38
55 37 31
50 39 35
56 51 47
50 51 45
54 54 45
33 34 25
44 36 31
45 46 43
58 39 33
51 49 47
35 33 29
35 31 28
49 34 33
52 42 38
39 36 35
58 44 41
37 32 32
46 25 23
42 41 38
61 41 37
63 55 51
52 39 39
52 42 35
103 91 89
35 31 25
37 28 28
64 44 36
49 35 33
32 20 20
49 29 27
51 43 40
62 42 40
60 47 45
58 55 54
60 49 49
55 58 44
38 34 34
31 26 24
54 37 37
51 30 25
66 50 48
58 25 24
48 43 39
44 22 21
57 40 37
47 32 29
35 25 25
41 40 35
44 30 29
37 21 19
55 55 43
57 41 39
59 44 41
52 31 30
47 26 20
34 25 20
50 39 37
44 34 34
33 25 25
53 33 33
48 32 27
45 31 31
48 25 19
69 57 55
53 55 40
56 46 46
49 42 39
50 31 31
64 57 54
39 37 36
38 34 34
75 56 55
46 34 30
39 22 20
40 31 25
51 45 45
53 39 35
55 41 41
43 31 30
49 37 36
52 29 29
49 47 40
35 23 22
58 50 42
45 28 25
43 33 33
40 40 27
37 43 31
50 39 39
59 44 43
56 39 37
54 38 35
46 28 28
44 42 42
55 39 37
49 43 37
46 36 35
53 30 30
45 45 36
48 40 37
57 44 41
37 20 20
72 44 44
39 33 29
60 46 44
42 22 21
45 37 32
44 36 33
52 46 45
39 36 30
53 42 35
61 30 25
38 20 18
53 23 22
48 38 36
26 22 21
28 17 15
37 21 20
42 33 31
42 11 10
41 37 33
37 31 26
61 59 52
46 30 26
45 43 41
47 40 38
72 76 58
38 30 27
58 27 27
50 41 39
39 26 25
45 36 33
36 30 28
53 30 30
138 137 136
45 38 33
77 76 71
45 38 32
40 18 18
59 52 49
36 25 25
36 34 26
39 31 24
47 29 23
53 34 34
68 34 33
62 45 45
36 33 30
37 28 26
57 36 36
29 23 18
48 36 30
43 34 28
36 20 20
46 19 17
40 37 28
58 45 44
32 33 27
68 41 39
34 30 26
60 51 46
27 14 14
27 6 5
116 16 15
19 6 4
42 11 9
39 9 8
53 12 11
25 8 5
41 11 10
25 8 6
52 14 14
31 7 7
67 24 16
39 9 9
37 9 8
38 11 10
38 8 7
36 10 9
36 9 9
21 7 5
44 10 9
34 8 8
65 18 18
57 16 15
51 12 12
24 7 6
0 0 0
0 0 0
0 0 0
0 0 0
0 0 0
0 0 0
0 0 0
0 0 0
0 0 0
0 0 0
0 0 0
0 0 0
0 0 0
0 0 0
0 0 0
0 0 0
0 0 0
0 0 0
0 0 0
0 0 0
0 0 0
0 0 0
0 0 0
0 0 0
0 0 0
0 0 0
0 0 0
18 36 21
22 46 24
17 29 15
31 38 21
20 34 19
14 21 12
13 22 11
10 12 7
24 48 26
10 19 10
9 20 9
9 16 8
14 29 15
15 25 13
13 24 12
13 23 11
12 20 10
25 47 26
14 21 11
13 22 12
12 25 13
34 39 22
20 40 22
24 43 24
30 52 30
16 34 17
23 31 23
49 50 48
36 37 33
26 18 16
48 24 17
68 47 37
55 55 53
40 26 20
41 50 40
63 57 53
58 32 21
40 40 38
53 40 39
41 38 34
32 32 30
37 33 26
48 57 40
88 77 74
17 27 15
19 21 16
42 40 33
41 31 28
23 26 19
52 49 45
34 32 26
33 34 26
38 40 32
70 35 28
38 40 30
32 36 32
36 35 30
69 70 67
33 37 32
47 51 43
33 42 29
46 46 36
41 45 32
47 52 46
38 27 26
53 55 53
39 33 24
36 40 34
38 44 37
47 38 32
39 33 31
29 36 28
67 69 62
45 42 34
54 53 44
45 36 32
39 41 34
35 36 24
41 42 38
45 40 29
41 42 37
58 55 51
48 51 47
58 52 46
50 43 39
32 37 27
48 42 37
26 29 23
61 45 42
32 31 22
57 55 48
47 52 42
46 39 32
63 50 45
44 43 35
50 51 46
41 45 39
30 39 30
39 35 35
56 51 45
40 53 38
37 39 30
32 46 29
31 26 19
37 45 35
27 30 23
40 41 38
53 57 53
31 32 23
63 53 47
64 65 60
38 42 37
44 40 35
45 45 38
37 32 21
56 63 55
44 44 39
52 45 40
37 47 36
40 45 38
46 35 29
43 43 36
47 49 42
38 41 32
43 36 32
52 42 34
32 24 22
44 41 35
59 30 28
54 50 44
52 43 33
48 45 37
46 46 43
37 43 30
39 42 38
43 33 28
49 54 49
66 60 57
23 29 20
36 37 29
42 51 42
63 59 55
47 34 24
20 30 19
27 38 27
39 35 28
45 50 40
32 31 21
57 51 45
48 56 47
44 41 34
39 42 37
76 77 73
50 47 44
48 49 46
34 31 23
51 52 43
43 43 38
52 42 37
61 59 54
56 54 52
62 56 46
42 45 35
32 32 26
35 42 33
47 44 41
36 37 32
34 34 27
64 61 56
66 51 41
47 37 32
35 38 28
62 64 59
33 40 32
49 59 39
44 46 37
46 47 42
74 58 53
44 41 37
57 59 53
47 70 48
26 25 20
40 27 22
48 43 36
43 46 41
53 40 36
44 46 39
65 61 56
28 34 25
36 40 34
28 30 20
63 45 41
38 36 27
52 53 44
47 37 34
55 49 46
43 47 42
56 52 47
42 38 32
30 27 25
60 52 42
64 46 39
71 45 41
57 57 50
57 48 47
39 42 38
72 47 41
58 64 53
25 23 22
44 48 40
51 48 39
50 42 39
52 44 41
49 46 43
43 39 38
48 45 42
46 46 39
46 41 32
27 29 24
52 55 47
39 43 39
60 60 53
26 28 24
50 44 39
33 21 19
42 41 39
46 41 33
36 51 34
48 47 44
50 42 40
58 54 49
47 46 42
57 52 42
71 53 52
41 43 40
51 57 38
59 51 43
46 38 31
47 55 39
60 65 52
40 34 30
44 38 28
70 69 59
34 33 27
61 45 37
68 56 49
51 46 41
46 36 32
42 40 32
48 45 39
54 50 45
36 32 31
34 26 21
37 44 32
58 58 55
72 48 44
38 31 28
25 31 22
61 49 43
59 44 36
38 30 22
41 42 31
59 44 37
40 25 18
36 26 20
44 37 27
52 52 48
57 46 44
28 22 20
56 85 50
47 41 34
36 38 32
46 33 29
41 42 37
46 46 41
63 74 55
32 36 28
56 43 38
50 45 43
35 37 30
39 41 34
52 45 39
39 39 33
50 55 44
36 35 29
45 38 34
43 30 26
55 32 29
66 57 57
58 39 33
42 49 35
60 43 38
41 33 26
66 60 56
55 39 32
23 23 22
48 51 41
40 46 36
63 45 39
58 54 50
36 38 34
49 48 46
53 49 42
63 67 56
60 49 49
47 41 39
40 25 22
48 50 44
45 31 31
38 34 29
39 39 34
34 32 28
37 39 31
44 39 38
62 55 52
42 45 37
38 38 26
44 49 39
41 39 34
46 28 28
46 44 34
46 37 35
35 40 23
42 34 32
45 34 31
39 40 37
52 39 37
57 53 48
59 52 51
44 34 33
55 47 46
55 45 39
60 52 46
52 35 31
70 64 57
58 58 54
47 41 39
53 41 38
38 40 37
56 40 32
39 36 35
45 36 36
47 45 36
61 51 50
49 46 36
54 37 34
64 45 40
43 38 33
61 59 56
44 41 35
50 48 44
43 41 39
61 59 57
65 49 44
51 50 42
62 32 31
54 38 37
51 62 41
45 42 36
51 39 39
46 36 33
43 38 27
54 53 49
61 57 54
59 47 47
42 37 36
46 31 24
38 33 33
47 27 24
87 39 36
45 39 33
41 43 36
37 38 29
46 36 29
53 50 48
50 39 36
46 36 31
53 44 35
49 39 39
42 34 30
52 42 40
37 32 29
47 54 40
91 51 41
54 34 32
31 35 26
75 36 34
61 54 50
47 42 41
54 43 38
47 39 34
18 12 12
46 28 28
45 36 35
43 28 23
40 38 32
30 29 27
31 29 27
57 57 53
32 28 25
46 23 22
39 32 22
37 17 12
43 40 33
44 37 34
44 15 10
42 39 34
51 43 43
36 24 24
40 46 40
46 49 42
38 39 32
37 27 17
50 46 42
43 41 35
49 35 32
52 32 30
49 41 36
39 34 27
33 32 30
38 40 33
30 34 11
35 38 26
30 28 22
62 57 51
55 47 44
57 48 46
50 35 35
46 36 35
50 38 35
61 42 37
42 42 39
44 32 31
75 44 44
50 35 31
49 40 35
32 27 22
61 48 42
54 49 45
34 22 22
47 31 30
66 55 55
49 39 35
31 34 24
37 15 15
51 46 40
50 42 37
49 23 20
63 56 50
42 19 16
55 44 44
48 38 30
48 45 34
43 28 24
35 25 19
38 32 30
34 22 20
36 34 25
60 53 46
34 27 27
56 47 47
48 42 42
65 53 52
66 43 39
43 45 38
54 42 42
45 45 41
61 52 44
59 44 37
57 44 41
29 26 26
31 33 21
42 32 32
42 33 29
68 70 68
48 36 36
44 38 33
41 36 31
52 45 44
54 57 53
52 46 35
46 34 23
36 25 25
35 30 27
59 54 41
50 28 25
72 38 37
52 27 24
77 70 66
41 28 25
46 29 25
70 70 57
41 17 17
34 17 14
50 33 32
47 30 24
55 37 34
50 42 41
53 55 46
64 36 35
62 30 26
69 59 57
51 46 45
34 33 25
35 25 22
42 31 27
61 49 45
39 38 32
50 37 37
57 54 50
47 33 33
52 49 46
33 22 17
52 23 21
64 51 50
52 43 40
52 44 41
48 52 47
51 43 43
39 20 20
62 63 61
38 33 30
39 32 28
35 17 16
38 34 31
39 21 21
55 35 32
56 50 43
48 23 23
38 32 26
53 53 45
52 40 39
62 39 35
55 43 41
62 22 22
57 46 46
53 28 27
46 36 27
43 52 36
38 30 30
68 34 34
38 15 15
42 36 30
34 33 29
38 27 27
57 43 41
27 6 5
46 13 12
51 11 10
39 9 8
32 7 6
34 7 6
16 4 3
39 10 8
46 11 11
34 9 7
50 15 13
56 14 14
62 16 15
47 10 9
36 9 9
34 10 9
44 12 12
59 10 9
47 12 12
70 19 19
45 11 11
19 3 2
61 16 16
40 9 9
83 22 22
60 16 16
38 9 9
0 0 0
0 0 0
0 0 0
0 0 0
0 0 0
0 0 0
0 0 0
0 0 0
0 0 0
0 0 0
0 0 0
0 0 0
0 0 0
0 0 0
0 0 0
0 0 0
0 0 0
0 0 0
0 0 0
0 0 0
0 0 0
0 0 0
0 0 0
0 0 0
0 0 0
0 0 0
0 0 0
14 25 14
14 28 16
13 24 13
6 19 6
22 40 23
17 23 13
18 35 19
20 32 18
22 36 19
18 32 17
27 53 29
19 32 17
21 32 18
22 45 22
10 25 9
18 31 17
15 29 16
23 43 24
26 41 24
19 33 18
24 46 26
23 45 24
18 24 13
12 17 10
14 26 14
14 24 13
13 19 11
41 35 25
56 51 44
35 29 28
19 21 18
41 44 37
44 42 39
31 36 31
35 27 24
39 40 33
32 37 25
41 37 28
35 31 27
38 47 39
45 32 30
44 36 32
26 31 23
49 49 40
46 34 28
35 36 25
27 30 26
50 42 39
42 41 31
42 46 39
38 46 33
28 22 20
37 46 34
48 42 39
69 69 67
32 35 30
33 39 33
34 34 26
46 32 28
49 41 36
37 38 31
51 50 44
44 50 31
45 42 36
34 32 25
53 48 42
30 29 24
38 40 37
32 29 22
32 23 18
59 39 32
55 48 42
36 29 25
37 46 35
33 45 33
52 21 19
63 58 54
31 41 32
33 42 32
24 21 15
45 42 35
27 32 27
53 53 38
44 43 35
45 44 33
26 27 24
38 47 38
45 41 36
52 61 47
49 35 31
51 51 45
39 27 22
43 42 33
57 60 50
55 55 49
39 48 35
51 47 38
50 46 41
51 39 36
40 47 32
28 28 20
42 44 33
42 48 42
37 40 37
76 55 38
57 52 46
34 28 25
51 41 34
30 34 28
46 45 33
62 47 37
36 34 26
55 44 37
42 36 32
46 35 25
37 48 36
46 47 42
62 56 49
47 37 33
50 46 38
53 44 36
46 43 35
61 40 30
32 38 32
49 44 40
51 52 43
50 50 43
36 36 27
34 33 27
38 44 36
40 41 34
71 107 67
45 38 34
35 38 32
43 38 33
33 36 28
50 49 40
29 35 27
57 51 45
58 59 51
40 38 31
69 71 69
51 45 40
47 23 15
46 52 43
45 46 38
48 54 46
36 36 27
42 49 41
50 56 44
38 36 32
40 37 29
43 41 32
32 33 21
40 38 32
35 34 29
27 22 16
42 40 37
58 59 50
56 54 48
65 62 55
31 28 24
43 48 37
41 44 32
69 72 66
58 48 37
32 38 30
40 39 29
42 46 41
50 58 48
51 44 38
24 22 20
73 49 45
53 80 55
35 41 30
66 60 58
42 29 29
52 61 50
21 24 17
54 46 45
56 46 42
51 35 34
40 45 37
54 48 42
39 33 29
41 38 33
42 37 32
42 38 36
48 41 37
54 48 39
43 52 43
41 38 36
43 39 38
49 37 35
47 50 46
32 42 33
50 44 40
30 32 23
42 42 35
54 45 40
49 43 39
37 39 32
35 44 34
51 40 29
47 45 37
29 24 18
52 48 39
49 50 46
45 35 31
38 52 40
39 40 36
41 35 26
90 88 84
51 38 34
61 59 58
55 49 48
64 67 58
45 75 43
46 38 37
67 45 34
51 46 37
61 64 59
50 55 50
39 46 38
54 38 35
65 48 41
45 45 40
35 39 33
38 34 28
56 61 54
60 48 43
40 42 34
59 49 49
52 43 42
58 40 35
41 34 33
63 47 44
75 73 70
48 39 36
55 54 48
31 39 29
52 22 22
37 44 37
55 58 53
47 42 38
52 49 44
34 32 26
35 35 31
47 43 39
54 40 35
43 46 28
51 40 34
48 42 32
22 28 20
41 34 30
52 48 44
29 25 22
28 19 18
49 44 39
44 43 39
36 25 16
61 53 50
65 62 49
38 34 31
48 47 45
40 51 40
43 43 33
29 29 22
67 60 54
42 40 39
79 78 74
53 40 38
49 43 39
53 51 36
50 39 36
61 46 43
44 35 30
47 34 30
57 51 47
42 52 36
61 49 46
62 37 33
59 53 46
38 36 28
49 39 35
67 44 39
49 37 28
48 46 39
50 52 43
33 27 17
34 33 31
50 36 30
70 70 66
46 54 44
35 37 30
41 42 33
63 62 58
45 42 29
38 35 32
48 38 27
50 46 41
49 54 36
49 43 37
45 46 41
46 47 41
48 32 30
47 42 38
77 52 50
52 49 40
66 52 48
47 55 46
49 50 47
62 61 52
46 42 36
45 54 37
69 45 40
54 52 52
61 51 42
36 39 33
54 36 31
39 35 24
44 41 35
40 28 24
44 33 29
47 48 43
48 28 28
59 81 52
74 67 64
31 38 21
56 37 31
39 39 30
46 36 32
57 47 44
54 69 48
49 36 30
48 46 43
44 34 34
53 46 35
40 34 26
70 30 28
56 46 44
48 41 37
40 25 22
37 13 11
56 52 48
51 53 44
52 47 40
42 40 37
60 41 37
47 34 30
35 28 25
59 37 26
81 77 74
58 55 48
46 38 37
45 41 37
33 26 25
80 45 41
64 57 54
44 43 40
58 45 42
53 47 44
63 62 54
68 54 52
52 37 33
53 46 43
52 41 36
50 38 31
76 51 48
34 31 26
54 42 36
49 35 34
65 51 51
52 43 36
41 26 25
35 31 26
51 45 39
59 44 41
35 24 22
44 36 33
57 33 32
74 66 62
36 27 24
47 55 39
44 43 39
52 47 43
45 18 17
49 41 40
57 52 48
62 58 49
44 43 39
81 70 67
52 45 43
37 27 26
65 67 65
43 26 26
57 34 31
20 16 10
43 42 37
48 32 32
55 31 31
46 37 36
60 43 40
58 50 42
56 36 32
59 51 44
60 55 51
52 40 30
43 39 34
52 38 35
40 24 23
39 40 31
40 37 28
44 26 25
64 53 51
43 35 32
63 43 39
66 34 30
52 35 34
46 42 34
54 45 41
46 27 27
53 50 48
53 31 28
36 16 12
53 36 36
53 28 28
53 36 30
55 48 48
32 15 13
51 35 29
36 32 31
44 39 35
60 31 29
57 36 36
57 45 39
50 45 41
51 50 45
48 28 24
58 48 43
43 36 31
52 43 41
71 55 53
49 40 38
56 39 32
35 26 22
54 44 41
52 42 34
48 38 36
63 42 36
48 46 42
41 33 32
74 51 51
47 32 31
55 45 38
53 38 32
47 31 30
26 7 7
51 43 35
43 29 29
33 29 29
62 33 32
56 41 38
43 32 31
63 44 43
93 80 79
43 36 33
44 28 26
56 37 35
65 56 54
53 29 28
36 24 24
46 30 26
43 37 34
49 41 37
47 34 31
42 38 37
30 33 24
49 34 28
58 50 45
51 50 36
52 44 44
40 26 24
33 36 28
47 34 34
60 51 45
76 113 74
49 33 27
32 19 19
61 55 46
37 24 15
35 10 9
63 29 27
34 25 19
69 42 38
41 22 21
44 17 17
48 20 19
35 17 16
44 38 36
39 29 27
41 28 28
85 31 26
53 34 31
40 35 26
48 45 42
42 33 27
26 16 16
47 30 29
41 26 21
51 32 31
49 23 22
40 17 16
39 34 29
40 23 19
45 33 33
44 39 29
54 28 25
37 40 35
53 37 32
29 19 19
37 39 28
38 30 30
60 56 53
43 32 30
47 25 25
47 38 37
45 43 35
37 34 29
58 40 32
39 28 26
43 32 24
37 30 29
37 27 27
33 28 24
56 54 49
40 36 31
55 52 50
46 46 39
42 38 30
43 37 36
39 27 26
22 21 8
51 44 38
45 36 36
41 23 23
46 13 12
36 10 8
38 10 10
37 10 9
22 5 4
33 8 8
43 10 10
58 15 15
63 17 16
46 7 6
79 8 8
51 13 12
31 10 8
37 13 10
37 10 10
44 11 11
38 9 9
45 12 12
6 2 1
37 10 10
36 10 10
59 16 16
35 10 9
57 15 14
30 8 8
30 6 6
23 6 6
0 0 0
0 0 0
0 0 0
0 0 0
0 0 0
0 0 0
0 0 0
0 0 0
0 0 0
0 0 0
0 0 0
0 0 0
0 0 0
0 0 0
0 0 0
0 0 0
0 0 0
0 0 0
0 0 0
0 0 0
0 0 0
0 0 0
0 0 0
0 0 0
0 0 0
0 0 0
0 0 0
1 1 0
24 42 24
18 24 12
19 36 20
13 24 13
16 26 13
28 49 28
16 28 14
17 29 15
21 33 18
16 28 16
20 32 18
15 33 16
12 26 14
18 46 20
15 29 15
13 28 14
16 31 17
14 25 14
23 25 14
22 35 19
17 26 15
17 21 11
16 21 12
21 38 20
29 55 31
21 40 23
14 19 11
20 37 21
63 63 61
26 29 26
35 39 35
63 54 52
36 19 13
24 26 23
58 38 32
55 60 54
27 24 15
45 41 36
49 39 36
29 31 20
37 32 26
42 42 37
31 31 29
47 45 41
36 39 30
11 17 9
58 51 40
35 40 32
44 29 23
44 49 42
53 49 47
60 51 42
55 51 51
25 33 23
33 39 31
29 28 17
41 48 37
27 35 26
26 38 26
28 34 21
46 49 42
48 44 39
45 45 39
47 45 41
45 39 34
28 39 28
30 30 14
36 37 28
43 30 24
18 29 19
35 46 29
53 56 45
60 59 55
31 35 31
28 31 21
66 57 51
28 35 24
45 32 24
90 90 87
35 35 34
32 43 33
34 35 25
38 39 34
51 36 31
40 36 25
60 57 52
46 56 46
39 49 37
43 45 37
51 51 45
46 42 33
35 31 28
40 27 25
36 41 31
53 54 50
65 70 65
52 52 49
41 50 41
39 44 38
48 48 42
59 52 51
33 32 19
46 35 32
75 75 72
23 33 23
20 30 20
46 40 28
50 55 48
42 47 41
52 40 36
52 50 46
31 29 23
52 51 48
40 47 40
38 35 31
123 236 137
58 45 41
54 52 45
41 23 14
36 35 25
34 39 32
45 40 31
33 37 32
32 28 23
27 33 21
23 29 19
46 41 36
38 43 32
48 43 37
61 81 51
40 42 39
48 37 31
50 51 45
50 46 36
40 44 39
65 66 61
53 40 36
33 37 30
33 42 32
41 46 39
78 58 55
52 52 47
30 42 29
53 46 37
41 29 25
45 44 41
34 42 33
23 37 21
53 47 44
45 53 44
63 52 49
52 47 42
54 57 50
49 50 39
39 47 39
44 48 39
44 46 41
43 54 35
40 41 35
43 50 43
38 31 24
37 32 29
37 37 33
53 48 47
41 33 27
32 36 29
71 46 34
67 62 55
24 27 22
41 46 36
44 39 35
63 50 49
50 51 42
43 39 36
42 41 34
41 33 29
40 56 37
31 30 19
37 36 32
37 43 34
50 39 33
44 44 36
57 53 47
41 44 35
44 51 41
36 40 32
39 43 38
47 41 41
33 29 27
44 45 39
48 32 28
62 62 57
53 46 43
58 40 35
30 42 30
58 46 43
56 55 53
51 38 32
40 36 31
42 41 31
42 39 37
42 37 31
37 45 36
43 40 38
67 53 51
41 46 35
54 49 38
43 42 34
51 46 41
51 40 31
45 39 34
47 43 38
33 33 27
45 54 40
42 38 30
33 25 18
57 50 44
49 40 35
52 45 41
43 32 27
54 59 52
43 33 28
56 49 46
46 45 37
45 40 33
66 62 59
50 34 27
48 50 45
38 42 33
41 30 26
55 49 37
57 51 48
57 43 33
97 51 42
42 35 32
37 38 35
62 74 53
31 34 31
62 27 23
43 50 36
41 36 31
43 38 34
48 42 38
31 26 19
41 39 29
44 36 31
50 53 46
54 52 44
49 58 44
37 27 23
33 29 18
42 44 42
57 57 50
55 48 44
43 29 21
48 45 43
36 34 28
38 29 24
36 36 32
55 57 44
48 48 47
55 50 47
45 49 40
72 64 61
49 35 34
33 18 14
36 32 29
50 40 34
51 50 44
37 33 31
71 62 59
51 34 29
52 53 46
38 31 25
48 38 32
78 75 72
66 59 48
46 39 36
59 51 47
21 22 13
75 55 46
44 41 37
51 54 45
45 29 24
44 40 36
67 41 32
52 49 43
52 48 46
51 43 37
45 32 32
44 36 31
29 30 26
49 42 41
52 56 52
48 36 35
61 58 57
60 37 28
38 32 30
37 22 18
47 35 34
51 45 40
48 42 41
46 45 41
43 38 37
53 47 40
47 55 43
59 54 43
53 43 43
61 48 46
38 29 25
42 37 34
53 50 45
38 38 33
91 52 47
51 40 33
43 44 40
46 47 39
36 26 24
54 48 41
48 23 21
45 36 36
38 36 32
46 47 41
162 162 158
47 41 33
49 50 46
60 57 54
37 37 32
60 58 53
61 51 48
55 56 51
56 52 50
51 46 42
62 58 52
46 45 40
49 37 34
42 17 17
46 39 33
50 35 34
33 25 24
36 32 31
48 37 34
52 49 39
93 63 60
56 51 48
64 47 34
55 50 48
48 34 33
46 35 35
66 52 50
53 46 44
48 42 41
50 35 32
34 21 21
51 34 31
61 43 42
59 37 37
50 30 27
85 78 67
53 60 46
54 52 51
58 72 52
29 34 26
50 52 44
48 42 40
76 63 60
41 36 28
42 39 35
20 29 19
56 46 40
42 34 23
35 29 27
46 43 37
45 45 34
52 51 47
56 38 36
65 56 56
46 47 38
61 45 42
52 46 40
51 35 34
39 40 37
68 66 64
32 26 25
42 39 31
45 24 23
52 33 31
56 45 42
40 38 35
33 29 23
51 31 30
48 32 30
39 28 25
56 47 41
48 29 29
43 28 27
49 33 31
41 46 36
43 27 22
64 57 54
35 25 24
52 31 26
45 36 36
53 55 47
50 33 33
51 39 35
69 63 60
52 40 40
54 36 36
55 38 31
35 25 24
54 44 43
45 37 34
27 32 18
48 34 28
29 11 10
53 51 50
61 33 32
55 47 42
58 43 40
25 29 21
39 32 27
22 21 21
39 37 32
58 43 39
43 42 34
43 17 15
44 30 28
50 41 40
52 40 35
51 36 28
49 38 33
43 38 34
59 46 46
42 35 30
51 28 24
44 48 39
33 21 19
44 34 34
33 28 28
50 36 35
45 32 25
55 48 42
55 49 40
52 48 48
46 33 29
37 24 22
62 51 39
51 42 42
64 45 43
105 50 43
50 41 38
51 34 32
55 42 37
41 33 26
36 15 15
54 31 29
65 28 23
52 26 22
48 32 32
39 23 18
46 35 26
37 23 21
79 77 76
50 47 46
65 56 52
41 28 18
53 42 42
37 45 31
45 43 42
54 50 40
64 54 54
49 27 26
44 33 28
54 43 42
54 57 48
36 22 15
48 28 27
50 31 30
65 53 51
57 48 46
57 48 45
40 22 16
56 43 41
55 42 39
43 40 35
48 30 29
44 36 33
45 12 12
60 35 35
47 30 28
47 28 28
48 32 32
57 47 44
44 28 27
39 25 20
39 34 34
46 31 28
37 39 33
36 35 26
55 35 30
45 35 33
56 45 43
37 23 18
46 28 25
49 36 36
85 40 39
42 47 37
42 24 19
39 27 25
31 19 18
48 45 38
42 34 33
37 27 26
42 36 36
56 52 45
40 32 32
32 19 18
15 6 4
43 33 24
35 17 15
56 38 35
51 43 42
57 48 48
40 37 25
38 34 30
52 41 39
47 29 29
41 27 26
103 70 67
46 38 27
33 24 24
42 43 36
35 21 20
64 45 42
22 25 17
44 29 28
37 31 29
32 32 29
54 35 34
138 28 27
43 28 28
20 17 14
46 33 31
56 15 14
38 9 9
55 11 8
66 18 18
60 15 15
51 15 13
52 13 12
43 15 12
40 10 10
46 12 11
40 10 9
39 11 10
51 13 13
51 13 11
33 7 7
57 15 13
37 10 9
34 9 7
130 7 7
56 16 14
47 13 12
42 12 11
42 10 9
44 12 11
50 13 13
52 12 11
64 17 17
9 0 0
0 0 0
0 0 0
0 0 0
0 0 0
0 0 0
0 0 0
0 0 0
0 0 0
0 0 0
0 0 0
0 0 0
0 0 0
0 0 0
0 0 0
0 0 0
0 0 0
0 0 0
0 0 0
0 0 0
0 0 0
0 0 0
0 0 0
0 0 0
0 0 0
0 0 0
0 0 0
0 0 0
16 29 16
15 28 15
13 19 10
15 21 11
10 20 8
19 35 19
16 31 16
15 30 16
24 43 24
21 41 22
16 28 15
22 45 25
21 39 21
19 32 18
21 36 20
16 32 17
35 67 37
20 32 18
17 33 16
15 37 16
16 28 15
19 34 18
18 27 15
22 40 22
8 16 9
15 30 14
32 101 37
12 21 10
17 34 18
28 34 25
67 50 49
37 41 32
25 23 17
33 33 30
52 49 45
76 75 71
30 13 9
51 42 34
55 48 44
51 55 51
30 30 26
35 30 26
23 31 21
32 45 31
39 41 32
43 49 43
48 39 32
76 68 64
44 45 41
54 54 48
49 53 38
58 41 35
46 27 22
51 48 44
48 56 46
58 96 58
39 53 38
62 65 62
36 34 28
23 26 23
55 63 56
64 65 62
66 66 54
33 36 27
36 34 22
39 39 35
31 43 31
47 61 46
30 30 22
26 35 26
39 33 32
38 37 29
42 46 38
48 37 33
57 36 27
44 45 38
43 35 29
49 39 32
50 68 49
39 46 38
39 38 25
31 36 25
32 44 33
41 47 40
61 59 51
42 42 37
34 41 29
41 43 33
44 42 38
38 51 39
64 51 48
42 46 29
62 61 56
44 38 31
27 27 19
33 43 28
49 50 42
64 53 48
41 42 39
40 43 36
33 42 28
45 41 34
31 39 31
52 45 33
29 32 27
41 45 40
37 45 36
39 44 37
55 45 40
35 61 36
38 36 33
56 46 43
58 57 57
90 61 56
52 55 51
34 38 34
56 57 56
34 42 33
39 26 21
50 50 42
51 55 47
54 61 52
35 41 33
63 57 55
30 39 30
44 46 40
40 27 26
42 46 40
61 56 45
67 56 52
35 38 32
54 52 49
29 36 26
50 57 47
28 20 17
43 54 42
52 36 30
46 55 46
43 43 37
36 37 32
53 52 46
45 44 42
41 48 41
32 34 21
55 51 43
44 46 31
33 34 27
38 28 23
42 33 24
52 44 40
64 58 53
23 32 22
33 35 32
44 42 33
32 30 26
42 36 32
36 33 27
35 37 31
45 45 39
70 67 62
49 49 46
52 49 42
59 54 53
66 47 42
35 32 28
54 51 45
51 33 28
43 48 42
39 39 28
48 48 39
45 43 35
78 73 71
47 70 41
41 45 34
41 44 40
38 31 29
42 35 32
36 37 30
48 39 30
57 62 55
41 40 30
48 44 38
56 42 37
63 66 61
61 65 59
54 36 34
38 34 27
33 33 25
46 48 37
51 34 33
80 60 50
68 52 47
42 38 35
52 64 53
57 45 39
53 47 40
46 43 34
45 47 42
45 47 43
44 40 33
47 46 37
38 44 36
69 59 55
49 48 43
65 49 42
50 48 46
48 45 39
43 46 36
108 36 32
27 28 22
51 39 31
35 46 35
44 41 38
76 64 58
52 50 45
48 43 37
84 85 78
40 34 29
76 69 66
47 53 44
41 44 39
44 39 35
71 66 60
42 39 33
44 39 31
56 58 53
60 45 42
52 50 44
50 53 45
63 65 53
51 38 33
33 42 33
59 39 36
55 56 54
35 27 23
58 52 46
55 42 40
59 42 37
58 45 43
37 33 27
52 33 26
44 40 37
50 41 37
54 58 44
49 47 37
49 48 41
55 58 55
50 42 34
65 57 52
34 40 30
52 43 40
53 49 48
63 50 44
74 43 34
61 61 53
63 55 45
63 52 47
43 36 30
53 35 34
42 41 35
55 50 42
51 34 31
51 49 47
54 35 35
47 37 32
36 39 32
47 35 34
47 48 33
48 43 39
60 61 56
64 50 49
74 69 65
37 34 31
62 44 42
49 39 38
57 56 52
50 45 39
44 32 32
55 49 44
44 40 35
46 36 32
41 32 27
49 51 37
33 31 27
62 55 50
46 41 36
44 42 39
55 50 42
53 46 46
50 33 27
65 54 49
39 45 32
38 39 34
43 44 34
60 56 51
55 32 31
53 55 40
57 54 54
66 26 26
46 37 30
64 55 48
57 61 57
46 41 33
35 36 27
53 52 48
58 44 42
48 53 41
49 42 38
49 49 38
28 32 21
47 34 33
59 59 49
56 57 40
71 65 64
47 33 29
66 51 49
54 46 42
47 44 37
40 37 29
36 43 37
59 51 50
63 51 48
58 59 51
48 118 50
56 54 52
43 26 26
65 61 54
74 62 60
38 36 33
52 44 42
48 34 30
38 39 35
50 45 40
48 36 33
48 43 26
37 32 28
65 62 54
44 37 32
55 42 32
67 60 52
70 52 48
38 28 22
59 54 53
49 43 39
49 39 38
64 51 48
41 42 37
54 46 38
67 61 61
59 41 41
35 24 23
56 25 25
54 50 49
62 51 49
37 30 28
43 37 32
46 40 32
61 58 53
42 38 30
43 34 27
51 44 41
55 40 35
63 55 48
53 50 44
37 36 34
56 46 42
35 34 28
52 25 24
46 43 37
62 52 49
62 42 39
57 46 43
66 54 49
42 33 27
54 40 39
44 32 28
38 31 29
37 32 28
64 51 47
40 32 29
53 43 41
64 38 37
63 58 52
37 28 28
46 45 35
70 59 57
54 48 46
55 49 36
54 39 37
58 34 31
50 34 30
52 48 38
35 36 29
53 32 32
50 48 40
48 42 40
56 38 35
59 50 46
61 43 41
52 34 34
43 38 30
47 45 39
49 36 35
52 47 43
44 36 35
58 38 32
41 32 29
59 44 44
48 41 37
70 56 54
53 54 45
54 39 33
64 47 45
54 41 37
61 59 54
54 50 47
31 26 17
63 54 49
51 42 36
65 39 37
49 35 35
57 46 45
61 36 36
71 70 68
59 49 40
50 47 37
48 42 41
49 34 30
45 34 30
64 40 38
156 150 148
54 40 37
42 30 30
42 38 33
49 38 34
37 32 26
63 59 56
62 46 44
64 56 53
49 40 36
33 31 27
51 23 23
47 31 26
45 34 33
57 47 39
47 35 30
48 40 40
34 34 31
58 27 25
34 27 25
76 61 48
69 38 38
56 53 49
42 36 25
95 86 84
48 38 36
48 41 39
52 26 25
28 31 26
50 42 42
49 49 45
43 30 25
51 49 37
59 50 46
37 27 27
41 39 37
48 45 39
29 19 17
49 43 37
72 54 52
56 46 41
88 38 34
36 39 35
54 43 42
45 39 30
32 28 22
39 25 24
61 34 33
60 45 43
61 56 54
43 41 31
56 51 44
44 34 28
56 40 39
49 41 39
48 50 43
58 41 36
47 40 39
40 35 31
50 32 30
70 55 52
39 42 30
47 34 32
46 45 40
46 37 36
50 45 44
45 31 28
58 58 53
52 31 31
46 18 18
46 39 34
44 32 32
48 35 35
60 54 53
50 29 27
42 37 37
41 17 17
45 32 31
48 40 33
64 49 49
32 24 22
68 41 37
45 29 29
43 35 34
40 20 19
48 51 41
43 38 30
91 86 86
59 41 40
36 27 25
52 35 35
44 43 39
43 32 29
48 38 33
60 38 34
42 27 26
34 24 24
51 41 41
59 36 36
40 23 22
46 32 32
48 40 38
36 37 33
47 28 27
40 25 21
37 30 27
56 54 51
58 48 48
41 19 19
59 38 36
41 35 31
51 47 45
46 52 38
39 26 25
35 9 8
27 7 6
28 6 4
29 8 7
36 9 9
18 6 4
27 8 7
66 18 18
54 16 14
26 8 6
36 9 9
75 11 11
44 12 11
31 8 7
52 10 10
49 15 13
46 12 11
34 10 9
53 14 14
36 9 9
42 10 9
32 8 8
40 11 10
30 9 8
60 17 16
57 9 8
44 11 10
20 6 5
29 8 8
0 0 0
0 0 0
0 0 0
0 0 0
0 0 0
0 0 0
0 0 0
0 0 0
0 0 0
0 0 0
0 0 0
0 0 0
0 0 0
0 0 0
0 0 0
0 0 0
0 0 0
0 0 0
0 0 0
0 0 0
0 0 0
0 0 0
0 0 0
0 0 0
0 0 0
0 0 0
0 0 0
10 17 10
25 48 28
14 26 15
21 36 21
19 33 17
21 34 19
18 30 17
28 32 18
22 41 23
20 34 18
19 34 20
13 21 12
22 41 22
19 29 16
18 35 19
25 42 23
17 27 14
18 32 18
15 27 15
30 25 13
35 66 37
21 42 22
21 35 17
15 33 17
15 19 11
17 31 17
19 23 12
18 27 13
19 22 12
19 31 16
25 24 21
53 41 36
28 20 17
41 48 41
40 28 24
35 36 32
33 29 24
28 30 24
42 53 42
47 40 32
34 36 26
30 17 14
31 34 29
23 25 14
23 28 18
44 46 38
41 46 36
28 29 27
50 48 43
49 43 36
48 49 47
36 41 31
30 30 22
13 18 10
31 27 19
29 28 20
32 33 25
45 42 38
47 45 38
43 47 30
49 42 37
54 61 52
37 39 31
44 40 38
25 33 21
86 97 86
19 26 19
42 46 39
30 39 29
36 39 30
55 57 48
52 51 47
41 31 25
39 36 35
28 35 26
38 34 27
31 27 23
44 49 45
42 35 28
36 34 26
40 48 36
48 44 41
54 58 52
44 48 42
64 64 49
43 42 33
54 48 37
81 54 36
38 41 34
58 55 52
45 48 42
35 31 24
72 43 37
26 32 21
31 34 26
32 36 22
26 35 21
48 44 40
43 42 33
52 54 46
40 43 35
49 51 36
36 37 28
49 50 39
32 44 30
49 45 36
31 29 23
25 28 19
37 35 31
43 44 28
44 49 40
55 41 34
46 41 30
53 66 50
42 40 31
30 33 30
42 39 37
29 27 22
42 40 31
50 58 49
46 47 42
50 52 45
29 37 29
46 56 43
48 44 40
44 41 34
38 44 33
30 32 25
43 46 41
43 41 35
22 29 22
39 39 33
49 33 27
52 48 45
35 28 24
33 37 27
35 30 24
27 33 24
47 46 39
29 30 22
74 74 68
47 54 36
58 59 53
64 56 49
74 56 55
51 38 32
34 37 34
50 54 39
43 78 45
43 42 37
48 51 42
38 46 37
47 52 43
41 43 38
33 31 27
53 48 44
42 39 31
34 35 27
44 55 38
47 40 38
87 84 82
79 76 71
27 32 26
43 45 41
55 50 45
75 72 56
52 51 46
47 53 42
45 46 44
50 48 44
44 50 43
59 60 50
54 53 45
51 44 42
44 53 44
50 54 49
69 73 69
62 53 43
48 51 37
44 28 24
60 49 43
47 33 26
51 45 40
38 44 38
37 50 34
41 39 35
61 61 49
41 43 36
41 50 41
43 41 30
55 35 30
40 35 32
62 61 52
56 55 53
61 59 53
32 31 28
38 49 36
66 41 35
43 49 42
37 40 35
20 27 20
53 42 40
24 20 19
33 33 32
44 49 42
50 55 49
63 59 52
47 39 35
35 35 32
43 54 43
44 40 38
35 33 25
52 47 35
46 50 43
64 32 26
29 37 26
61 63 59
32 34 29
41 38 30
41 42 37
40 45 37
38 40 33
37 28 24
53 49 40
55 52 49
49 46 42
48 40 33
46 46 36
30 28 23
50 48 42
43 41 33
50 40 38
49 44 41
53 60 43
61 60 55
50 51 46
31 37 29
49 43 42
54 59 52
46 44 37
53 44 37
59 42 38
48 40 40
64 65 59
57 53 49
35 32 28
43 43 40
49 51 43
26 34 25
74 59 57
37 44 35
54 47 45
42 35 32
41 38 32
65 57 51
51 49 36
46 44 41
34 37 33
36 31 25
58 47 43
34 22 16
60 48 44
53 36 32
58 39 36
36 34 29
56 45 41
41 37 33
66 54 48
47 37 36
44 34 29
48 34 30
30 27 24
37 34 27
57 52 51
85 72 67
50 47 40
35 39 32
48 47 43
34 32 22
55 40 38
47 43 42
40 38 27
36 35 35
38 46 33
79 26 25
36 39 32
59 40 33
56 53 46
53 41 37
42 32 27
44 47 41
49 40 36
51 49 46
47 38 38
75 75 71
45 29 28
41 40 37
51 42 37
38 37 34
49 32 32
47 35 31
49 36 32
55 40 36
41 29 24
63 51 48
40 38 35
42 46 40
42 38 36
49 56 47
42 34 33
50 49 45
39 35 34
49 45 39
62 76 55
46 37 33
41 27 22
58 50 47
53 40 35
58 52 45
124 33 22
56 46 41
38 32 28
48 41 33
62 50 44
62 42 39
38 49 37
40 25 18
37 34 29
75 66 56
38 32 29
55 52 48
33 40 31
33 32 26
48 41 34
39 48 37
58 48 45
43 44 39
51 52 47
52 45 39
45 47 40
34 25 16
55 49 44
62 52 46
36 30 28
55 36 36
49 34 30
56 42 37
88 44 42
53 40 38
61 49 45
61 50 46
68 45 42
61 54 53
54 38 34
55 49 48
31 32 27
66 46 45
69 55 51
50 46 44
57 55 49
54 52 47
40 32 26
95 44 36
55 53 45
46 35 27
42 40 38
45 35 33
40 35 33
57 43 38
34 23 22
48 45 44
44 39 36
54 57 45
31 25 23
47 37 37
67 29 28
35 41 32
46 39 36
36 28 25
44 33 30
51 44 42
48 34 32
70 45 36
60 38 33
53 56 52
46 36 30
56 48 41
49 33 31
57 59 50
40 35 30
50 47 35
44 33 30
50 33 31
43 33 29
43 33 30
41 34 30
60 50 48
89 82 81
60 38 31
80 73 72
60 50 49
55 39 35
47 34 31
46 38 33
39 26 26
45 34 32
36 29 29
44 32 32
64 72 56
65 56 55
56 42 41
55 64 48
59 53 45
37 33 26
66 49 48
63 55 52
50 44 40
94 55 51
42 26 21
54 40 37
42 38 34
55 20 15
48 39 34
54 40 39
31 23 22
65 42 41
53 30 29
42 31 29
43 46 37
63 55 53
53 40 35
36 32 28
51 37 34
64 58 48
42 31 25
61 50 47
72 63 61
51 38 35
35 22 19
110 55 49
42 35 31
56 44 36
43 19 18
48 45 38
56 48 44
43 36 32
40 30 25
61 51 45
49 37 37
43 33 32
41 35 30
59 35 34
60 55 53
50 33 30
77 44 44
71 63 62
41 37 31
70 66 66
62 59 44
32 11 9
88 80 79
51 35 32
61 55 49
36 29 18
111 52 51
47 38 32
55 43 43
54 24 21
45 39 39
45 34 31
55 33 33
38 24 24
53 24 21
71 64 64
44 42 40
43 37 30
33 27 22
56 36 29
50 40 38
55 40 39
44 30 25
43 41 31
40 25 25
46 28 23
45 35 32
91 34 34
58 51 46
75 56 54
35 18 17
29 22 22
37 31 26
48 30 28
47 43 42
46 38 34
56 31 31
45 31 29
56 37 35
57 36 36
38 22 18
44 34 32
32 35 23
63 51 49
59 52 50
36 21 15
43 25 25
58 51 46
47 34 33
47 46 40
47 48 41
72 65 61
41 31 31
51 50 42
62 52 51
50 29 29
59 49 48
45 36 34
40 38 27
60 52 49
39 20 20
56 27 22
52 46 46
41 31 31
28 15 14
38 39 34
51 37 34
54 28 22
62 44 44
66 48 47
44 36 33
59 66 48
47 30 26
41 39 36
46 29 24
45 34 34
44 49 42
66 37 33
43 32 30
41 35 35
49 32 29
54 44 44
39 28 28
40 27 22
39 36 30
54 14 14
44 8 7
20 6 4
44 11 10
36 9 9
51 14 14
44 11 11
31 7 6
50 14 13
27 5 5
82 21 21
49 13 12
38 10 9
45 12 11
44 11 10
77 20 19
52 12 9
46 11 10
41 9 8
28 5 5
55 14 14
47 13 13
28 9 7
31 7 6
63 18 17
45 12 12
41 10 10
26 7 7
40 12 10
54 9 9
0 0 0
0 0 0
0 0 0
0 0 0
0 0 0
0 0 0
0 0 0
0 0 0
0 0 0
0 0 0
0 0 0
0 0 0
0 0 0
0 0 0
0 0 0
0 0 0
0 0 0
0 0 0
0 0 0
0 0 0
0 0 0
0 0 0
0 0 0
0 0 0
0 0 0
0 0 0
0 0 0
7 15 8
18 35 20
21 35 18
15 25 14
17 25 13
23 31 17
19 36 20
14 25 14
16 34 16
20 37 21
13 11 6
21 35 20
11 14 6
18 33 17
17 30 17
16 22 13
43 82 46
18 37 21
11 25 9
17 31 17
10 19 9
29 49 27
15 22 12
14 25 14
14 32 15
16 30 17
19 25 14
18 25 13
19 37 19
13 18 10
19 32 18
16 22 16
41 45 40
29 33 29
38 40 35
25 33 26
47 66 46
36 27 23
60 64 60
27 32 27
40 43 40
46 41 33
42 39 27
29 33 28
53 43 38
20 25 17
43 43 39
27 30 26
25 33 22
42 34 33
33 33 24
40 37 32
43 38 37
50 49 42
29 32 19
33 29 25
34 30 25
31 25 22
54 54 52
38 41 32
53 56 49
41 41 36
39 30 27
63 54 45
26 27 17
40 38 30
32 34 30
32 39 32
33 39 32
52 39 35
48 58 44
55 52 49
33 38 26
49 46 41
49 53 42
32 37 32
41 36 25
30 35 28
48 32 28
38 32 27
46 43 36
32 34 31
44 50 43
36 32 26
30 43 28
46 40 37
36 48 37
63 62 57
28 31 23
41 40 35
45 41 34
33 41 32
29 31 27
44 43 38
48 31 22
30 27 18
30 43 30
37 23 17
55 54 45
31 36 29
46 41 34
40 43 40
45 47 42
50 43 37
36 39 33
40 38 32
66 56 51
44 47 40
45 54 37
42 42 35
43 43 27
49 48 40
39 28 26
50 51 43
39 41 36
39 38 27
45 46 37
45 47 38
68 41 36
55 40 36
28 38 25
60 62 58
29 42 29
48 48 42
35 26 24
37 43 31
37 39 28
33 45 35
64 69 64
98 53 49
48 42 37
37 46 35
44 41 37
67 62 60
41 44 35
42 41 38
48 49 39
55 46 42
67 53 46
52 56 48
41 39 34
33 32 26
42 30 25
49 54 46
50 53 45
27 29 20
35 35 26
39 30 22
32 39 30
34 36 30
39 35 27
45 42 31
58 49 39
34 30 19
47 54 42
36 37 27
47 40 36
51 52 47
45 36 28
50 44 43
43 35 29
40 42 29
35 40 30
38 39 30
52 51 43
34 33 25
44 52 41
40 36 35
60 57 45
57 40 35
49 41 33
37 38 27
39 43 39
50 53 50
55 46 42
46 42 31
41 39 33
38 32 28
43 33 28
44 40 36
41 39 31
67 59 56
54 47 41
38 40 31
51 45 34
53 45 39
38 42 35
43 37 35
31 32 25
37 43 31
57 46 46
53 49 37
55 54 44
24 24 16
38 31 27
37 39 33
44 34 31
52 42 34
54 55 49
55 55 48
40 49 38
42 34 31
73 42 37
37 26 22
44 40 33
58 54 51
55 41 37
39 44 38
40 41 36
35 41 33
41 41 30
54 46 42
48 61 43
50 40 30
41 39 33
49 53 49
69 51 45
43 44 37
50 47 44
38 41 38
62 65 53
34 31 28
45 46 42
41 39 38
43 46 40
26 30 25
55 47 42
55 38 27
84 35 34
68 73 68
64 68 60
56 54 49
46 31 27
40 39 35
52 51 43
58 56 50
70 48 44
42 36 34
49 49 47
42 46 39
48 31 30
39 36 29
95 99 92
63 58 52
25 16 15
53 49 43
63 66 60
50 42 38
56 57 48
42 29 26
57 55 53
33 39 32
39 31 23
37 36 35
52 50 43
31 29 25
37 35 26
49 41 40
45 37 31
44 46 41
57 60 55
58 35 29
53 47 39
38 38 27
56 50 45
44 46 39
73 66 66
58 52 43
50 36 28
47 40 38
51 40 36
42 41 37
51 37 33
55 54 52
60 37 29
42 41 34
62 69 61
53 41 39
44 43 40
35 30 22
70 56 47
47 47 42
68 98 63
61 46 37
102 96 95
60 56 54
93 49 44
43 36 29
76 69 66
61 37 34
56 53 50
40 42 36
62 58 54
56 46 45
44 38 33
75 66 59
92 99 92
54 43 35
55 37 30
61 50 50
43 48 39
49 24 23
49 48 39
57 50 49
50 41 38
41 38 33
48 41 39
51 40 40
77 72 70
49 45 35
69 41 38
51 39 33
41 37 35
59 33 31
46 37 33
45 38 38
63 60 58
63 62 57
45 43 33
63 41 38
38 28 23
60 47 39
36 29 27
52 39 39
33 34 29
44 35 27
51 56 49
37 38 34
63 52 47
51 50 46
30 10 7
57 42 39
63 42 39
39 46 39
51 48 46
49 49 43
41 27 26
60 42 39
48 46 41
70 64 59
61 40 33
58 53 51
109 51 47
34 36 31
50 48 42
50 38 31
57 48 36
41 36 35
54 51 46
51 39 35
38 39 34
46 39 37
44 35 32
39 44 36
60 54 54
53 37 34
42 35 33
45 41 37
58 47 43
60 42 41
63 30 30
98 76 68
40 33 30
36 38 28
34 27 26
49 36 34
35 33 24
57 28 24
45 38 38
69 84 63
53 52 44
30 23 18
59 37 35
187 181 181
52 43 37
53 43 39
46 37 35
72 58 57
74 63 63
44 43 34
50 46 43
57 43 39
50 40 37
59 44 37
63 47 47
43 34 33
67 72 67
42 44 33
51 39 36
36 26 25
80 63 61
45 39 35
78 54 53
59 46 44
43 52 37
35 33 30
46 40 35
49 38 34
49 41 38
44 34 30
60 61 52
93 55 53
49 43 41
43 42 39
57 47 45
40 32 31
49 31 28
51 44 44
55 43 41
40 31 31
38 29 28
41 38 30
40 12 12
44 44 39
41 36 35
51 39 34
64 52 47
57 53 50
45 35 30
58 43 41
63 45 44
53 45 42
53 42 41
66 58 58
44 34 31
42 47 35
48 28 26
42 26 22
48 37 35
48 34 31
55 32 31
45 43 32
65 52 49
77 56 54
67 56 44
102 48 46
34 24 20
61 53 46
59 48 35
46 41 39
36 28 27
46 41 41
45 33 28
68 44 40
68 38 38
32 28 26
51 44 41
50 31 27
55 49 45
51 40 35
42 31 26
61 43 40
55 55 47
54 29 29
43 31 31
54 36 36
74 69 69
49 21 19
46 29 24
54 43 42
40 30 30
53 31 27
36 29 29
48 32 28
56 41 40
63 48 48
44 34 33
39 39 33
61 52 47
62 32 30
51 39 33
61 39 39
51 41 38
80 37 34
39 32 25
51 34 34
44 35 30
21 17 14
51 47 47
55 54 53
44 39 37
62 47 43
32 19 18
70 23 23
47 41 29
52 38 38
79 68 66
46 35 34
49 31 30
42 30 30
95 80 80
42 23 21
44 36 34
65 40 39
59 22 20
54 37 33
43 40 38
61 23 20
50 32 27
42 23 22
61 55 53
49 24 22
55 37 36
40 28 28
76 37 34
53 30 28
51 44 36
34 31 31
58 36 35
38 23 22
60 54 52
37 32 28
41 46 29
44 35 35
63 36 36
34 20 20
38 32 32
56 45 44
40 37 29
42 32 27
51 36 36
46 39 37
61 49 44
42 27 23
37 23 23
50 37 37
58 35 35
39 28 27
51 41 38
40 17 17
35 10 9
33 30 30
52 34 31
54 41 37
33 17 16
50 24 24
46 39 39
54 52 49
30 10 8
71 28 28
42 32 28
44 32 28
34 8 7
45 10 9
39 10 10
39 8 8
30 7 6
35 9 8
46 10 10
52 12 11
41 10 9
53 15 14
37 7 7
46 12 10
29 6 6
66 17 17
47 11 10
43 10 9
38 11 10
62 16 15
54 14 13
35 8 7
48 15 13
41 10 9
40 11 10
46 12 11
36 8 8
42 11 11
64 17 17
47 13 12
37 10 10
47 13 13
28 8 7
0 0 0
0 0 0
0 0 0
0 0 0
0 0 0
0 0 0
0 0 0
0 0 0
0 0 0
0 0 0
0 0 0
0 0 0
0 0 0
0 0 0
0 0 0
0 0 0
0 0 0
0 0 0
0 0 0
0 0 0
0 0 0
0 0 0
0 0 0
0 0 0
0 0 0
0 0 0
0 0 0
17 31 17
24 31 18
25 41 23
23 40 22
21 45 23
21 29 16
15 26 13
20 28 15
11 29 11
22 41 22
19 33 18
23 42 23
14 26 14
24 41 22
13 25 12
14 28 12
15 25 13
18 33 17
24 36 20
20 35 19
11 17 10
18 34 19
20 31 17
22 42 20
14 24 11
19 30 15
14 19 10
16 28 15
14 25 13
10 21 12
19 39 18
21 30 17
22 29 20
37 38 36
44 52 37
45 42 32
57 51 50
48 51 47
64 49 46
41 38 32
44 44 40
32 25 21
26 25 17
28 36 28
37 42 30
64 65 64
41 45 36
21 35 22
53 44 35
43 41 36
41 43 35
60 51 33
33 44 33
46 62 47
100 55 52
52 41 38
63 58 54
48 49 47
34 40 33
169 32 27
54 56 48
29 38 28
50 47 44
41 48 42
60 80 49
31 38 31
38 31 22
52 42 36
29 27 22
47 48 38
48 50 46
40 39 27
26 34 24
38 26 17
50 39 35
34 38 32
46 47 42
45 44 36
40 32 21
31 34 24
27 36 25
30 42 30
56 56 51
58 57 48
31 42 31
48 46 32
70 68 67
24 37 24
44 45 36
50 41 36
45 52 42
43 45 41
38 40 37
36 33 29
52 54 44
34 35 32
52 53 45
54 53 46
38 35 24
38 51 38
38 29 25
45 39 37
42 38 33
51 46 40
55 50 45
40 40 33
42 46 37
48 45 36
41 41 35
29 32 25
38 27 18
35 37 32
51 48 45
36 46 35
58 46 43
42 41 37
38 28 21
38 36 33
41 40 33
42 36 28
62 61 53
38 38 36
49 44 40
106 100 99
41 47 41
57 52 49
48 43 36
46 43 34
31 39 32
46 41 36
59 58 51
39 40 32
29 38 27
35 43 36
62 61 49
45 26 20
52 48 39
38 36 30
49 41 36
34 37 30
40 43 29
44 30 29
40 41 36
30 37 28
54 38 35
33 39 30
56 49 46
37 35 26
39 40 32
31 39 26
60 57 52
41 29 24
55 61 55
62 57 51
34 36 29
31 29 22
37 40 33
44 40 34
82 84 78
50 57 40
37 30 25
56 41 37
40 26 21
39 47 39
45 40 35
46 44 41
52 49 42
71 63 58
24 41 25
49 53 46
41 50 41
57 58 51
46 36 30
51 52 44
31 38 30
48 52 43
66 45 40
42 30 22
48 43 39
50 51 45
69 51 47
54 57 53
48 47 37
34 35 29
49 47 43
51 46 41
43 33 28
40 33 31
56 41 37
59 56 54
61 50 45
33 33 23
66 65 59
61 40 36
35 39 32
37 43 32
53 50 45
44 51 40
58 46 40
47 39 31
50 36 31
45 48 43
56 52 41
47 52 48
46 42 39
51 47 34
48 47 44
41 38 31
30 37 30
35 34 25
60 62 53
55 54 48
40 48 38
65 71 65
41 41 35
46 40 36
79 76 73
47 42 32
86 88 86
47 42 38
35 35 32
66 56 56
35 35 30
49 40 36
63 61 53
55 50 46
69 68 66
71 64 57
52 53 45
38 42 32
53 53 44
34 37 28
53 48 39
53 49 44
52 43 39
57 45 40
50 48 43
45 37 35
36 32 27
47 47 43
49 43 41
41 42 37
64 56 54
38 44 38
38 40 29
49 46 46
59 58 55
42 38 35
41 39 39
58 47 47
46 46 38
56 52 44
42 36 32
39 36 30
58 42 37
54 41 38
53 38 36
60 45 42
78 73 70
65 56 53
39 31 28
56 57 44
43 47 37
48 49 44
56 39 33
52 46 41
73 64 63
50 46 41
33 29 22
44 57 43
53 56 51
70 64 58
72 69 68
37 31 30
59 37 32
52 46 42
55 43 41
25 26 16
42 41 36
52 38 32
55 51 47
40 37 28
39 31 22
44 52 44
44 45 40
24 28 21
67 63 62
50 47 37
53 50 45
30 26 22
53 33 30
42 41 40
50 43 39
53 41 39
84 77 74
55 40 40
50 41 35
64 38 38
48 46 44
52 39 34
56 45 39
37 37 32
47 50 46
72 65 63
39 38 34
51 53 45
35 29 27
44 50 40
62 63 49
58 19 18
41 41 33
67 46 44
43 42 40
46 34 26
47 46 36
60 51 44
46 41 41
37 30 30
62 57 53
41 40 34
41 43 36
43 40 32
48 46 41
60 51 47
48 38 35
40 37 36
54 42 41
51 49 45
45 40 38
61 42 38
39 31 27
53 49 45
60 61 55
33 30 29
55 52 49
50 34 33
48 40 39
54 44 43
47 32 31
60 53 48
53 33 32
51 39 31
59 52 47
47 42 39
52 49 44
87 42 41
65 64 62
40 34 32
34 30 21
46 34 29
46 29 22
44 40 38
44 32 31
46 40 39
43 31 29
51 39 38
61 41 40
43 37 37
59 48 46
69 51 44
68 68 66
56 47 47
54 48 42
49 37 34
84 50 48
48 38 33
23 27 20
62 53 49
47 40 37
57 46 46
52 31 23
61 39 36
67 64 62
62 60 59
49 45 41
64 53 51
42 30 29
39 42 31
55 52 49
66 64 59
61 38 34
57 42 39
59 38 37
50 39 38
54 54 45
53 39 35
52 42 41
83 55 53
32 30 26
42 41 37
45 35 28
55 51 46
54 40 34
50 40 35
38 29 26
50 45 40
63 41 39
42 27 20
61 40 37
67 43 43
52 51 40
53 32 28
49 39 37
57 55 50
51 44 39
51 51 48
59 48 46
60 58 51
54 51 51
50 34 30
42 38 33
62 52 50
53 49 46
79 70 66
36 31 26
31 17 14
38 33 30
47 29 29
72 35 32
69 25 24
56 54 44
85 84 84
57 32 32
66 29 21
50 43 36
53 36 36
51 41 32
40 31 30
49 27 24
44 29 23
64 43 41
46 36 35
42 39 32
55 53 44
53 43 42
55 42 34
77 58 58
55 46 43
76 74 72
53 36 31
52 41 39
62 51 49
35 33 28
47 34 31
78 35 32
54 46 43
60 35 28
38 31 24
39 27 24
45 37 31
46 27 27
51 43 40
65 40 32
42 30 26
31 24 23
53 48 45
44 40 35
53 30 30
49 34 34
43 30 23
50 44 36
44 22 20
43 36 28
39 27 27
53 31 30
28 30 27
57 48 42
57 44 44
41 34 25
61 59 58
50 38 33
46 31 31
55 24 24
45 25 19
68 48 41
65 60 58
59 52 48
47 38 33
44 37 30
72 53 48
49 23 22
46 38 36
38 45 25
40 30 29
51 40 37
38 31 29
44 40 36
65 26 25
51 47 42
51 46 45
32 18 16
47 36 36
58 47 45
56 35 33
52 45 45
57 38 33
36 9 9
61 48 45
37 28 27
44 20 17
46 30 28
47 33 33
48 29 25
50 37 32
46 38 33
52 38 38
35 29 29
46 35 35
51 46 40
54 43 42
30 19 18
57 53 48
34 16 16
61 49 46
44 37 31
40 32 31
53 36 31
55 38 25
45 30 24
29 38 22
46 22 21
51 40 36
62 46 45
35 9 9
42 31 31
40 33 30
59 43 34
47 43 40
55 47 44
43 35 35
45 39 37
43 36 35
32 26 21
42 30 26
51 45 45
45 34 33
24 21 19
50 47 45
55 30 29
46 46 40
58 36 33
62 15 14
40 11 10
27 7 6
36 8 7
38 10 10
36 9 8
62 17 16
60 15 15
48 11 10
29 7 6
38 10 9
29 8 6
86 16 16
41 11 10
37 9 9
42 12 10
45 9 7
49 13 12
38 11 10
48 12 12
47 13 12
65 18 17
38 9 8
46 13 12
42 11 10
53 14 13
28 8 7
27 9 6
30 8 8
45 12 11
48 13 13
20 5 5
0 0 0
0 0 0
0 0 0
0 0 0
0 0 0
0 0 0
0 0 0
0 0 0
0 0 0
0 0 0
0 0 0
0 0 0
0 0 0
0 0 0
0 0 0
0 0 0
0 0 0
0 0 0
0 0 0
0 0 0
0 0 0
0 0 0
0 0 0
0 0 0
0 0 0
0 0 0
0 0 0
13 25 14
11 24 12
21 36 20
24 42 23
11 15 8
13 25 14
23 47 23
23 40 23
28 22 11
17 28 15
16 26 15
18 36 19
24 37 21
19 33 16
21 34 19
27 40 22
12 19 10
18 34 19
15 29 16
9 15 7
21 36 20
14 25 14
15 25 14
15 22 11
14 22 12
11 22 12
26 66 29
25 32 18
28 90 32
20 34 19
17 26 13
34 62 35
12 24 13
9 13 8
39 48 38
23 30 24
31 33 22
18 18 12
44 53 34
52 34 29
32 31 29
38 34 28
62 54 50
57 53 48
37 39 34
32 32 29
54 46 36
69 39 33
32 42 32
49 42 32
26 33 22
24 28 22
35 30 27
29 36 24
39 39 34
35 29 23
39 29 27
40 40 36
42 45 40
47 44 34
34 33 30
56 51 48
64 64 56
45 51 40
29 37 28
39 42 39
39 24 18
43 51 43
40 46 32
35 40 35
21 24 18
41 37 32
50 49 44
41 34 28
32 49 32
42 40 32
46 44 39
41 53 40
32 41 31
56 52 40
40 36 33
62 58 52
30 32 25
40 34 33
62 51 45
55 47 39
36 42 32
24 29 16
51 44 42
26 27 23
52 60 51
47 49 27
55 50 45
52 49 46
36 35 29
37 38 28
15 23 15
36 39 29
42 37 30
44 33 29
46 37 30
48 48 42
29 33 29
42 39 36
23 18 12
22 19 18
59 52 49
37 35 32
44 54 42
96 169 104
39 59 40
30 36 26
57 55 52
46 42 35
31 31 23
37 40 30
39 31 28
46 48 39
44 42 37
44 49 41
36 44 31
59 44 40
48 28 24
52 54 49
65 55 53
54 60 53
36 36 31
32 37 26
53 35 26
44 45 40
46 42 36
51 49 42
25 43 27
38 35 27
37 28 20
44 47 43
48 46 42
55 47 44
51 37 35
28 27 16
48 36 29
50 47 38
37 34 32
42 41 35
47 44 33
53 50 39
60 51 44
42 31 26
53 64 49
55 43 38
52 48 44
60 55 47
42 35 22
38 37 31
59 55 52
38 36 31
31 31 27
38 60 36
41 41 41
32 34 25
62 43 38
40 32 29
37 44 32
54 55 51
54 55 44
44 31 22
48 39 33
40 44 38
62 64 62
53 51 47
42 40 35
50 45 42
52 35 33
58 59 54
60 40 29
50 48 42
58 85 53
57 54 44
42 32 24
64 43 39
36 37 30
36 42 33
46 47 38
57 59 52
44 37 32
50 63 44
42 46 39
58 45 40
49 34 28
24 29 22
37 38 34
52 53 48
42 49 40
60 60 53
38 35 33
61 63 60
49 47 43
35 29 18
51 35 31
40 49 40
51 51 47
52 53 45
54 52 47
63 52 46
61 57 48
39 35 28
53 34 31
60 43 38
59 49 43
43 44 34
47 32 27
48 45 39
42 43 36
56 47 40
89 61 59
64 55 53
43 42 36
35 35 29
63 57 51
52 46 42
44 42 38
53 51 47
47 44 39
42 31 26
56 47 42
47 56 47
46 49 41
43 43 39
35 38 32
46 37 35
69 58 56
32 37 31
42 39 31
47 37 31
61 57 55
53 47 42
38 24 17
36 32 30
51 54 47
53 43 40
57 47 39
59 47 44
51 46 44
38 37 32
66 54 46
57 57 53
49 40 39
41 41 36
38 51 37
33 41 30
54 47 44
61 48 46
42 37 33
43 49 39
57 36 34
62 48 44
64 56 55
57 56 47
45 33 31
42 37 33
56 52 49
62 62 58
32 27 16
31 30 18
36 43 31
50 71 49
62 56 54
42 28 25
43 47 42
54 52 47
48 52 36
59 55 49
53 61 53
41 39 33
37 36 35
61 54 51
59 60 57
31 34 25
73 65 65
43 39 37
31 35 27
56 51 48
57 40 36
46 37 36
61 53 47
36 40 31
45 44 42
48 51 42
54 41 39
73 44 43
54 54 48
41 39 39
51 42 35
45 47 37
59 40 37
49 43 37
40 40 38
66 62 58
45 38 36
47 41 35
48 25 25
49 43 41
36 40 31
65 51 47
45 40 36
57 47 44
52 40 37
42 33 23
61 48 45
43 39 37
64 46 43
64 52 47
49 32 29
59 40 33
49 44 41
66 64 60
60 58 53
44 40 33
44 37 29
52 45 35
60 56 53
62 78 59
53 48 47
42 36 30
52 46 40
51 62 51
48 43 41
44 41 34
65 54 52
49 39 32
62 44 42
46 29 27
49 37 35
48 37 35
54 30 29
50 43 42
68 67 61
66 48 40
43 49 43
44 52 39
49 49 40
46 36 28
40 30 26
37 34 34
65 78 61
55 56 53
61 56 51
64 68 61
41 35 33
27 16 15
34 23 21
43 44 39
75 63 58
63 63 57
42 39 36
54 42 38
52 54 44
77 44 44
55 47 40
27 33 28
53 47 46
58 58 43
62 49 44
68 63 60
50 40 32
42 42 29
56 49 43
57 46 42
51 50 45
66 49 48
80 63 56
48 38 34
46 40 40
93 62 50
47 43 41
50 45 43
53 55 49
47 50 36
42 33 28
43 40 37
55 42 37
61 70 53
53 34 31
61 59 57
48 49 43
48 43 38
44 38 35
54 35 35
48 32 22
42 28 26
54 63 50
43 51 36
54 38 29
60 57 50
47 36 34
58 47 46
69 68 61
62 42 35
38 31 29
64 55 50
45 28 23
51 49 42
38 27 27
55 36 31
37 29 25
45 40 34
50 45 44
59 32 31
42 33 29
39 37 32
52 44 42
57 44 44
56 44 37
48 39 39
47 38 34
47 25 19
41 34 30
56 36 32
42 36 34
36 25 17
40 40 33
78 56 52
50 45 36
107 43 41
44 40 38
54 27 19
54 32 32
56 45 42
55 43 37
28 30 26
57 49 47
56 40 39
57 47 45
68 50 48
44 32 26
55 40 37
33 19 13
53 42 42
46 47 34
44 36 36
63 51 48
32 39 28
48 39 35
66 56 51
39 34 32
49 42 34
40 37 33
51 46 43
57 46 45
55 40 39
38 36 33
54 44 34
67 39 35
43 35 33
43 34 30
65 79 58
50 44 40
57 42 38
42 20 19
36 25 20
32 28 22
35 26 19
44 32 26
35 34 31
59 32 31
65 48 47
54 41 32
60 44 38
66 44 40
39 35 29
46 36 33
49 44 39
37 19 16
54 38 37
81 37 33
33 26 21
43 43 39
41 24 18
41 42 34
44 35 34
44 26 26
59 32 31
51 35 34
47 41 40
53 48 35
53 28 27
39 31 30
42 29 28
58 26 26
38 19 19
74 38 37
43 40 30
59 43 41
67 53 50
70 53 52
56 48 40
36 23 23
58 36 36
60 39 34
50 40 40
52 30 30
29 16 15
47 23 22
41 28 26
45 33 31
57 34 30
47 31 30
57 45 43
38 45 33
58 52 50
37 29 26
43 44 39
41 33 32
49 28 22
54 46 39
56 48 46
43 32 24
83 73 73
46 32 32
56 45 42
46 39 37
46 24 23
54 33 33
57 54 46
48 33 33
43 25 21
63 32 32
45 38 38
34 28 25
32 24 23
25 40 23
41 36 29
42 19 17
68 49 48
44 37 37
38 13 11
50 45 36
51 45 38
45 45 42
39 16 14
43 12 11
51 15 14
54 12 11
24 4 3
27 6 5
87 24 23
38 10 7
35 11 8
32 5 4
38 11 10
39 10 10
99 27 27
50 14 13
45 11 11
48 13 12
71 19 18
55 15 15
45 11 10
30 7 7
58 16 15
38 11 9
40 9 9
47 9 9
34 9 8
41 10 9
45 13 12
29 9 7
27 8 7
42 12 11
54 10 10
41 10 10
34 10 9
39 10 9
0 0 0
0 0 0
0 0 0
0 0 0
0 0 0
0 0 0
0 0 0
0 0 0
0 0 0
0 0 0
0 0 0
0 0 0
0 0 0
0 0 0
0 0 0
0 0 0
0 0 0
0 0 0
0 0 0
0 0 0
0 0 0
0 0 0
0 0 0
0 0 0
0 0 0
0 0 0
0 0 0
14 24 13
19 34 19
14 27 14
20 39 20
11 22 11
19 31 18
12 18 8
19 35 15
14 22 13
16 29 16
28 37 20
14 28 15
29 83 33
15 29 15
22 32 17
19 35 18
29 57 32
15 27 15
21 34 18
19 33 19
21 36 20
17 24 13
19 44 19
24 44 24
18 27 14
29 54 30
14 27 14
18 30 15
19 53 22
21 41 23
18 37 19
20 37 18
18 25 13
24 45 25
26 31 22
48 31 28
33 25 21
39 38 34
42 50 36
29 38 29
30 37 30
31 26 16
34 27 25
30 30 28
40 55 41
41 47 34
45 47 45
66 59 54
42 43 42
27 38 28
75 41 33
46 53 45
50 36 31
49 49 33
29 30 27
33 35 27
45 41 31
39 37 29
31 43 31
37 29 23
43 26 22
48 58 42
35 38 27
45 43 35
33 46 28
27 41 28
53 40 37
38 33 18
27 38 25
43 50 34
48 41 34
48 55 47
44 46 36
43 49 39
56 65 45
53 49 49
32 39 32
72 57 53
21 24 20
38 35 28
22 28 22
43 48 42
59 64 56
62 60 58
53 56 49
54 57 53
49 52 46
53 54 53
37 38 28
25 37 25
22 19 12
44 47 39
47 46 42
48 39 32
55 53 51
43 38 33
44 43 37
78 75 70
79 81 78
31 34 28
45 45 37
46 40 34
53 41 37
47 40 37
38 46 36
41 45 41
54 54 48
41 41 35
53 46 35
57 49 45
52 44 35
63 67 61
57 51 45
43 42 38
64 61 60
51 55 49
38 41 37
36 49 36
35 37 26
72 71 66
37 42 37
39 45 37
28 25 18
32 34 27
52 40 29
57 40 34
48 39 35
39 41 32
58 53 44
22 29 22
36 36 29
43 44 37
36 40 31
39 43 32
54 54 49
62 48 42
61 62 56
40 29 24
51 35 33
51 49 46
57 53 45
51 36 31
53 50 44
52 44 37
41 48 42
36 35 28
47 46 35
74 71 68
48 46 44
48 46 38
51 34 27
46 28 17
51 47 35
50 48 40
42 23 19
48 38 28
41 46 38
40 38 28
47 54 47
46 46 38
37 38 33
56 48 44
46 48 42
35 33 28
42 36 35
39 44 36
47 39 25
51 54 44
42 40 33
38 32 23
87 61 59
61 66 60
39 45 29
49 38 34
52 55 47
28 40 28
60 57 47
44 38 35
46 51 43
55 51 50
43 40 37
52 40 39
60 45 44
52 48 43
56 55 46
41 41 39
34 46 31
46 43 35
55 40 32
51 60 43
45 50 38
47 49 43
50 53 48
56 45 40
45 43 37
31 36 25
41 37 28
54 54 46
46 53 46
42 45 30
49 50 48
46 48 41
59 53 43
66 51 46
42 47 38
51 47 43
39 48 33
31 29 22
57 57 57
49 43 32
49 51 41
46 38 29
45 33 27
55 47 42
59 56 54
46 43 39
44 54 43
57 42 28
46 51 44
47 37 33
36 26 25
66 58 55
57 53 46
59 68 52
44 55 41
54 41 35
57 52 39
50 43 39
43 36 33
42 31 29
40 38 34
42 47 37
50 26 24
45 49 33
43 40 35
58 56 49
44 51 44
52 52 40
53 36 31
42 43 36
44 24 23
43 38 29
34 41 35
45 38 35
54 52 49
40 39 34
48 41 33
37 39 33
53 50 49
47 58 47
54 33 32
41 30 26
57 51 48
60 36 33
48 49 46
169 81 75
45 41 36
45 40 32
44 41 33
53 48 45
51 44 41
68 67 61
42 35 26
53 46 44
75 39 34
62 51 44
56 55 52
46 50 46
39 30 28
35 41 31
37 26 24
42 33 30
24 15 14
36 26 26
75 65 59
62 63 56
61 54 51
59 58 56
57 48 42
59 54 45
47 39 37
50 47 42
62 53 50
43 35 29
56 42 34
56 52 50
53 47 45
41 46 36
49 40 39
63 52 47
51 45 42
46 39 29
48 44 43
56 53 53
57 51 49
56 46 44
50 46 42
46 45 42
50 50 45
61 41 36
46 38 35
46 39 36
33 27 25
51 39 38
62 56 50
47 32 32
63 51 45
52 37 36
52 48 46
43 27 23
58 48 47
45 48 36
58 42 39
51 47 40
45 41 39
57 47 40
49 45 41
62 59 58
58 55 48
50 40 33
51 47 40
42 43 40
83 66 64
65 60 57
49 48 39
50 48 47
53 53 47
49 40 31
52 45 40
41 33 24
42 43 37
64 57 54
46 42 37
51 43 39
51 47 47
47 35 31
74 58 55
45 42 41
45 36 27
75 69 65
62 50 48
38 21 21
41 36 35
40 30 28
54 39 36
48 32 26
66 62 60
30 42 28
53 48 46
44 36 35
49 39 34
38 31 30
44 40 37
51 38 30
49 48 42
55 48 42
47 36 32
75 46 42
63 45 41
45 40 36
54 44 38
55 45 38
42 40 31
49 40 38
48 31 27
72 59 50
41 30 30
56 49 46
49 47 43
51 46 44
51 36 33
62 47 42
58 52 48
42 26 19
40 41 39
53 49 43
33 38 28
54 40 39
49 42 34
45 39 31
62 55 51
50 36 36
67 57 54
50 43 38
28 22 16
51 31 28
65 31 31
60 58 46
63 41 39
55 44 41
58 31 29
61 58 56
29 28 25
51 39 35
44 38 27
60 42 34
47 40 37
42 37 32
45 37 30
48 41 38
51 44 36
58 27 27
35 38 31
57 50 43
64 43 42
43 40 30
40 32 26
60 45 44
123 50 44
37 20 19
173 76 74
33 20 20
61 44 44
55 35 30
49 22 19
66 42 39
42 39 30
45 29 23
65 49 40
53 48 39
45 30 30
49 42 36
69 50 46
56 40 40
56 33 32
58 52 47
72 65 61
47 36 33
41 30 28
45 29 19
73 64 60
55 46 45
48 32 29
55 37 34
47 22 18
53 34 33
50 26 26
66 41 39
32 28 27
42 34 29
57 51 46
60 48 39
41 20 19
40 37 31
49 32 29
57 30 29
60 39 37
53 60 46
40 37 33
19 21 12
45 40 38
36 30 23
47 33 28
38 27 24
56 28 25
60 48 40
30 18 18
68 52 48
56 38 37
40 25 15
45 40 33
89 84 81
47 34 33
64 58 58
51 39 36
57 41 40
39 29 27
44 35 34
65 46 35
46 44 40
55 48 44
51 46 40
36 27 26
47 32 29
54 40 37
51 46 39
47 26 24
51 37 36
71 45 45
57 45 41
52 27 27
44 40 38
56 37 35
31 22 22
49 39 35
70 40 38
37 25 19
54 47 44
48 40 36
67 57 50
40 30 27
46 33 33
64 66 60
41 34 29
56 42 40
44 34 31
48 46 41
47 29 29
60 42 38
37 26 26
66 30 28
45 34 32
59 44 44
53 43 42
39 29 25
42 34 25
65 38 29
30 25 18
45 33 29
60 43 43
45 37 31
81 55 53
61 56 56
46 28 22
48 31 30
48 33 32
43 27 23
39 25 23
35 24 23
50 44 41
41 15 14
63 54 46
43 29 28
43 27 25
39 15 15
51 45 44
50 40 38
38 36 33
46 38 34
42 30 24
38 25 19
40 35 32
42 30 30
60 41 39
51 51 49
39 40 33
50 42 42
39 28 24
45 36 33
36 8 6
31 9 7
26 4 3
34 8 6
48 12 11
36 10 9
49 13 12
38 8 8
24 4 4
37 9 9
33 8 8
49 11 11
31 10 8
71 17 16
73 11 11
36 10 9
41 11 10
48 13 13
39 14 11
46 13 12
43 12 12
67 15 14
49 12 12
41 11 11
37 9 8
54 15 14
54 14 13
50 14 13
39 11 10
43 10 10
42 11 11
41 10 9
77 15 15
34 9 9
0 0 0
0 0 0
0 0 0
0 0 0
0 0 0
0 0 0
0 0 0
0 0 0
0 0 0
0 0 0
0 0 0
0 0 0
0 0 0
0 0 0
0 0 0
0 0 0
0 0 0
0 0 0
0 0 0
0 0 0
0 0 0
0 0 0
0 0 0
0 0 0
0 0 0
0 0 0
0 0 0
13 26 14
23 44 24
23 42 23
23 42 24
18 34 19
17 31 17
14 27 12
24 35 20
19 30 17
19 37 20
19 38 21
20 38 20
20 29 15
19 36 19
19 38 21
18 33 18
15 27 14
16 30 17
18 33 17
7 11 3
18 35 19
21 29 15
15 25 13
17 32 17
22 41 23
22 29 16
14 19 10
20 36 20
18 37 19
13 23 11
18 38 19
14 24 12
25 47 27
13 24 11
14 29 15
31 34 30
42 33 32
35 34 29
32 33 28
34 28 25
18 32 18
18 33 19
23 27 23
66 89 67
42 36 34
42 46 35
36 38 29
40 40 34
62 49 45
42 37 33
72 72 68
40 34 28
34 39 32
42 33 28
66 38 31
63 59 53
49 48 42
65 54 51
50 49 47
76 50 48
41 32 21
50 49 45
25 29 18
39 41 35
23 32 23
36 38 32
43 45 35
52 51 47
49 50 45
66 56 54
51 32 26
53 52 41
67 58 55
29 32 26
48 30 27
48 44 39
37 31 24
43 36 30
51 53 45
42 46 41
46 43 38
40 47 41
50 47 39
45 29 20
24 33 24
48 54 43
21 33 21
44 49 41
44 41 37
43 47 35
42 41 36
65 61 57
42 47 33
35 38 32
43 33 28
50 53 42
42 48 36
41 44 38
53 38 35
40 43 37
28 39 27
61 60 57
47 46 42
40 39 31
55 59 55
57 64 51
40 42 36
40 40 34
30 44 30
48 45 41
70 59 52
39 39 32
46 31 25
70 71 67
47 57 47
64 35 25
40 59 37
34 29 21
43 41 36
43 45 40
51 57 47
42 50 41
58 62 57
44 43 37
59 46 36
40 45 38
54 51 47
51 39 32
38 46 36
44 55 44
50 54 45
50 42 36
42 26 25
39 38 33
41 53 41
41 44 36
43 37 27
48 49 44
44 48 38
45 40 27
54 50 40
30 40 30
64 62 59
40 44 40
46 45 39
45 48 36
45 42 39
31 37 22
30 33 29
60 59 54
68 70 64
39 46 38
35 42 36
45 47 39
36 32 27
59 57 51
39 40 34
40 50 37
35 39 28
46 43 40
55 88 56
81 55 50
33 40 33
52 46 35
62 57 51
49 38 33
55 50 45
60 50 43
36 43 36
43 44 36
45 40 32
28 23 22
44 39 37
50 56 50
71 55 44
44 56 41
37 42 33
42 51 38
54 53 47
38 37 32
35 40 34
44 40 31
40 40 36
51 48 43
37 36 26
68 55 47
45 29 24
44 55 44
52 53 51
34 34 31
44 43 40
40 40 35
65 45 43
60 53 53
41 43 36
61 43 42
49 44 39
65 34 28
40 41 34
33 32 30
45 47 38
62 50 47
41 23 19
38 42 35
42 48 41
27 28 18
62 66 56
34 43 28
43 48 37
46 45 38
62 59 55
34 40 34
49 56 45
28 33 28
43 42 41
62 38 33
49 42 34
55 55 51
51 53 49
50 56 48
51 29 29
47 43 40
55 53 45
52 48 45
70 54 48
43 49 37
43 40 39
51 53 44
50 43 40
41 40 33
51 55 49
43 49 41
56 57 55
43 43 38
47 43 39
49 33 26
40 45 38
40 48 33
55 51 50
44 32 28
45 35 29
68 42 35
56 44 39
66 70 62
44 34 28
76 71 70
62 51 50
63 40 39
60 48 47
42 39 30
52 42 37
47 43 40
37 27 23
50 45 39
23 24 23
32 37 30
85 65 60
36 42 33
45 53 40
61 55 51
54 68 50
45 30 25
43 30 26
49 40 37
63 52 49
64 58 49
42 38 33
53 42 40
47 45 37
54 52 49
51 51 41
43 31 27
57 47 43
51 50 43
56 38 36
51 51 48
53 40 37
59 50 42
43 43 36
49 39 39
57 40 35
50 50 43
82 75 74
72 70 68
43 46 39
43 31 29
42 38 29
41 45 32
60 56 53
54 46 41
86 50 46
39 26 25
42 34 30
51 51 50
52 56 50
41 38 36
51 45 34
50 52 42
68 30 28
42 33 32
57 47 47
60 54 46
38 20 18
64 56 53
27 26 16
58 40 37
29 22 19
51 51 48
45 34 32
38 27 21
44 37 31
51 40 34
58 52 48
67 48 44
56 42 37
43 39 38
67 54 52
52 44 41
47 39 36
44 37 32
42 42 34
38 34 30
63 53 52
46 38 34
46 46 41
52 48 44
34 38 32
60 54 47
59 53 50
55 56 53
66 52 49
65 39 36
42 36 33
57 57 52
33 28 23
51 49 41
50 47 39
41 43 34
49 35 27
56 48 47
55 45 42
62 44 38
49 30 28
47 51 46
45 41 39
66 55 52
49 33 30
36 34 29
43 36 28
38 33 27
42 39 34
55 53 46
58 50 49
44 33 28
54 51 49
82 74 71
67 61 53
49 31 26
46 36 33
60 54 51
55 56 48
51 33 26
43 45 31
57 55 52
46 51 41
62 56 53
40 28 27
54 52 47
42 33 30
49 44 39
56 51 48
51 34 29
70 40 40
47 44 41
36 38 26
57 52 41
36 35 31
39 35 30
47 41 36
45 45 36
60 44 40
42 43 34
52 53 50
35 30 23
49 52 42
47 47 42
60 52 45
70 64 63
51 30 28
65 52 49
40 43 37
46 52 34
53 50 41
47 42 36
51 44 43
30 19 17
56 51 45
36 34 21
54 50 42
55 37 35
42 37 29
35 29 26
55 41 39
51 39 38
66 107 66
40 30 25
82 52 47
37 24 21
47 42 40
59 40 40
50 36 32
37 21 21
55 23 20
65 32 31
49 48 44
59 55 52
58 44 40
63 60 56
46 35 33
62 39 39
55 31 27
44 26 25
54 54 47
53 42 39
60 44 33
45 34 31
57 42 40
36 36 29
59 47 42
71 54 48
56 32 26
46 28 25
51 46 40
60 30 25
24 25 21
47 38 27
51 48 42
39 31 28
59 49 47
50 31 28
61 43 41
59 55 55
49 53 45
52 39 38
39 23 23
46 25 24
67 43 40
70 35 31
54 37 37
48 39 38
46 25 17
53 35 27
45 43 36
131 49 45
52 36 31
51 47 47
38 38 34
40 36 34
45 34 32
57 45 39
56 50 31
48 42 31
54 31 31
49 34 34
49 34 29
51 29 28
53 39 37
54 48 39
44 37 34
73 76 54
61 43 41
35 32 27
66 61 52
52 38 36
47 42 34
46 40 39
50 33 29
48 35 34
47 39 37
49 42 39
61 60 54
43 29 24
36 26 17
47 37 31
69 65 65
49 43 38
48 33 33
41 36 33
68 45 37
49 30 27
69 44 43
42 27 27
44 30 30
43 36 32
45 37 29
46 28 27
49 41 39
43 43 38
47 38 31
66 37 29
33 35 28
51 33 33
43 36 36
51 28 23
65 63 52
56 51 47
38 39 34
35 31 29
48 26 26
48 40 37
57 50 47
42 27 27
32 18 18
49 38 37
51 38 38
63 41 40
48 42 39
51 42 38
53 37 34
39 28 27
44 36 35
71 55 53
50 37 34
41 31 29
41 30 30
39 36 29
30 27 18
75 58 58
58 52 47
33 15 15
59 45 44
49 39 31
59 52 50
34 19 15
57 17 17
37 27 27
50 34 26
35 16 15
52 18 14
51 12 11
40 10 9
53 15 14
39 10 10
26 8 6
27 8 7
32 11 9
29 8 7
59 15 15
25 6 6
34 11 9
33 10 9
32 8 8
37 8 8
48 15 12
39 12 10
102 28 26
29 6 5
29 9 7
35 8 7
46 12 12
38 7 7
44 7 6
32 7 7
33 6 6
45 11 10
44 9 8
51 15 13
51 20 14
49 11 10
26 9 7
84 23 22
33 9 8
32 8 8
0 0 0
0 0 0
0 0 0
0 0 0
0 0 0
0 0 0
0 0 0
0 0 0
0 0 0
0 0 0
0 0 0
0 0 0
0 0 0
0 0 0
0 0 0
0 0 0
0 0 0
0 0 0
0 0 0
0 0 0
0 0 0
0 0 0
0 0 0
0 0 0
0 0 0
0 0 0
0 0 0
10 5 3
9 16 8
18 35 17
22 33 19
17 31 18
14 19 10
24 47 26
22 42 23
19 36 18
22 37 20
20 40 22
16 28 14
16 28 16
16 24 12
18 29 16
14 29 16
20 32 18
22 41 22
15 26 15
21 38 19
10 24 12
23 45 25
11 21 11
15 21 10
26 57 28
20 35 20
17 31 16
16 30 16
17 24 13
28 54 30
18 31 17
18 31 18
20 46 22
17 30 17
19 30 15
23 31 16
32 39 26
33 32 30
61 44 41
17 20 16
66 59 55
59 42 37
40 37 34
30 36 28
44 53 44
31 35 29
23 34 23
24 30 17
53 41 38
41 45 41
29 40 26
45 46 41
39 39 29
23 28 23
43 46 43
38 43 35
44 49 41
29 36 24
17 25 17
53 63 53
57 61 56
28 33 27
45 45 38
27 37 27
29 39 25
33 36 32
40 41 32
39 38 29
38 30 27
41 33 29
22 34 21
40 36 34
54 59 51
29 31 27
55 50 46
39 42 38
53 58 48
31 33 27
47 47 41
37 38 35
65 57 51
30 31 21
38 58 36
36 37 27
52 58 52
38 38 31
59 43 39
41 46 35
34 47 35
32 36 21
56 56 50
39 44 39
55 43 35
50 51 41
39 43 34
38 37 27
33 36 29
44 48 40
52 54 52
40 37 32
66 70 64
58 61 55
35 41 30
46 43 39
52 39 34
32 31 27
27 36 25
60 65 52
41 50 33
42 42 37
48 49 45
39 50 40
32 45 32
45 39 39
42 47 41
30 37 28
44 34 28
54 62 48
36 39 29
56 39 35
47 49 42
49 65 42
52 45 36
43 51 44
47 50 40
40 38 29
34 41 33
37 43 35
45 42 38
52 53 48
74 61 58
35 45 35
49 44 33
46 45 37
50 45 36
34 37 28
45 44 36
70 55 48
37 40 35
62 57 44
28 30 22
58 65 52
73 64 55
59 51 48
48 40 36
52 30 28
40 42 31
46 43 34
38 38 32
42 46 35
65 41 31
47 45 41
44 52 36
55 65 52
43 47 37
58 68 47
41 44 32
47 49 45
29 33 28
51 49 42
36 35 33
54 51 46
44 48 41
63 63 58
32 40 31
45 45 38
54 54 46
41 33 28
34 36 30
46 38 32
49 52 45
54 55 49
46 47 43
58 56 49
42 48 40
58 50 47
78 52 48
50 45 43
56 50 41
47 51 45
56 45 38
39 42 33
51 52 46
45 49 39
59 51 46
59 51 48
68 56 52
50 46 41
62 65 59
65 65 61
42 44 39
30 32 27
51 48 45
52 49 45
50 46 43
87 87 83
42 28 18
55 47 43
61 62 44
47 42 34
52 54 52
46 47 38
47 49 45
61 52 45
51 43 38
48 42 35
59 59 55
31 40 32
38 32 27
45 47 45
54 50 46
37 31 24
54 40 34
38 39 28
56 51 42
66 65 62
38 42 35
65 64 61
59 31 30
41 36 29
62 50 43
32 35 31
42 45 42
57 49 45
47 33 29
58 54 50
49 60 50
73 56 53
40 43 38
52 42 40
41 23 21
28 24 15
52 52 50
37 33 29
34 36 30
63 54 48
40 36 32
41 45 34
50 40 33
57 46 45
90 67 61
62 48 44
39 41 38
59 42 38
32 36 27
40 42 33
66 52 48
41 42 37
43 54 40
52 41 39
49 54 44
47 50 44
41 38 35
59 51 48
49 43 40
85 84 77
56 48 41
46 44 38
59 43 42
58 56 51
38 40 34
47 46 40
48 41 38
56 54 54
56 53 47
34 32 32
47 41 40
51 40 35
49 46 42
42 34 31
64 54 51
30 30 24
25 18 15
47 56 43
45 46 41
70 54 54
19 25 18
47 44 42
58 43 41
53 56 45
55 52 43
72 65 63
37 37 24
61 55 53
55 56 54
57 64 51
57 43 40
59 54 48
49 44 44
73 52 49
54 37 32
47 42 38
56 41 40
57 58 51
40 51 41
76 61 56
65 49 45
57 53 46
49 43 41
61 46 42
47 40 34
52 39 34
50 49 47
53 48 37
62 46 41
47 40 36
64 61 59
73 71 67
56 58 46
56 50 47
53 50 40
41 38 34
47 43 38
40 45 34
55 47 42
39 35 34
68 48 45
44 38 33
52 46 45
38 36 33
58 47 46
47 37 34
72 55 50
34 40 30
57 39 36
36 38 31
45 35 35
65 42 40
31 25 21
49 54 47
57 55 49
46 34 30
54 45 38
47 34 33
44 42 39
65 49 47
45 43 29
67 64 63
53 40 38
45 46 34
63 46 41
45 33 28
47 41 33
42 33 29
59 49 40
67 63 63
36 35 31
55 45 41
39 50 39
51 41 41
62 59 54
48 30 25
49 44 39
58 43 37
47 34 31
53 43 31
47 42 38
44 44 38
58 45 41
64 52 47
46 42 36
45 39 34
39 31 29
53 43 37
53 41 37
32 30 23
45 42 39
53 46 43
42 33 21
48 44 39
64 61 56
45 38 33
64 48 43
17 12 7
68 56 53
41 45 31
44 36 30
37 24 19
56 46 44
39 35 32
57 51 41
83 54 51
36 28 28
58 49 46
50 36 35
36 36 30
52 44 29
63 28 25
44 40 37
46 30 24
46 42 37
51 44 40
56 50 42
43 30 27
55 54 41
72 61 60
52 28 28
55 54 40
82 62 52
57 45 44
39 35 32
64 38 32
46 37 33
51 39 36
92 41 38
40 33 28
40 30 27
56 39 36
57 39 37
57 53 51
46 39 36
56 40 39
57 41 38
65 59 54
53 34 31
46 44 41
36 46 31
53 36 34
48 43 41
46 35 30
58 41 38
50 29 27
58 39 37
56 54 43
42 36 35
65 56 52
48 38 27
58 49 44
41 38 33
42 43 36
42 29 29
57 47 42
47 40 37
48 57 40
92 90 89
62 54 54
53 43 36
58 51 44
67 52 51
65 62 51
41 30 30
49 44 36
42 30 21
48 36 34
38 28 23
47 38 32
47 28 25
48 35 32
45 36 35
50 48 40
62 35 32
47 37 28
59 47 46
46 40 32
71 44 37
61 47 45
41 28 25
36 26 24
52 37 34
57 43 43
52 28 25
68 47 46
58 37 34
63 28 28
35 16 12
51 24 19
55 34 31
58 45 45
41 32 26
46 27 22
44 40 34
65 53 53
49 36 29
52 38 38
70 59 59
72 65 63
52 43 29
60 35 33
49 36 35
45 25 22
62 53 53
46 48 38
51 37 37
41 35 33
45 48 43
44 31 24
43 38 34
43 38 28
44 28 28
62 47 47
72 66 66
55 43 39
39 22 19
42 16 16
40 24 19
44 26 26
49 45 40
43 31 29
102 162 103
40 30 30
43 28 23
38 27 22
43 37 37
55 44 44
56 41 41
43 30 29
31 37 27
58 42 42
49 39 32
78 63 60
85 80 79
36 23 21
41 35 31
35 27 27
47 42 36
32 18 18
34 24 21
37 23 22
49 33 32
35 24 22
47 45 36
85 44 39
36 25 23
30 23 22
51 46 39
32 27 25
36 20 20
38 21 21
45 40 36
54 36 36
59 40 40
45 43 38
63 62 59
54 41 37
37 29 23
44 33 30
43 27 22
42 10 9
40 10 9
39 9 9
27 5 5
42 10 10
51 12 11
50 13 12
47 11 10
60 11 11
51 14 13
60 16 16
39 10 10
54 17 10
44 12 12
50 14 13
23 6 4
44 11 11
53 11 10
43 13 11
97 11 11
50 10 10
46 13 12
44 12 11
40 11 10
52 13 12
56 12 12
37 10 8
52 13 13
47 12 12
65 18 18
39 8 7
36 10 9
49 11 10
38 9 8
46 13 11
37 10 10
0 0 0
0 0 0
0 0 0
0 0 0
0 0 0
0 0 0
0 0 0
0 0 0
0 0 0
0 0 0
0 0 0
0 0 0
0 0 0
0 0 0
0 0 0
0 0 0
0 0 0
0 0 0
0 0 0
0 0 0
0 0 0
0 0 0
0 0 0
0 0 0
0 0 0
0 0 0
0 0 0
18 34 20
22 37 21
22 41 23
13 24 14
18 37 20
17 20 10
24 36 20
15 34 16
26 40 22
18 30 14
12 17 9
23 43 24
18 34 19
21 36 20
18 35 19
17 31 17
20 33 18
16 20 10
19 33 18
23 39 22
31 58 33
22 35 20
16 25 13
15 24 13
22 39 22
12 17 9
18 37 18
19 35 19
18 32 18
24 43 23
12 22 10
31 32 16
25 48 23
17 32 17
15 24 10
16 28 15
8 14 7
28 38 28
29 26 23
46 47 40
51 44 41
54 47 39
24 24 22
38 40 37
46 45 39
28 37 26
67 68 66
31 22 18
23 35 23
28 30 25
50 39 35
66 46 36
30 50 30
19 30 20
36 37 30
43 38 30
47 36 34
46 44 37
61 52 47
39 48 40
28 24 19
28 25 17
31 40 30
49 54 49
36 36 29
44 50 43
52 65 50
57 60 55
44 45 35
45 45 35
34 39 29
64 58 55
33 38 28
65 66 59
41 47 39
35 37 30
27 34 20
39 47 35
40 44 38
31 32 27
66 74 49
39 35 24
27 31 27
49 42 38
36 35 21
43 35 30
39 32 25
34 37 33
49 43 34
41 40 33
33 34 29
34 47 32
37 31 26
30 35 23
44 46 38
37 38 30
38 46 39
37 44 37
39 46 33
46 39 34
41 54 42
36 40 31
50 61 50
32 38 32
26 37 27
35 43 32
52 50 45
44 45 39
42 50 42
46 40 33
45 53 44
54 48 45
50 43 33
33 26 25
47 47 42
61 63 57
26 34 23
46 48 37
48 46 36
56 55 51
43 34 28
42 36 28
46 48 41
46 48 35
50 45 38
59 56 49
30 32 24
49 39 35
46 39 30
50 58 48
57 56 50
39 37 31
43 40 36
52 51 44
36 43 35
31 40 30
33 49 33
57 60 53
42 38 35
57 34 32
42 35 30
36 46 33
40 34 30
53 40 32
51 57 47
39 40 35
59 57 52
44 49 40
55 55 48
42 44 32
52 56 51
61 56 51
44 54 43
43 42 33
53 39 32
45 46 39
28 37 24
43 43 39
41 45 38
32 27 21
22 26 22
39 39 36
54 41 39
39 42 36
49 57 48
50 46 41
39 45 30
25 30 26
30 25 25
38 42 37
28 36 27
64 81 63
42 47 40
68 59 54
38 41 34
59 49 48
47 51 44
39 31 26
63 61 55
35 38 28
39 41 36
50 46 42
56 52 48
62 50 49
47 35 32
59 54 52
46 45 41
50 54 46
39 44 30
45 46 37
42 50 41
34 39 32
56 54 51
57 40 39
41 44 38
54 54 51
34 26 25
48 51 37
43 40 36
34 33 27
49 39 31
56 52 49
37 30 27
29 40 26
22 36 21
44 44 42
50 41 34
80 44 40
43 42 34
53 42 37
45 38 35
41 38 26
51 49 45
47 54 47
58 55 50
42 40 31
47 35 30
39 32 29
37 45 35
50 52 46
41 46 38
77 75 71
47 36 33
76 60 45
59 57 45
54 51 48
114 120 111
65 49 47
45 36 31
49 39 35
53 48 44
37 37 30
89 93 86
46 43 40
44 46 34
42 43 38
66 56 49
40 32 30
54 54 48
55 41 40
61 49 49
32 29 27
54 58 45
53 38 34
68 47 46
52 51 45
66 58 53
46 34 27
53 33 30
64 53 49
56 44 37
51 46 44
64 63 59
44 52 42
34 38 33
85 48 40
69 51 48
60 54 51
52 49 42
24 39 25
64 60 57
48 47 41
58 45 42
57 56 52
41 39 36
45 46 44
48 37 34
25 40 25
46 41 32
74 66 66
57 54 48
100 93 91
39 34 29
60 44 41
53 50 44
37 42 36
44 46 39
45 48 41
53 44 34
54 57 52
50 56 49
53 34 31
53 52 44
44 27 24
58 55 51
59 39 35
62 45 39
42 43 35
66 40 35
30 29 24
35 29 23
62 44 36
46 45 38
36 38 36
60 45 41
53 40 37
53 49 47
55 62 51
83 85 64
50 40 36
69 43 38
57 55 45
40 54 37
53 42 32
59 60 55
64 54 52
39 34 31
57 54 50
62 59 57
85 79 79
45 40 35
51 46 43
51 50 41
64 41 36
63 57 51
46 40 35
53 48 45
56 36 34
73 46 45
43 40 31
53 47 32
65 56 55
62 63 59
36 22 20
46 28 26
69 64 63
54 49 43
45 32 32
30 30 27
72 39 33
48 48 46
47 38 34
37 43 34
24 35 23
63 44 40
44 38 35
52 54 41
60 54 43
49 46 44
53 33 32
61 61 53
58 40 35
51 49 44
33 28 24
60 50 44
62 48 35
40 40 31
69 60 46
55 49 44
44 41 38
75 67 60
41 32 23
36 39 29
51 44 40
52 38 38
49 27 24
70 67 64
59 58 50
42 42 38
40 51 39
59 43 36
54 42 41
37 36 24
47 43 41
45 35 30
56 29 27
50 40 38
59 40 31
45 35 33
86 64 58
57 54 47
43 36 28
63 55 48
34 29 26
50 45 32
47 39 35
62 60 56
52 31 30
49 28 28
46 39 37
40 38 36
50 37 37
48 31 25
45 29 28
59 40 40
49 50 45
73 49 47
43 33 31
70 61 59
53 40 38
57 40 38
54 41 34
56 48 47
45 37 34
58 41 38
51 64 46
34 43 31
58 46 40
46 39 38
53 50 44
80 67 64
49 38 35
41 36 33
54 58 47
70 45 45
44 31 22
52 60 48
51 42 38
52 46 34
62 31 30
42 36 35
53 39 36
42 38 31
58 51 50
66 53 51
64 51 49
61 50 46
77 65 61
76 64 56
35 23 22
47 38 36
59 51 51
56 62 45
31 38 29
46 34 26
50 47 39
48 44 36
68 55 53
43 30 27
57 50 48
98 46 35
40 36 31
79 76 74
32 14 10
42 39 35
36 40 32
63 50 47
85 82 79
49 45 44
77 49 45
48 47 45
44 36 31
54 41 36
62 51 49
61 58 47
63 49 48
84 53 48
60 43 42
58 47 47
48 31 25
52 42 42
67 58 57
31 18 16
93 45 40
46 30 30
51 50 47
54 35 33
46 41 38
66 51 51
43 40 32
44 33 33
75 65 59
69 72 64
50 29 27
60 45 45
49 37 37
54 54 44
45 39 38
72 60 58
53 46 44
68 50 49
53 24 24
41 30 28
45 37 33
63 57 48
46 44 33
120 42 42
58 41 38
54 43 43
55 49 47
61 58 55
39 25 22
56 40 37
64 55 53
72 56 56
55 36 35
47 27 26
52 30 23
52 38 37
40 34 28
46 33 32
75 49 48
50 32 26
48 31 30
51 26 26
79 71 71
36 32 25
43 27 27
47 34 30
59 42 41
49 34 33
53 32 29
49 40 36
53 29 28
56 44 42
38 37 29
56 48 45
52 43 42
59 37 33
50 43 42
45 43 28
52 37 35
34 24 14
58 54 51
42 29 29
60 51 49
44 25 25
43 33 33
60 52 51
43 35 35
59 57 54
50 40 35
47 38 38
53 45 37
45 31 30
70 55 53
31 11 11
75 69 69
32 26 19
47 42 32
50 40 37
64 50 48
35 29 29
58 54 54
55 35 35
51 14 13
51 8 6
44 12 11
32 8 7
31 8 7
41 11 10
34 9 8
40 11 10
64 11 11
47 13 12
51 15 13
32 9 8
57 15 15
28 8 6
46 12 11
53 13 13
53 15 14
44 14 11
43 10 10
43 12 11
32 7 6
33 8 7
72 18 17
40 12 11
27 7 4
45 14 12
50 13 13
49 12 12
43 11 10
52 14 14
32 9 8
37 8 7
48 12 12
42 11 10
47 13 12
37 9 8
69 17 16
30 8 8
0 0 0
0 0 0
0 0 0
0 0 0
0 0 0
0 0 0
0 0 0
0 0 0
0 0 0
0 0 0
0 0 0
0 0 0
0 0 0
0 0 0
0 0 0
0 0 0
0 0 0
0 0 0
0 0 0
0 0 0
0 0 0
0 0 0
0 0 0
0 0 0
0 0 0
0 0 0
0 0 0
15 25 14
23 36 20
21 38 21
21 39 22
25 48 25
17 34 19
24 45 25
19 33 18
13 26 15
21 30 16
16 27 15
21 39 22
18 28 15
13 23 11
24 36 19
17 25 13
15 26 14
29 53 30
19 34 18
22 31 17
24 42 23
21 36 20
14 25 13
18 31 17
22 37 20
20 28 15
19 24 13
16 31 16
22 32 18
13 18 10
14 24 12
25 43 25
30 58 33
18 35 19
15 27 14
18 36 20
16 19 9
10 21 8
24 32 22
24 28 24
26 24 20
20 23 17
31 26 24
97 180 106
37 37 32
31 37 30
33 46 33
26 28 22
44 48 43
30 22 17
51 47 40
36 34 29
47 54 35
57 63 57
43 48 43
33 38 29
23 30 23
43 32 22
53 52 47
55 41 33
30 30 23
36 42 33
39 32 27
39 40 34
31 45 32
45 49 45
42 34 25
55 60 53
25 37 26
58 60 53
53 33 22
42 36 27
49 46 39
54 54 49
45 39 29
43 30 24
50 51 48
36 48 36
42 36 27
37 37 31
75 48 41
41 46 39
29 32 25
53 52 48
52 55 48
37 43 35
30 38 30
60 58 52
28 33 25
56 49 46
80 73 72
41 44 31
46 53 46
63 66 61
39 43 28
52 56 47
42 48 41
42 56 37
41 52 40
43 51 36
36 42 36
63 62 60
46 55 45
59 47 46
71 67 65
44 48 40
44 42 31
46 47 36
40 41 39
66 64 55
30 28 22
50 53 45
56 55 49
49 55 46
48 45 39
54 48 45
57 55 43
26 24 18
32 36 22
32 31 27
44 43 38
21 30 20
50 46 40
41 38 29
51 59 51
43 34 30
38 30 24
61 56 43
36 41 31
56 44 42
52 56 49
25 33 21
83 89 82
58 51 48
51 48 38
43 47 43
42 31 26
48 33 30
45 51 45
51 54 46
48 35 33
50 48 42
57 54 48
31 39 26
54 44 38
44 45 39
51 52 33
71 59 56
38 37 31
53 40 37
53 55 48
50 44 36
41 39 32
41 36 31
34 28 27
40 43 34
42 55 37
31 48 31
49 40 31
43 45 36
55 65 56
38 44 36
48 53 48
51 52 48
42 50 42
64 62 53
69 67 58
48 50 41
43 40 33
66 48 39
47 41 38
55 64 53
39 46 38
24 32 22
58 57 52
46 44 39
37 34 34
47 54 43
49 52 45
48 57 43
45 38 34
41 45 36
28 34 26
76 80 75
43 47 40
33 31 27
52 57 49
48 48 42
47 42 38
81 55 49
46 47 40
39 49 37
39 38 35
47 44 36
31 30 29
55 72 53
43 44 35
52 35 28
47 37 30
39 39 32
32 28 24
31 30 25
50 53 45
44 47 38
39 47 37
40 37 28
52 38 35
50 49 35
48 50 39
38 50 39
47 42 39
78 70 65
55 99 58
40 38 30
64 44 42
57 56 47
38 36 31
46 43 38
50 44 43
56 49 43
52 46 42
66 56 51
73 64 51
48 43 40
34 28 26
62 56 50
64 56 52
50 49 44
45 34 27
44 45 40
52 59 48
46 48 39
46 54 45
54 47 45
37 40 33
41 46 41
68 40 39
56 42 35
50 40 34
48 40 37
46 47 45
34 48 35
46 40 34
64 42 37
47 55 44
41 43 36
85 78 76
43 48 43
74 77 72
47 48 42
53 47 41
65 61 58
39 36 30
56 35 26
54 41 38
61 59 52
62 53 53
40 37 35
59 57 53
41 44 40
44 42 42
63 51 49
73 51 41
51 39 34
49 46 36
39 41 35
52 37 33
55 51 46
48 46 45
60 55 47
50 36 25
50 50 45
67 67 66
46 32 31
57 48 46
66 67 60
62 60 59
47 43 39
58 48 46
59 54 48
51 53 45
62 44 38
64 40 39
36 32 30
50 50 42
34 32 26
56 54 51
45 43 39
58 57 51
46 40 36
36 37 32
44 37 35
59 57 49
45 28 24
47 37 33
72 70 62
41 49 36
44 39 36
99 94 92
53 56 47
54 44 43
84 72 71
46 37 31
68 55 53
61 54 52
33 35 29
48 45 33
53 43 41
47 39 33
44 44 35
35 35 28
48 38 28
52 47 40
51 49 41
45 46 37
32 32 26
60 42 36
57 39 36
50 36 31
36 23 21
70 50 44
41 34 30
39 34 27
43 27 24
50 58 42
47 40 36
52 38 32
47 46 42
68 44 37
49 25 23
44 32 31
60 54 52
44 42 38
49 45 37
52 49 41
55 34 33
44 34 33
63 54 51
52 43 42
40 24 20
53 45 44
45 35 31
40 38 36
53 46 42
69 69 68
68 59 50
52 45 38
72 35 35
43 35 26
48 34 28
67 43 35
57 49 45
46 37 35
39 41 31
55 55 49
56 36 32
59 42 37
46 27 25
83 68 65
60 54 52
53 54 47
58 41 37
52 46 41
44 31 25
74 63 60
58 42 38
61 50 45
63 54 48
56 31 31
45 29 28
64 44 40
39 36 33
46 56 41
66 61 52
67 51 49
44 40 33
54 50 49
46 49 33
44 43 35
78 55 51
48 48 45
53 38 27
44 33 29
28 36 25
62 36 35
47 37 33
55 44 41
49 42 38
58 44 39
40 30 25
65 52 47
58 47 43
67 48 48
84 36 34
83 51 50
68 53 49
53 42 36
53 48 45
56 35 32
52 42 39
40 22 20
56 45 44
67 55 55
65 53 52
40 35 29
55 42 37
51 40 29
71 50 48
58 34 27
43 29 26
63 57 55
42 24 24
40 39 34
53 44 43
86 49 45
46 22 20
48 37 31
72 49 43
61 47 43
43 40 35
54 42 39
46 24 23
55 48 48
60 56 49
42 29 24
46 31 26
48 36 29
30 30 25
55 37 34
51 43 40
35 16 16
40 35 27
67 54 46
63 51 47
47 39 35
61 51 49
57 34 30
43 33 26
50 36 36
59 33 28
58 31 31
46 44 40
47 41 37
48 46 44
49 39 35
52 33 33
67 51 50
56 49 43
84 69 69
53 50 42
52 37 26
58 61 55
45 35 34
41 35 27
59 53 51
63 53 50
39 27 23
51 24 20
49 45 36
73 62 61
33 35 25
86 74 74
74 52 47
68 53 53
53 54 47
58 48 46
40 24 23
50 43 40
108 100 100
56 32 32
49 48 42
49 33 32
49 33 30
64 36 28
61 42 41
44 25 21
48 43 35
45 44 35
39 32 27
60 36 32
39 20 19
58 51 43
54 47 42
35 24 24
59 37 37
42 30 28
41 23 21
52 35 27
71 49 49
50 33 33
58 39 36
48 31 26
74 55 55
59 46 44
62 42 42
48 32 30
53 40 40
120 33 28
60 39 39
54 38 37
50 33 33
52 44 40
49 38 36
65 48 41
40 27 27
44 36 35
51 25 24
55 62 50
64 50 48
53 30 30
46 41 38
62 49 47
39 19 19
50 53 44
43 40 28
41 24 19
46 44 38
42 44 34
53 41 38
43 23 21
54 48 45
55 39 27
55 43 40
43 38 28
51 41 41
45 49 34
33 31 23
45 39 36
51 42 42
46 38 30
66 56 54
58 51 51
44 25 25
34 28 18
43 11 9
35 9 9
20 5 4
48 9 7
36 11 9
47 11 10
48 13 13
50 13 12
47 11 10
45 12 11
42 10 10
54 14 13
29 8 8
57 11 11
36 9 9
68 17 16
30 8 7
55 16 15
32 10 7
54 14 13
54 13 12
40 11 9
33 10 8
44 11 11
38 11 10
41 10 10
57 14 12
30 6 6
47 11 10
37 10 8
44 12 11
46 10 10
51 14 13
31 9 8
52 14 14
53 12 11
26 8 6
34 9 8
21 5 5
0 0 0
0 0 0
0 0 0
0 0 0
0 0 0
0 0 0
0 0 0
0 0 0
0 0 0
0 0 0
0 0 0
0 0 0
0 0 0
0 0 0
0 0 0
0 0 0
0 0 0
0 0 0
0 0 0
0 0 0
0 0 0
0 0 0
0 0 0
0 0 0
0 0 0
0 0 0
0 0 0
14 25 14
18 31 17
14 27 15
18 33 19
14 25 14
24 43 24
19 32 18
22 41 23
13 23 12
26 29 16
23 39 22
18 29 16
23 41 22
16 27 15
24 41 23
19 35 20
14 35 15
21 41 21
13 23 13
17 29 16
24 53 23
27 39 22
11 22 11
15 30 15
22 37 19
20 34 18
16 27 15
18 31 17
19 36 19
23 41 23
29 54 30
24 45 25
11 18 10
20 34 19
15 30 14
13 14 7
10 9 4
26 46 26
19 45 18
18 27 18
37 39 31
46 49 40
45 28 24
48 52 48
45 63 37
46 52 43
30 37 30
28 24 16
43 40 36
55 50 41
45 48 44
20 27 19
30 34 28
56 57 55
45 49 40
51 52 47
36 41 36
31 33 28
44 46 41
50 49 45
26 30 20
20 26 15
38 36 29
25 25 15
36 31 22
65 70 65
34 39 34
72 34 30
53 58 52
52 40 30
29 29 24
44 46 38
43 43 36
40 29 23
55 54 50
50 47 46
39 32 28
57 36 30
22 29 21
61 70 61
60 55 49
39 48 19
31 25 21
49 48 43
57 56 52
44 51 39
57 55 46
42 46 42
53 62 49
58 60 54
49 56 38
57 53 43
52 50 39
36 37 30
42 37 29
55 50 37
68 70 64
52 44 36
33 42 33
24 45 25
54 53 49
37 43 32
37 44 34
30 35 28
34 39 31
53 42 39
59 65 58
42 43 36
42 49 41
47 51 46
44 30 27
50 44 33
73 51 43
60 57 50
25 31 21
52 52 49
40 39 32
41 42 39
56 65 46
40 43 38
37 36 32
33 36 29
56 48 35
48 45 34
53 57 49
81 81 79
67 44 38
29 26 25
38 43 34
38 54 38
35 24 15
55 42 31
38 30 23
64 62 54
42 49 37
60 56 54
32 31 25
43 55 40
66 43 36
38 47 37
46 56 44
53 56 45
45 42 38
39 37 30
36 33 25
48 45 34
35 42 34
63 57 51
22 35 19
47 45 37
42 41 36
51 51 47
46 48 44
41 45 39
52 56 52
33 35 23
46 34 21
51 52 44
41 34 31
41 59 36
45 45 39
34 40 31
34 34 24
50 49 45
48 40 37
38 44 38
41 39 31
58 53 52
39 44 35
29 37 30
52 43 38
60 49 42
41 48 40
49 57 42
49 48 41
35 32 28
60 60 54
48 30 27
50 48 43
54 50 48
56 52 45
63 56 50
53 57 50
64 65 57
46 58 46
53 63 53
46 51 44
31 23 14
54 48 39
33 28 23
49 46 41
49 48 42
44 53 39
60 83 59
82 56 55
61 52 44
71 36 32
36 28 23
39 49 34
43 48 40
38 36 32
50 43 36
50 50 43
71 51 44
46 42 39
51 52 44
49 49 45
51 47 41
38 39 33
59 60 56
48 55 45
36 41 34
51 53 38
55 49 39
46 46 40
45 42 32
63 48 32
45 41 38
50 53 50
45 35 28
66 52 47
35 30 22
67 61 57
46 42 38
43 46 34
87 70 68
62 72 59
55 34 27
54 55 49
67 64 61
51 42 37
46 39 35
50 43 38
57 57 52
54 45 35
23 26 21
33 27 22
36 44 32
55 41 35
60 55 45
55 52 43
64 60 56
33 36 28
95 59 50
51 50 41
67 58 53
55 52 42
72 65 64
53 39 37
38 17 13
68 65 60
67 62 56
40 39 38
47 47 45
42 40 37
71 65 62
23 26 20
31 37 28
63 51 49
64 53 49
32 31 25
49 44 39
46 27 25
51 45 41
51 59 49
37 33 29
36 37 31
64 50 49
60 39 37
80 51 42
122 126 122
55 50 37
47 51 37
48 51 43
55 52 48
51 33 26
64 61 58
63 63 60
51 46 40
59 51 46
48 44 41
29 31 22
60 42 33
60 53 49
46 38 28
46 46 40
64 35 34
55 57 50
47 42 39
51 40 39
46 27 21
46 35 29
61 43 37
41 45 37
43 41 32
55 43 40
32 28 24
47 38 35
68 70 66
41 43 36
65 56 54
28 26 21
51 48 41
51 40 37
71 52 48
49 41 37
44 39 32
52 50 46
57 57 53
61 56 53
67 63 57
40 53 30
58 60 46
68 69 63
43 42 34
22 24 20
57 49 47
57 38 34
51 46 44
68 62 58
44 29 22
38 31 31
57 52 45
44 26 25
53 42 39
64 61 55
51 47 39
61 47 45
49 40 30
143 141 139
50 21 16
48 36 29
54 54 48
50 41 36
48 27 17
81 51 49
64 62 58
61 30 27
50 50 47
54 82 45
71 58 57
45 43 38
51 43 41
57 50 46
53 45 43
52 36 33
65 49 45
55 54 49
51 35 31
88 59 48
57 52 42
54 48 42
60 36 34
64 59 58
56 41 41
87 83 78
46 47 39
145 68 65
45 37 33
60 49 49
48 42 36
75 22 18
50 48 43
52 46 45
77 54 54
65 30 25
43 41 35
37 27 27
49 38 36
55 46 39
112 50 50
61 37 32
48 39 37
59 42 37
30 10 9
51 25 18
41 23 23
42 30 26
77 69 66
56 51 41
67 55 51
45 34 33
51 60 42
43 36 32
36 45 33
41 29 29
43 41 26
48 39 35
65 44 43
59 49 41
37 24 22
52 38 36
53 48 46
73 68 65
48 26 26
54 31 30
56 39 39
43 36 33
51 40 30
59 46 42
55 49 46
37 19 18
37 36 30
47 41 35
70 43 39
55 46 38
66 59 58
58 38 38
59 42 40
59 43 37
35 28 28
52 54 49
65 63 61
73 62 59
59 58 56
74 66 66
55 48 43
56 43 41
49 37 30
53 39 32
68 61 54
57 45 45
42 35 25
64 65 51
70 61 50
68 47 46
79 48 44
43 32 23
62 45 33
62 39 36
54 41 38
39 36 31
42 39 34
35 25 24
61 52 50
40 32 24
51 40 35
53 49 47
52 35 31
38 24 19
66 52 46
48 37 30
50 41 31
37 31 25
60 50 44
52 44 35
46 42 39
52 43 42
40 40 29
40 38 32
45 29 25
42 33 23
47 33 28
74 65 50
79 56 55
50 42 39
46 44 40
45 31 30
42 40 32
48 27 27
59 47 42
46 34 28
53 37 33
52 46 46
37 35 24
54 46 45
43 40 37
47 39 31
51 47 36
30 27 20
49 39 39
40 26 26
90 73 70
48 34 33
57 51 46
58 40 37
40 31 26
50 31 28
38 31 29
54 42 39
56 53 45
38 28 27
46 35 33
53 42 37
30 23 22
64 63 56
49 39 39
56 41 37
58 30 25
60 53 43
57 36 36
93 87 87
56 35 29
57 53 42
37 29 29
52 33 31
37 23 17
44 31 30
59 42 37
47 29 26
61 57 56
48 36 32
43 45 36
38 22 17
57 48 47
46 29 29
40 28 27
44 40 37
42 30 30
47 40 37
45 31 29
50 41 36
54 49 46
47 40 39
45 40 39
26 21 19
54 40 36
53 36 24
57 54 41
61 57 49
51 35 34
45 42 38
30 10 10
38 16 16
32 19 19
77 68 65
42 22 21
67 62 61
43 33 33
40 39 32
38 24 23
46 46 37
60 30 30
41 25 23
39 9 9
46 11 11
45 11 10
59 17 16
41 7 6
64 16 15
72 20 19
31 6 6
47 12 12
47 14 13
42 12 10
40 11 10
51 10 9
43 12 11
45 11 10
44 12 11
39 17 10
68 18 18
149 41 40
32 8 7
26 7 6
66 15 15
66 17 17
45 13 12
48 13 12
47 13 12
60 15 15
33 8 6
49 14 13
54 10 8
35 9 9
30 7 7
46 12 12
34 8 8
49 13 13
46 12 12
33 10 9
75 21 20
24 3 3
0 0 0
0 0 0
0 0 0
0 0 0
0 0 0
0 0 0
0 0 0
0 0 0
0 0 0
0 0 0
0 0 0
0 0 0
0 0 0
0 0 0
0 0 0
0 0 0
0 0 0
0 0 0
0 0 0
0 0 0
0 0 0
0 0 0
0 0 0
0 0 0
0 0 0
0 0 0
0 0 0
10 17 10
25 48 26
14 26 12
24 48 27
18 26 14
21 37 20
19 31 16
20 39 20
23 41 24
23 46 26
16 28 16
18 33 17
17 30 16
17 29 16
18 30 17
22 33 18
15 22 11
20 37 21
18 28 16
21 44 24
27 49 28
13 23 13
29 55 31
26 42 23
18 26 14
22 35 19
24 43 24
15 24 13
21 32 18
18 36 20
18 32 17
20 26 14
20 32 17
18 49 20
15 29 16
17 32 17
12 24 13
23 41 22
20 34 17
19 26 15
28 32 24
42 46 41
49 43 40
58 48 46
70 60 58
37 39 33
24 29 25
52 41 38
52 56 48
40 45 39
50 37 35
57 43 39
41 39 34
52 56 47
52 53 44
50 54 50
42 51 42
21 32 20
28 33 22
33 38 31
46 47 42
43 32 30
36 43 36
33 35 25
43 36 31
52 51 45
46 55 47
31 42 31
43 42 38
40 44 30
44 61 38
75 74 70
28 39 29
44 40 32
52 45 40
42 41 34
54 60 54
35 42 32
49 45 40
50 39 30
59 58 54
40 46 39
42 51 42
50 53 46
45 30 24
51 65 49
39 44 38
25 31 24
51 56 46
56 58 52
35 42 31
44 41 32
47 42 38
52 49 45
42 46 37
33 42 33
45 52 44
36 41 36
50 50 42
47 47 42
55 61 50
48 40 29
30 26 21
46 44 35
49 33 31
41 42 41
63 72 60
33 43 33
47 55 46
41 38 34
31 38 30
58 37 35
60 47 38
26 33 24
54 44 37
51 53 48
48 50 48
58 61 58
42 30 27
84 84 78
46 54 45
36 42 29
34 35 27
54 50 38
56 46 40
41 49 37
52 44 37
51 49 43
44 42 35
48 50 42
44 40 34
55 59 54
38 42 37
52 40 35
64 61 57
55 46 40
46 35 31
51 43 38
35 33 26
41 38 35
43 48 42
48 51 44
47 51 43
41 47 40
23 22 13
39 36 30
54 63 53
46 56 43
53 45 42
41 42 34
40 45 38
34 32 26
56 53 47
58 58 51
38 35 34
38 41 30
56 55 50
48 50 47
37 45 35
36 33 27
54 58 53
51 63 44
53 44 40
40 32 28
56 57 47
67 49 41
53 50 44
53 48 40
37 45 37
52 50 39
41 41 34
35 29 26
45 43 41
46 42 34
71 62 57
55 44 41
41 35 31
47 39 34
65 45 37
40 44 39
28 42 27
51 47 37
50 53 48
65 54 50
36 33 21
37 40 34
38 48 39
48 44 37
49 48 39
55 41 32
44 29 21
74 70 66
42 38 30
62 55 50
49 44 37
70 70 67
56 55 47
79 79 77
54 43 40
45 42 34
86 65 61
52 55 50
56 47 42
66 49 46
39 45 39
62 52 50
40 45 39
48 41 36
43 45 33
43 52 43
48 52 43
53 47 43
52 52 49
40 47 38
40 35 29
44 46 43
59 39 36
53 60 51
68 76 56
48 41 37
55 50 46
39 39 28
41 29 27
58 56 53
55 40 38
46 45 38
47 51 44
38 43 34
58 65 55
56 68 52
43 50 40
58 46 37
75 50 48
80 83 79
70 62 55
75 75 72
72 58 53
40 42 35
47 50 41
72 71 71
68 40 38
49 44 42
53 52 46
47 42 36
60 61 54
61 61 46
56 54 50
51 51 47
54 43 39
60 57 49
52 40 36
47 42 39
63 61 52
59 46 39
68 61 56
59 53 48
69 40 35
53 51 49
55 46 40
46 42 37
76 75 69
66 34 34
43 31 29
74 50 46
106 67 65
76 78 76
76 64 62
59 45 36
49 46 40
53 52 39
67 60 58
53 47 41
47 44 36
50 37 32
42 34 30
52 36 36
77 53 47
67 58 51
66 59 55
51 47 42
43 37 34
61 52 47
51 50 42
55 46 45
47 52 45
35 38 33
76 82 75
63 65 61
55 50 47
76 57 52
54 42 35
61 47 43
47 46 42
55 55 42
58 42 38
53 47 43
64 61 59
40 56 40
38 32 30
60 64 57
78 67 61
82 76 73
49 45 41
71 65 63
17 22 15
45 41 38
73 60 59
46 45 40
53 58 47
41 46 38
55 45 40
55 58 51
68 51 46
49 51 43
42 36 26
60 59 46
53 43 40
57 46 38
54 46 42
71 53 53
56 40 32
33 20 19
63 65 57
46 38 30
41 42 32
59 56 53
44 46 43
50 41 39
88 52 46
36 25 21
53 44 41
65 61 56
51 48 46
58 51 48
60 48 39
80 71 69
83 77 73
46 41 34
49 30 26
57 47 42
51 31 31
55 52 50
40 30 29
44 28 19
61 43 40
42 27 24
49 50 46
56 50 44
38 39 34
47 38 36
54 67 44
63 49 45
87 49 44
54 48 36
55 50 47
68 63 59
46 41 39
64 55 52
58 52 48
60 42 38
52 25 25
37 28 26
55 36 32
38 38 32
48 35 35
53 51 44
21 27 19
42 42 34
79 74 73
60 48 45
55 42 41
80 68 66
48 36 26
38 35 27
52 41 36
42 40 33
52 49 46
65 57 49
68 43 39
69 57 56
52 36 31
61 24 23
46 37 31
66 50 49
53 41 38
38 25 20
48 33 30
70 67 62
53 42 37
59 36 36
43 39 32
64 54 51
62 58 50
44 53 39
42 40 36
72 44 40
55 43 42
41 25 19
46 29 25
51 39 37
46 31 31
59 48 42
44 29 23
60 37 30
44 36 34
64 61 48
52 31 29
44 39 36
57 52 49
49 31 26
47 35 35
56 40 39
56 49 45
60 50 48
75 66 63
46 35 26
50 45 43
53 30 30
76 63 63
46 35 33
63 47 47
61 51 49
63 45 44
52 41 29
50 53 43
27 27 22
64 44 37
50 41 28
54 28 28
69 43 43
57 41 39
68 44 43
56 38 38
58 43 40
70 58 57
46 36 36
48 37 35
45 41 34
53 52 41
57 53 50
55 39 33
43 24 23
71 68 63
64 31 26
60 54 50
63 42 37
56 41 36
49 44 38
57 46 42
49 43 41
63 57 54
45 27 25
61 48 44
82 64 61
51 46 41
55 41 40
59 44 36
76 62 61
78 58 53
72 56 53
43 25 23
63 52 46
52 48 40
37 23 23
46 35 32
66 40 39
44 35 34
68 57 56
43 39 33
42 24 22
68 49 42
44 32 30
56 29 28
66 51 48
55 46 40
51 32 30
51 58 43
48 22 22
83 42 36
59 37 32
30 20 19
50 42 38
55 41 40
48 41 40
51 46 43
95 71 68
40 12 10
58 46 45
56 30 29
74 53 49
65 54 48
45 37 31
116 110 108
42 22 21
50 27 25
60 42 40
46 29 28
49 28 28
66 42 33
41 33 33
57 38 33
36 33 33
53 50 45
41 36 36
46 41 29
68 61 59
55 47 44
44 32 31
43 25 22
49 42 29
50 38 37
46 22 22
45 39 35
64 42 42
54 35 34
53 32 32
46 32 32
40 28 28
52 37 34
44 31 23
45 32 31
47 35 31
44 26 23
53 47 39
51 39 29
61 54 52
49 49 47
55 41 38
31 25 24
56 51 51
51 42 36
46 41 41
48 25 20
32 7 6
72 19 18
52 14 13
43 13 11
52 15 13
37 9 8
38 9 9
30 6 4
59 14 13
38 9 9
53 14 13
20 7 5
33 7 6
50 16 13
37 9 8
75 15 14
44 12 10
51 11 11
50 11 11
35 11 9
56 15 14
44 12 12
47 11 10
61 11 11
56 13 12
47 12 12
59 17 16
31 9 8
10 4 2
46 11 9
73 20 20
45 12 10
45 14 12
58 17 16
31 8 7
45 12 10
47 11 11
46 9 8
32 8 7
34 9 9
0 0 0
0 0 0
0 0 0
0 0 0
0 0 0
0 0 0
0 0 0
0 0 0
0 0 0
0 0 0
0 0 0
0 0 0
0 0 0
0 0 0
0 0 0
0 0 0
0 0 0
0 0 0
0 0 0
0 0 0
0 0 0
0 0 0
0 0 0
0 0 0
0 0 0
0 0 0
0 0 0
6 13 7
27 47 27
16 28 16
20 35 20
28 52 29
16 27 15
22 41 21
23 44 25
25 44 25
32 59 34
21 36 20
23 40 23
20 37 21
32 59 34
26 43 23
18 37 19
21 36 20
26 48 26
27 48 27
22 38 22
10 20 10
15 30 16
23 57 23
13 24 13
15 28 12
19 36 20
16 31 17
25 42 24
21 38 21
22 32 16
21 39 22
17 28 15
23 41 23
16 31 16
12 20 10
16 23 11
10 11 5
19 32 18
16 27 15
15 19 9
18 25 13
17 18 9
46 46 38
67 68 63
47 47 46
34 35 32
35 37 32
28 30 22
35 32 25
34 38 33
52 51 49
39 29 25
32 36 32
45 40 34
49 41 33
31 32 23
52 47 42
79 41 35
29 28 17
50 40 34
41 42 40
39 41 31
26 31 24
33 26 16
40 41 31
81 74 67
30 38 30
55 59 47
45 52 44
26 31 21
51 56 51
47 65 48
42 34 30
40 48 36
41 45 40
50 54 46
84 65 59
38 52 39
53 51 41
48 52 44
48 56 47
40 41 38
27 40 28
68 47 38
37 45 36
40 35 31
25 34 23
51 48 41
45 55 46
39 41 29
71 69 67
32 46 30
53 61 46
37 35 32
48 40 38
48 49 39
41 37 23
54 49 44
82 80 78
40 50 39
48 51 47
44 46 37
40 43 37
49 46 38
49 42 33
48 48 43
48 51 43
59 55 52
36 38 33
25 36 26
40 38 31
36 48 30
44 46 37
47 49 42
78 46 39
36 38 29
43 48 41
42 43 39
45 55 39
46 33 24
42 46 42
58 56 52
39 50 39
51 33 29
47 52 44
54 50 41
39 41 39
50 45 37
34 35 28
45 34 30
49 44 33
70 61 49
88 62 60
55 53 50
39 34 28
57 52 48
47 55 46
53 48 43
53 54 45
45 43 36
39 46 34
53 45 44
40 43 33
66 67 63
69 60 56
44 41 36
31 35 27
89 66 57
41 35 33
35 44 31
51 58 50
47 47 42
45 45 41
51 51 40
36 38 27
53 50 43
43 42 35
48 54 46
33 35 25
63 65 58
35 39 29
47 35 33
43 45 42
70 67 64
102 65 54
44 50 39
61 51 51
32 39 28
49 48 44
39 43 35
47 49 44
48 33 32
62 54 49
79 63 55
42 45 37
81 67 62
52 52 43
41 52 40
33 42 34
42 44 39
46 42 37
44 42 32
59 59 51
46 40 38
84 49 43
46 35 31
49 44 34
47 46 39
33 41 32
43 41 33
35 41 30
66 64 62
57 57 54
44 42 36
64 41 36
59 49 47
32 29 23
54 53 47
61 49 47
37 27 25
32 48 32
51 54 44
26 30 24
39 33 30
56 55 49
63 54 51
50 36 34
62 62 56
47 45 37
53 50 48
46 50 37
46 48 43
51 42 34
70 72 66
60 61 58
42 43 37
69 52 49
60 38 37
58 37 35
41 33 31
39 35 28
66 62 58
38 33 29
62 51 44
37 42 34
40 47 36
48 40 34
38 33 28
67 51 49
43 33 29
56 47 44
36 28 27
68 58 56
61 64 58
65 44 40
52 45 38
33 29 23
27 31 25
49 50 41
35 42 35
41 44 39
62 61 53
63 52 49
61 63 57
47 52 45
52 54 49
45 43 41
62 50 39
42 49 43
63 57 54
45 44 39
38 37 24
49 52 41
54 51 47
42 45 37
42 36 36
53 48 43
47 44 36
56 49 46
51 54 43
69 56 49
51 38 36
38 38 33
35 25 23
68 67 61
53 55 50
41 39 34
41 41 32
81 52 51
49 38 36
50 53 45
51 55 47
39 38 33
38 37 36
43 39 38
39 46 38
69 66 63
83 52 49
52 50 44
69 65 57
39 39 29
48 52 39
63 45 42
66 65 61
50 42 38
50 35 29
55 51 47
57 49 47
43 41 36
28 34 24
42 37 30
59 52 46
46 38 31
38 23 20
55 52 45
80 52 50
55 52 49
53 40 38
47 50 42
64 43 38
53 47 44
45 44 42
43 34 25
43 41 36
42 37 35
52 43 40
67 57 48
55 49 42
36 40 28
53 59 52
46 42 38
50 43 39
51 48 43
46 46 38
46 49 41
66 38 37
47 43 35
40 23 21
54 24 24
54 51 43
44 43 36
82 74 72
59 47 42
63 54 48
44 35 28
42 41 39
60 50 49
77 64 57
67 51 50
52 38 30
48 42 37
63 50 50
82 66 66
59 41 38
40 43 33
46 39 36
59 60 56
58 60 56
60 55 42
76 68 64
67 59 56
61 58 55
41 40 34
64 61 61
43 52 33
55 36 32
69 52 50
86 70 70
49 44 40
43 35 31
56 55 46
64 52 46
45 27 20
104 102 100
31 26 22
42 39 32
57 43 34
66 48 47
53 46 41
49 43 43
49 35 31
63 35 35
53 45 40
51 50 42
54 48 46
57 35 34
58 46 46
49 41 40
48 40 36
67 53 50
48 30 25
50 45 42
47 35 34
90 53 53
32 26 25
66 50 47
46 35 34
66 56 56
45 42 40
83 76 71
64 48 46
61 54 51
62 47 45
57 54 52
64 52 45
50 36 36
40 35 33
49 49 47
48 46 37
72 40 37
65 62 56
47 39 39
81 47 44
70 52 50
62 39 33
48 40 37
51 42 38
60 36 30
54 42 38
25 23 17
58 55 41
67 44 44
70 61 59
41 29 26
63 39 38
53 50 45
50 47 39
46 41 36
73 60 60
68 58 52
56 44 43
43 31 30
47 27 23
152 144 143
54 40 40
57 56 49
42 36 31
44 39 36
48 38 34
50 44 35
53 44 43
52 29 27
46 37 29
55 33 28
52 46 46
49 37 34
48 39 35
84 79 78
50 29 25
47 39 36
66 58 53
57 46 42
48 31 28
31 26 20
58 50 43
57 47 43
60 39 38
34 18 18
50 51 41
38 26 25
57 31 27
53 50 44
58 45 39
76 39 38
50 27 27
49 40 34
56 36 36
54 43 40
44 32 27
58 45 42
63 46 46
43 32 30
46 34 32
63 89 61
48 35 28
51 41 41
68 49 49
24 15 13
50 53 37
51 34 31
69 41 34
41 57 38
66 59 55
50 39 37
43 37 28
65 29 29
52 29 29
54 43 39
61 53 48
57 33 33
63 50 48
54 45 43
63 50 47
46 28 24
53 42 41
49 39 38
49 33 32
47 27 26
65 57 52
79 61 57
47 37 37
61 47 44
51 42 38
53 36 34
71 42 36
40 35 28
54 39 38
44 27 25
64 44 44
41 34 28
53 40 33
49 33 32
46 28 28
51 34 34
49 40 29
46 27 21
52 34 33
63 62 59
52 25 24
42 25 25
50 44 40
38 31 27
40 43 33
49 53 37
67 30 29
46 38 35
50 35 32
48 29 27
57 51 50
39 26 23
46 33 32
45 34 30
67 39 39
54 51 46
51 42 41
48 40 36
33 29 24
46 38 31
54 42 40
33 25 23
48 39 36
42 33 27
24 8 6
42 35 32
53 35 33
39 37 31
48 40 40
36 24 24
59 54 52
15 6 4
30 14 12
53 44 38
50 12 12
45 12 12
31 6 6
49 9 8
32 8 7
48 13 12
65 17 17
44 8 7
40 10 10
60 17 16
98 20 19
48 11 11
49 13 12
54 16 14
47 13 13
42 11 10
55 13 13
34 9 8
41 11 10
51 14 12
29 7 6
31 9 8
39 11 10
34 9 8
52 14 13
48 13 13
48 13 13
83 23 23
35 10 8
66 19 17
70 14 14
39 11 10
25 8 6
84 22 22
45 12 12
35 9 8
41 12 10
37 9 7
46 11 10
40 10 10
37 10 9
0 0 0
0 0 0
0 0 0
0 0 0
0 0 0
0 0 0
0 0 0
0 0 0
0 0 0
0 0 0
0 0 0
0 0 0
0 0 0
0 0 0
0 0 0
0 0 0
0 0 0
0 0 0
0 0 0
0 0 0
0 0 0
0 0 0
0 0 0
0 0 0
0 0 0
0 0 0
0 0 0
11 18 10
22 41 23
23 38 20
19 33 16
24 42 21
23 42 23
18 32 18
26 41 23
20 35 20
24 45 25
25 45 25
24 42 24
10 22 11
17 33 16
10 22 10
23 48 26
20 39 21
9 14 7
22 34 19
28 49 26
24 41 22
14 25 14
17 21 12
19 36 18
25 46 25
19 38 20
28 56 30
22 40 22
20 39 21
44 82 47
27 48 27
16 35 16
22 41 23
17 33 17
20 37 21
22 39 21
11 19 10
25 47 25
17 29 16
19 27 14
13 17 8
23 45 24
52 42 37
35 26 24
50 46 43
32 32 26
47 52 47
28 34 28
40 45 40
50 50 43
26 32 18
53 40 32
33 39 27
36 37 29
55 30 27
53 52 50
30 26 22
37 38 31
25 35 24
36 60 39
42 44 35
38 40 35
31 38 29
40 42 34
37 45 36
33 39 32
25 35 22
30 35 29
50 53 42
40 31 26
49 38 33
51 51 45
43 42 37
33 56 32
49 50 37
54 50 40
31 41 30
36 42 29
59 45 40
52 49 41
48 48 40
34 33 27
46 40 34
35 36 28
53 61 50
42 41 38
41 52 42
39 40 35
50 52 47
43 41 38
46 48 37
37 36 34
109 110 107
34 40 30
49 44 38
46 51 45
35 45 31
40 46 37
128 130 128
43 38 31
71 73 65
43 48 42
35 35 31
92 52 49
40 47 33
40 44 37
45 38 30
45 51 43
42 50 40
52 58 52
47 47 42
34 37 32
75 56 51
58 56 51
44 32 29
29 39 28
57 66 53
58 54 48
48 44 35
40 35 25
48 48 45
52 48 40
44 51 32
38 41 32
47 54 43
23 31 23
50 40 35
54 56 50
52 41 37
54 53 45
34 36 26
46 49 37
33 32 25
61 64 43
87 72 69
50 45 33
59 54 50
54 53 39
51 46 39
49 42 42
38 43 36
36 37 30
47 53 43
44 46 40
63 60 54
47 53 45
55 53 53
56 62 55
45 48 45
37 44 37
187 61 60
31 31 24
55 63 55
35 39 27
50 49 40
25 30 25
54 46 41
83 79 75
49 53 45
58 35 33
42 39 33
56 58 53
50 39 32
40 43 38
48 50 38
55 53 51
32 33 30
41 33 28
24 31 20
45 40 37
55 60 52
50 43 41
46 49 31
51 57 50
51 55 39
46 43 37
41 51 40
48 48 42
56 48 42
64 55 50
54 54 49
52 51 44
47 47 42
55 54 44
29 32 25
59 51 46
31 26 21
52 50 44
53 47 44
53 43 42
37 40 34
51 49 41
58 48 36
57 54 52
41 26 26
48 51 41
33 40 29
57 54 47
62 61 55
42 42 38
45 47 39
63 42 39
63 40 34
43 49 42
45 43 39
69 55 47
55 31 30
48 46 41
49 42 36
50 42 35
48 32 27
50 68 44
58 59 53
55 58 53
43 39 32
58 55 50
41 52 40
40 37 35
51 43 38
48 49 38
49 48 40
37 41 37
54 49 46
60 47 42
51 51 34
52 57 44
54 47 44
53 48 41
49 34 30
42 39 32
53 47 46
41 34 31
50 47 44
44 35 30
41 33 23
45 43 40
54 48 43
60 56 48
45 41 34
80 49 46
36 34 28
37 39 31
56 45 39
45 42 39
38 28 28
43 40 35
55 35 33
42 52 41
66 80 60
62 63 52
40 43 37
53 49 44
60 48 44
51 49 43
51 45 42
53 70 53
62 51 49
74 108 66
71 71 68
38 32 31
41 45 40
39 39 36
47 44 36
51 51 47
49 46 43
60 56 53
56 47 46
78 82 72
74 54 51
51 47 44
60 47 47
42 50 38
69 55 48
48 46 42
58 56 53
54 55 48
66 49 45
65 57 55
62 35 34
72 75 70
40 33 27
53 49 44
48 24 24
41 46 35
45 44 39
51 46 39
36 30 26
62 40 37
37 32 29
59 48 39
40 34 27
61 56 47
54 39 35
50 54 48
61 53 49
74 44 42
63 47 47
52 50 47
59 47 44
36 31 22
56 43 41
60 56 55
53 47 44
73 46 46
44 40 39
55 50 46
64 54 51
34 24 18
46 38 37
40 31 27
41 34 26
49 48 45
63 54 48
52 49 43
45 37 36
45 42 36
43 39 36
39 47 37
63 50 43
59 39 37
46 44 38
44 43 39
42 36 25
56 48 42
51 52 44
70 57 54
38 34 34
53 56 45
44 36 33
43 35 33
56 54 50
77 71 66
51 45 39
49 49 38
110 63 58
50 50 43
84 79 71
54 48 43
45 40 38
47 45 38
52 28 28
49 46 35
37 30 29
66 63 46
40 36 31
42 33 25
51 43 37
59 43 34
60 36 31
58 52 41
48 38 36
63 53 51
57 49 43
52 48 47
56 37 37
40 37 34
44 40 33
42 43 39
65 38 36
45 28 24
55 34 34
50 38 37
54 45 39
55 46 42
55 43 41
51 43 34
66 60 57
47 43 35
45 48 40
53 48 47
54 50 47
42 41 38
61 49 46
39 35 34
42 36 32
41 28 25
53 29 26
38 17 16
58 40 35
70 62 62
63 45 40
50 42 35
46 24 22
70 45 45
45 37 31
35 32 31
45 28 25
72 38 35
66 60 59
55 46 38
51 49 47
77 76 72
56 43 40
72 57 54
48 40 37
44 29 29
49 38 33
47 41 39
60 52 51
37 26 17
64 47 44
46 51 40
29 23 22
58 41 41
44 35 33
61 36 29
47 42 37
52 45 43
63 48 42
58 36 28
59 38 31
68 54 50
57 49 46
65 48 45
58 43 36
36 23 23
59 47 46
39 23 19
50 43 42
44 25 17
53 38 33
93 76 72
65 43 42
57 75 52
44 34 31
43 30 25
57 54 50
57 52 52
66 42 41
61 33 30
54 38 36
69 58 54
45 35 25
61 58 43
57 39 34
61 28 27
67 58 55
49 37 34
50 29 24
48 40 40
51 28 24
58 35 34
44 29 28
47 30 28
47 41 38
57 42 36
62 48 47
39 31 27
58 39 35
53 42 37
62 58 46
55 43 41
46 15 13
57 40 39
48 23 19
40 34 26
59 51 51
44 39 37
62 41 38
75 53 52
39 31 31
62 50 49
59 42 38
59 53 53
63 29 28
64 30 29
50 41 37
61 54 48
108 105 104
55 50 46
66 58 53
42 32 28
66 46 44
57 52 52
55 24 23
47 32 29
53 47 42
49 34 33
47 32 32
54 58 48
52 47 46
49 24 19
45 30 29
60 33 29
66 35 33
42 26 22
44 32 24
54 41 37
34 7 6
55 51 43
48 22 22
44 30 30
52 32 32
42 30 30
52 42 39
44 33 28
48 31 28
46 38 30
38 23 22
72 32 30
34 16 11
41 34 33
51 59 39
40 29 28
42 31 31
65 60 54
49 42 38
46 33 29
61 27 27
38 19 17
40 26 24
64 46 45
49 35 31
52 31 28
49 32 30
50 43 40
41 30 24
43 27 18
46 32 28
40 30 30
52 36 27
46 37 37
34 18 11
37 33 30
40 41 37
42 37 32
38 35 30
52 36 36
59 45 43
48 41 32
45 21 19
43 9 8
25 5 4
49 13 12
47 15 12
44 11 10
32 7 6
31 9 8
33 9 8
60 12 12
67 12 12
108 30 29
50 14 13
41 11 9
64 14 14
39 11 10
51 14 14
45 13 12
38 10 9
76 21 20
39 10 9
15 4 3
41 10 10
35 10 9
46 11 11
60 15 15
46 13 12
43 9 9
52 14 14
41 11 9
53 12 12
44 12 12
37 10 9
45 12 11
41 11 10
51 11 10
40 11 10
56 14 14
72 19 19
65 21 18
59 19 16
51 14 13
31 6 6
0 0 0
0 0 0
0 0 0
0 0 0
0 0 0
0 0 0
0 0 0
0 0 0
0 0 0
0 0 0
0 0 0
0 0 0
0 0 0
0 0 0
0 0 0
0 0 0
0 0 0
0 0 0
0 0 0
0 0 0
0 0 0
0 0 0
0 0 0
0 0 0
0 0 0
0 0 0
0 0 0
13 18 10
23 42 24
24 45 24
19 22 13
19 40 16
15 29 15
18 36 19
25 44 25
21 34 18
19 30 17
37 32 18
24 42 23
25 46 26
21 39 22
19 30 16
17 32 16
21 41 21
25 50 28
19 34 18
29 52 30
12 25 13
20 38 21
21 39 22
24 44 25
23 29 16
29 54 31
22 29 15
12 27 11
23 43 23
20 40 22
19 29 14
21 38 21
34 84 38
22 43 23
22 39 22
22 28 15
21 34 19
21 34 19
22 31 18
19 37 20
17 28 15
17 30 17
13 22 12
20 22 13
65 55 48
42 40 30
47 45 39
41 44 40
56 54 48
50 42 35
42 34 31
18 35 20
23 33 21
35 31 27
45 35 29
59 52 48
51 46 42
43 45 32
43 46 36
35 51 34
47 48 42
35 34 27
60 60 52
45 44 43
51 63 48
44 42 40
47 44 37
43 49 38
54 51 44
45 46 38
56 58 55
54 51 46
66 63 58
38 38 26
35 43 34
27 36 24
38 49 35
44 41 33
46 51 43
115 70 45
45 45 38
17 28 16
43 54 37
55 51 49
35 42 31
45 41 38
35 50 33
48 52 43
30 37 30
44 35 24
36 40 32
30 40 30
34 35 29
29 29 25
46 47 37
50 60 47
46 45 39
44 50 37
42 47 35
35 49 36
54 46 39
51 62 47
40 38 27
43 49 37
67 66 57
39 48 32
58 58 51
36 38 34
48 45 39
53 51 48
53 40 35
31 37 29
36 46 34
28 37 27
49 48 39
45 48 39
59 50 45
50 38 32
41 37 30
46 41 37
41 29 25
88 87 84
47 52 40
48 48 41
37 48 37
61 47 41
38 41 30
41 48 40
68 58 52
38 43 37
48 49 44
44 47 39
39 41 35
55 38 31
31 42 30
45 40 29
54 52 37
37 44 33
42 40 31
49 39 35
45 47 41
43 43 38
40 36 30
59 64 59
57 64 57
51 54 45
44 46 40
45 51 41
53 58 48
53 47 45
40 39 33
33 38 31
59 54 46
47 45 38
51 39 33
58 62 55
35 46 35
54 43 39
40 47 40
49 31 26
61 59 58
54 55 46
83 76 74
45 41 34
42 43 31
55 49 45
42 40 35
27 39 27
39 33 28
69 56 51
42 46 33
77 68 67
57 51 37
62 56 53
46 36 30
69 71 63
47 38 28
38 46 37
35 36 31
52 47 42
62 61 51
44 34 30
58 79 53
60 55 49
48 45 36
47 38 38
40 44 32
46 44 36
59 54 47
49 43 39
43 57 38
36 43 33
42 38 38
64 65 46
59 45 40
48 39 34
30 33 23
58 60 51
61 55 43
51 53 41
49 44 39
54 52 48
57 39 32
41 37 34
39 38 32
38 30 25
48 42 37
50 51 49
60 66 58
58 58 54
60 40 32
41 48 40
62 61 54
32 35 27
48 45 40
47 42 37
52 37 27
49 44 40
53 52 46
39 38 35
65 47 43
25 30 23
30 38 30
49 46 35
59 58 50
51 40 27
61 59 53
49 49 45
51 44 39
51 55 46
55 53 48
61 53 46
34 32 30
72 52 43
51 43 43
52 54 42
63 56 53
59 44 40
61 53 50
73 59 54
49 43 40
49 50 36
52 62 45
54 48 41
60 58 50
44 39 31
48 40 35
56 55 52
54 58 52
47 41 38
47 50 42
34 30 27
50 48 39
43 39 30
40 45 38
57 53 44
72 67 61
93 93 89
55 40 35
54 53 51
50 33 27
61 53 50
60 44 39
63 55 51
54 48 44
48 46 45
57 44 40
42 43 36
60 55 52
40 36 34
50 28 21
45 48 43
60 52 50
47 52 43
63 64 52
45 39 39
35 32 28
60 46 44
62 50 45
54 50 48
47 43 38
58 61 50
40 35 25
50 40 30
50 54 46
46 55 43
68 67 60
48 46 37
64 53 51
44 54 44
45 40 29
49 47 40
78 46 43
69 62 53
54 45 38
60 58 49
55 45 39
57 48 45
50 49 47
44 32 27
55 32 24
49 49 40
67 58 53
55 41 38
73 65 59
50 49 42
66 58 55
52 46 42
53 52 48
39 26 26
62 29 28
64 60 55
46 43 40
43 36 33
65 60 58
37 37 32
55 63 54
56 51 49
53 50 48
54 45 38
56 47 44
45 37 30
61 63 59
74 70 67
57 43 36
49 45 40
58 54 50
67 47 41
61 48 38
74 52 50
41 43 40
55 47 46
40 39 31
58 50 43
63 58 52
62 43 42
44 32 30
43 40 34
44 36 27
49 48 44
49 47 45
67 62 52
45 35 35
61 58 50
59 59 52
56 52 46
66 59 57
48 36 36
43 35 33
80 82 79
52 48 42
36 26 26
47 34 30
73 64 63
56 42 35
54 46 42
54 43 38
60 53 51
35 33 30
66 54 52
41 38 27
50 41 33
50 46 43
48 41 30
61 47 47
60 56 53
47 47 40
65 54 53
58 45 45
43 30 30
62 54 49
80 88 70
54 28 25
41 38 33
48 32 30
50 45 42
36 52 34
48 50 41
48 38 34
61 34 29
45 38 37
47 37 36
48 46 39
60 50 48
51 41 37
54 47 41
57 48 39
60 45 41
50 35 34
68 48 40
48 43 38
48 28 27
75 38 34
67 45 43
49 41 37
45 46 41
98 70 68
65 53 48
48 36 30
48 32 31
49 38 35
53 36 32
58 49 44
59 47 47
46 41 37
71 55 52
62 53 43
64 57 52
57 38 35
56 38 33
42 27 19
49 46 36
61 44 43
47 29 28
121 49 47
55 48 48
42 27 23
90 45 45
53 47 45
51 41 39
44 34 32
56 51 50
54 37 36
35 13 13
60 49 45
52 44 43
64 53 50
55 26 26
51 34 29
52 33 30
48 28 24
68 66 61
62 48 46
56 48 44
73 47 37
68 60 56
56 44 41
95 48 42
42 36 30
37 41 31
79 29 26
50 44 37
43 31 24
64 51 48
59 54 54
56 49 47
57 29 27
53 33 33
50 51 40
57 54 51
39 26 17
64 42 41
49 29 29
65 60 53
66 47 47
47 30 30
38 30 25
45 27 26
56 47 44
48 24 22
54 37 30
67 61 57
60 53 50
48 45 31
42 37 31
38 38 31
54 37 36
49 30 23
61 36 32
36 26 16
63 43 34
63 53 49
59 29 28
64 62 57
36 28 25
44 24 23
47 26 25
58 55 51
63 58 54
36 23 18
54 42 42
44 43 38
57 53 50
46 53 38
48 41 34
51 31 28
36 30 21
67 50 49
39 34 28
63 48 48
50 37 36
63 49 46
43 24 21
50 38 35
60 38 37
70 32 32
48 27 27
57 45 37
50 40 40
43 25 25
46 27 24
56 37 33
43 28 28
41 41 25
55 51 48
58 34 32
53 50 42
57 32 29
47 42 37
59 40 40
41 40 33
60 45 43
45 37 33
36 30 27
41 38 31
37 25 21
46 31 31
48 31 23
41 21 20
33 24 23
72 65 64
53 26 25
49 40 40
44 25 25
37 31 20
33 27 19
40 32 25
46 31 30
30 18 13
45 18 17
45 11 10
18 5 4
27 8 7
35 11 9
45 14 11
39 12 10
50 12 12
47 12 11
35 10 9
49 14 12
53 14 13
64 17 16
41 10 9
40 8 7
38 10 9
30 7 6
51 11 11
65 17 17
59 16 16
58 13 13
31 4 4
79 13 12
41 11 10
49 12 12
34 10 9
25 7 6
32 7 7
46 13 12
60 18 16
40 7 6
40 9 9
50 10 10
51 14 13
57 13 12
41 11 11
62 16 16
49 13 13
73 21 20
42 12 11
35 9 8
33 9 8
24 7 4
8 4 2
0 0 0
0 0 0
0 0 0
0 0 0
0 0 0
0 0 0
0 0 0
0 0 0
0 0 0
0 0 0
0 0 0
0 0 0
0 0 0
0 0 0
0 0 0
0 0 0
0 0 0
0 0 0
0 0 0
0 0 0
0 0 0
0 0 0
0 0 0
0 0 0
0 0 0
0 0 0
0 0 0
6 12 7
27 51 29
17 31 17
19 39 20
26 45 25
25 43 25
25 48 26
18 35 20
21 41 23
23 39 22
17 33 19
17 33 18
14 23 13
21 40 22
24 30 17
22 35 20
23 35 19
17 32 17
14 28 16
27 46 24
21 40 23
21 45 21
29 55 31
22 37 21
22 39 22
19 37 20
26 34 19
20 35 20
16 37 17
14 26 13
19 32 18
33 63 35
20 35 20
20 37 20
23 39 21
17 31 16
18 30 15
22 34 19
15 25 13
19 33 18
28 51 28
19 34 17
23 41 24
19 27 15
28 29 25
39 35 32
40 40 34
39 21 18
38 39 36
55 58 55
43 51 40
39 40 34
40 29 25
66 39 33
32 27 21
45 37 26
28 27 25
24 33 24
54 49 44
36 41 35
63 49 46
48 51 47
33 49 34
45 43 34
52 51 47
33 36 18
48 41 35
32 35 28
38 35 28
44 45 41
53 56 44
54 48 36
41 34 29
52 41 34
37 43 36
46 55 41
77 46 39
53 76 54
46 50 40
44 37 32
43 36 33
47 40 36
45 46 41
52 40 30
43 49 39
53 45 40
55 50 44
46 44 39
42 39 35
83 50 40
51 58 49
55 54 46
27 36 28
36 39 35
45 48 38
52 44 39
36 33 29
40 55 41
41 56 42
49 45 36
34 29 26
50 57 44
37 38 34
58 61 49
54 42 35
57 41 37
68 70 63
46 45 33
56 57 48
46 49 43
34 46 29
44 47 39
72 63 62
33 22 17
57 62 56
55 58 46
51 39 36
31 33 22
64 54 45
39 36 31
46 55 45
49 39 35
79 36 24
83 67 55
66 54 46
41 47 33
35 39 27
53 58 48
41 41 33
66 61 56
39 34 31
69 43 37
42 37 34
56 53 50
61 55 49
61 60 52
55 43 31
61 45 42
45 49 38
55 50 46
35 44 33
41 50 39
54 42 42
54 53 47
45 48 40
46 52 43
36 39 25
64 58 53
56 48 43
41 45 38
50 52 45
69 43 33
50 58 45
54 50 45
108 103 101
62 51 46
38 53 32
51 54 48
59 56 49
39 39 34
52 57 52
62 59 51
47 40 35
50 54 46
51 54 49
45 55 45
48 42 33
51 52 45
34 39 33
36 40 33
40 45 38
37 60 37
42 43 39
58 50 45
39 39 30
50 56 47
64 44 40
35 35 30
42 47 37
54 79 47
46 47 37
74 54 51
60 58 55
50 54 45
54 42 40
48 44 41
52 48 39
52 42 38
47 45 41
50 48 46
37 34 29
51 48 40
37 44 35
52 47 44
46 46 42
92 94 90
44 32 25
66 62 56
50 43 37
69 63 61
25 31 25
28 32 26
57 64 55
45 40 35
50 46 40
42 43 34
56 49 46
46 49 43
82 78 73
65 53 51
45 40 37
60 62 52
66 51 46
59 51 49
33 36 29
46 47 42
51 40 35
39 36 30
57 54 44
65 54 50
38 38 32
29 33 28
50 49 41
51 56 49
49 49 40
49 46 39
57 49 45
41 34 29
51 43 35
53 54 43
68 70 62
54 58 51
64 66 60
57 59 53
62 58 54
43 32 26
59 56 54
51 45 40
44 44 42
52 43 37
61 53 45
59 52 46
51 43 39
67 72 65
55 54 50
51 36 29
59 46 43
49 48 44
64 51 42
58 50 45
40 30 25
58 44 40
39 33 26
56 52 46
55 55 52
38 42 29
46 46 40
41 46 38
65 62 52
46 46 35
34 32 26
49 48 45
58 61 56
54 47 41
54 40 38
61 53 50
46 43 40
34 31 28
61 57 52
56 37 32
35 28 26
54 47 46
38 31 27
57 45 42
60 57 54
54 45 42
60 53 48
53 61 49
71 71 62
44 40 38
60 43 40
39 43 34
55 46 39
45 52 44
41 39 35
56 55 50
54 45 39
48 37 33
57 42 37
34 30 25
46 42 38
60 58 47
51 46 45
66 56 48
48 52 46
73 63 61
47 45 42
56 45 40
38 35 33
49 30 27
50 50 41
56 46 43
55 48 44
61 63 56
55 44 40
44 40 33
77 84 74
54 52 39
67 54 52
63 54 48
45 47 38
36 31 23
51 47 44
40 24 23
55 48 44
43 37 31
57 52 44
45 58 39
51 42 32
30 32 29
67 63 61
52 47 43
33 24 18
32 30 29
54 41 37
61 51 46
63 47 46
68 56 51
52 47 45
64 45 40
71 57 53
61 58 53
66 55 52
51 43 38
40 41 28
51 47 43
58 52 48
55 43 39
56 46 45
48 39 33
69 45 41
57 43 38
59 50 46
77 54 51
63 48 47
33 27 26
62 42 40
70 59 54
51 46 41
69 35 24
48 40 36
35 38 33
57 46 46
54 35 27
43 33 29
54 40 37
54 40 33
57 49 46
71 33 30
47 40 38
48 31 27
49 40 37
33 29 20
40 26 22
49 46 41
44 45 39
39 30 29
54 42 40
45 41 37
45 36 33
48 42 35
54 43 42
64 54 41
55 48 40
52 34 30
58 29 26
53 38 33
59 41 37
45 28 26
46 30 28
47 40 34
56 53 47
41 36 28
54 54 48
63 46 46
49 33 30
69 64 61
63 53 48
75 46 40
48 32 32
73 71 69
36 40 29
43 41 39
55 39 36
52 48 42
63 51 49
48 26 22
44 33 27
61 62 56
51 46 46
55 33 33
53 44 43
44 28 28
61 47 44
54 48 39
53 36 35
50 54 38
42 30 29
60 56 52
36 34 28
50 48 43
45 35 33
49 26 26
64 64 54
68 44 40
54 42 39
52 31 28
50 42 37
41 22 18
48 47 40
62 55 54
87 62 61
48 43 35
59 46 40
63 57 52
48 37 37
52 48 41
55 37 34
43 36 31
85 59 57
56 43 40
50 34 32
50 37 37
58 47 42
55 46 42
100 98 96
59 37 37
70 59 55
70 53 51
44 30 23
62 38 31
64 23 23
37 36 30
56 59 52
50 42 33
41 26 22
43 36 34
56 43 33
52 30 27
59 38 36
43 32 29
59 48 46
51 42 41
52 59 45
41 44 35
36 32 28
57 40 40
37 33 22
38 23 22
57 28 28
59 58 42
44 35 29
57 39 38
44 37 36
132 52 51
37 37 28
67 30 28
37 32 28
57 41 39
62 37 32
47 37 36
44 35 31
46 26 21
58 56 45
57 57 46
44 34 31
56 45 40
44 35 30
48 36 36
52 30 30
71 64 61
66 46 42
51 21 19
41 27 27
50 39 37
70 68 63
54 38 34
52 38 37
35 18 16
53 35 32
44 28 28
69 53 50
65 52 49
55 44 43
69 48 48
31 21 13
47 31 29
59 35 34
54 32 32
47 33 29
51 33 32
54 47 44
38 24 24
45 39 39
48 35 28
50 39 37
59 45 43
45 24 21
44 27 27
103 98 97
48 38 36
51 41 38
41 35 29
77 72 72
46 15 15
51 45 44
68 38 38
42 43 37
57 38 38
42 28 28
40 18 18
12 9 5
60 56 44
31 28 22
44 38 38
36 34 30
37 31 21
34 29 28
51 36 35
24 5 5
63 16 15
47 9 8
32 8 6
69 9 8
46 12 11
57 9 8
49 11 11
42 11 11
55 16 14
42 11 10
30 6 5
37 10 9
90 9 8
37 10 10
53 16 14
34 9 8
62 18 17
47 12 12
48 12 11
43 8 7
46 12 11
39 12 10
38 10 9
42 10 9
44 10 10
64 8 7
64 18 17
98 27 26
63 17 17
66 18 17
42 11 11
57 13 13
48 13 13
36 9 9
34 9 9
48 14 13
55 9 9
53 14 14
40 10 10
98 13 12
62 16 15
37 9 8
33 8 8
0 0 0
0 0 0
0 0 0
0 0 0
0 0 0
0 0 0
0 0 0
0 0 0
0 0 0
0 0 0
0 0 0
0 0 0
0 0 0
0 0 0
0 0 0
0 0 0
0 0 0
0 0 0
0 0 0
0 0 0
0 0 0
0 0 0
0 0 0
0 0 0
0 0 0
0 0 0
0 0 0
22 32 18
19 38 21
14 25 14
22 39 22
24 48 27
12 34 13
15 33 17
28 41 23
20 38 21
16 32 17
12 27 11
25 48 27
16 51 18
25 46 25
14 28 14
32 56 32
25 46 24
22 35 20
22 46 24
17 36 20
28 43 24
22 48 23
23 39 22
23 41 23
16 25 11
18 31 17
25 43 24
26 47 26
28 52 29
9 19 8
22 40 23
29 54 31
18 33 19
22 38 21
24 46 25
26 55 26
16 30 15
19 27 15
22 29 16
20 25 13
24 38 22
19 35 20
18 34 18
31 59 33
13 15 7
37 41 32
20 21 17
56 65 51
61 65 54
38 36 34
39 40 37
60 51 43
42 47 38
26 27 16
53 56 53
42 42 30
45 48 39
43 50 44
41 45 36
27 24 17
46 45 35
49 43 30
18 24 18
28 30 26
52 57 51
47 51 47
29 38 28
54 51 48
60 65 57
43 57 42
44 62 45
69 73 66
53 53 48
26 27 24
50 47 42
39 45 33
46 70 48
54 56 52
51 55 44
39 39 30
59 49 44
28 22 17
53 57 46
51 54 52
50 53 43
50 54 49
56 53 40
46 51 41
32 36 32
36 40 28
47 46 37
51 52 48
50 41 34
51 53 46
57 53 45
65 48 40
34 42 33
44 47 34
47 59 46
49 41 38
43 48 41
41 29 24
62 68 63
49 61 50
57 59 46
47 55 45
53 48 39
44 48 38
19 35 21
31 42 31
49 59 49
48 41 35
52 54 47
53 51 44
53 40 34
50 64 46
58 48 46
59 47 41
25 31 24
40 47 40
45 46 39
69 78 64
61 63 52
66 59 54
52 63 45
45 46 38
51 63 48
37 40 29
32 41 27
52 52 47
37 39 30
52 40 39
49 49 43
41 43 32
49 42 32
51 53 47
51 47 41
42 33 30
79 69 65
38 44 32
49 48 40
35 41 33
39 45 40
38 42 33
43 48 40
48 51 42
48 53 48
46 45 34
46 42 31
46 41 38
31 29 23
30 37 24
37 43 35
48 53 47
61 48 39
41 40 37
58 59 49
76 67 67
34 36 26
72 42 38
44 39 32
56 57 53
44 34 30
56 55 50
35 24 21
37 41 34
60 42 37
38 37 32
61 56 48
51 62 49
46 38 33
48 50 41
39 46 39
49 63 43
58 57 49
39 39 31
50 55 38
47 39 33
59 65 51
53 46 43
53 40 37
43 43 36
36 35 27
48 45 41
54 53 47
57 48 46
48 53 41
58 52 44
37 29 23
42 44 39
46 45 38
208 68 66
46 47 41
49 49 42
67 37 31
47 54 40
46 54 44
51 54 48
47 34 30
58 50 47
51 50 40
53 51 46
41 33 25
60 58 54
96 96 94
36 34 29
48 38 34
39 32 25
69 64 47
58 53 48
36 40 34
60 55 48
55 41 33
36 33 25
51 48 41
53 52 44
59 78 56
56 53 48
52 53 49
50 54 41
53 47 45
44 37 32
48 41 39
62 67 57
55 50 41
59 57 52
60 58 48
51 57 49
50 57 43
58 57 50
58 53 46
75 48 42
62 58 54
49 43 36
45 43 32
58 55 49
61 48 43
61 41 35
51 42 37
54 46 44
50 47 46
68 58 52
58 54 49
54 52 47
62 45 40
47 50 42
61 52 43
43 53 44
57 44 37
43 36 28
47 37 33
47 32 30
57 53 46
63 53 53
51 51 37
59 53 48
60 56 52
51 44 38
42 42 34
64 59 57
55 58 53
54 52 45
66 54 47
65 58 54
53 38 37
48 38 33
45 39 34
53 47 41
58 55 48
58 52 49
55 50 47
44 31 30
50 51 44
60 58 48
49 50 47
80 64 60
60 58 54
53 43 37
44 38 34
57 44 39
49 46 43
255 140 138
53 43 40
68 50 42
68 64 61
50 47 41
59 51 49
45 30 29
50 56 45
42 42 38
57 48 45
47 37 30
51 36 28
51 35 29
48 53 46
58 44 43
63 50 48
60 55 47
53 44 41
57 53 49
48 57 43
55 47 43
40 41 35
62 58 54
42 43 40
53 50 43
64 57 53
41 39 39
54 52 43
52 38 33
80 54 52
60 45 37
51 48 43
42 35 30
55 54 48
78 46 45
46 49 38
58 46 39
62 42 40
44 41 36
54 48 43
37 37 34
48 46 41
50 40 38
53 39 35
42 42 36
55 53 48
52 35 34
51 47 42
59 49 48
47 47 41
41 32 25
55 50 43
50 38 36
59 63 56
55 41 38
57 47 45
52 46 45
67 60 56
50 49 42
48 42 34
55 33 31
47 50 46
52 45 41
48 39 37
58 52 45
48 36 32
43 37 34
49 42 37
59 46 43
79 65 61
72 71 67
64 63 60
56 53 51
64 52 46
50 37 37
70 51 44
63 51 48
53 43 35
61 42 41
64 46 44
75 62 55
57 52 44
49 44 34
56 43 35
43 43 39
68 56 46
34 41 30
56 35 34
58 62 54
70 66 57
36 34 29
66 39 35
62 49 46
55 55 43
55 33 32
69 57 51
62 52 44
57 33 26
49 49 38
67 57 55
64 40 38
54 50 49
57 31 29
43 31 30
52 40 35
46 40 31
55 51 45
80 67 65
255 80 78
38 33 29
45 32 29
55 30 26
61 51 47
48 44 42
71 58 57
53 38 37
67 60 55
48 35 31
44 23 23
43 40 37
55 43 42
57 44 39
48 41 40
45 51 42
36 29 26
57 47 44
56 49 46
43 45 35
51 37 34
59 48 48
59 48 48
43 40 38
39 33 24
53 39 35
37 42 34
55 45 39
45 39 33
54 50 46
62 50 46
37 34 32
54 48 40
61 50 49
128 123 121
45 33 33
57 49 41
50 35 32
39 33 26
60 45 43
36 35 32
49 42 40
46 29 26
69 63 61
59 53 48
51 22 22
63 38 33
49 29 28
63 52 50
66 63 57
49 27 27
81 62 58
55 26 26
64 40 40
38 42 32
48 39 34
52 42 40
67 45 44
53 28 24
54 49 42
65 53 51
58 57 51
79 56 56
41 32 28
46 32 29
56 46 39
64 47 45
48 35 30
40 33 33
46 32 29
47 41 32
46 34 29
72 49 47
50 43 38
50 44 37
56 45 44
70 46 45
52 37 32
57 32 31
39 42 29
51 24 24
59 38 25
60 57 55
64 46 44
65 47 47
63 38 36
19 21 16
63 33 33
39 28 28
50 42 38
53 43 40
51 45 39
70 36 36
54 38 33
44 27 27
57 41 36
61 32 29
62 47 43
59 34 32
57 31 29
57 38 37
55 54 48
41 38 32
66 33 31
52 28 24
50 30 27
59 46 43
64 43 41
53 37 36
46 32 30
78 61 61
56 40 40
46 37 32
53 29 28
57 53 48
51 42 42
56 47 41
41 27 17
53 42 41
38 25 25
42 35 31
46 34 25
33 36 27
50 44 44
23 7 6
58 39 35
58 31 31
45 30 28
59 50 50
50 53 37
31 33 26
43 35 35
60 40 37
44 36 29
48 28 27
28 15 12
35 28 27
46 40 39
25 8 6
63 17 17
26 6 5
98 27 27
79 12 12
35 8 8
33 8 7
46 14 12
40 9 9
55 15 14
60 17 15
55 14 13
38 9 9
103 28 28
31 7 6
119 14 14
30 8 7
53 13 12
47 13 12
55 14 13
48 12 12
45 12 12
43 10 10
36 9 9
50 14 12
39 10 10
47 13 12
57 15 15
69 11 11
51 13 12
42 11 10
50 12 12
68 17 17
55 15 14
28 8 7
50 11 11
49 13 12
40 10 9
46 11 11
42 12 11
32 9 8
42 12 11
49 14 13
58 12 11
50 13 13
29 8 8
0 0 0
0 0 0
0 0 0
0 0 0
0 0 0
0 0 0
0 0 0
0 0 0
0 0 0
0 0 0
0 0 0
0 0 0
0 0 0
0 0 0
0 0 0
0 0 0
0 0 0
0 0 0
0 0 0
0 0 0
0 0 0
0 0 0
0 0 0
0 0 0
0 0 0
0 0 0
0 0 0
14 31 16
19 34 19
19 27 15
24 39 22
17 29 16
16 23 13
27 44 25
24 46 25
30 58 33
17 27 15
24 44 25
15 27 15
25 47 26
21 37 21
13 24 12
21 37 21
29 36 19
21 34 19
21 35 20
25 41 22
20 39 22
16 31 17
19 35 19
23 41 22
18 37 20
18 30 17
14 18 8
20 37 20
27 43 24
21 36 20
23 47 24
26 47 26
14 27 15
30 59 33
28 52 29
18 42 18
12 19 10
24 40 22
20 39 21
23 49 25
14 21 10
18 33 18
39 68 38
20 19 10
33 59 33
13 30 12
34 52 36
47 42 35
49 33 31
35 36 31
35 37 32
39 34 26
52 37 34
17 17 8
35 38 33
42 52 42
50 55 45
45 43 34
28 35 28
48 49 45
54 47 44
39 43 35
52 43 32
36 43 36
32 43 32
23 28 22
32 36 32
39 36 35
57 50 41
43 29 23
40 40 35
50 49 32
53 48 43
44 42 38
29 38 24
33 42 33
61 94 60
39 38 28
45 44 39
45 50 37
56 57 48
49 39 34
48 54 43
153 49 42
52 32 26
59 62 55
46 46 39
42 47 39
44 34 32
45 45 43
49 55 46
43 46 39
44 47 39
25 24 19
32 32 21
55 53 44
47 52 44
59 60 52
48 41 31
33 38 27
48 51 37
41 48 36
50 47 38
33 46 34
52 40 37
58 55 47
48 50 42
57 50 44
58 61 47
40 41 36
46 44 38
47 48 42
52 52 44
68 70 65
55 62 55
46 51 45
45 45 40
63 60 54
65 61 52
49 36 30
46 57 43
47 52 43
48 42 39
64 51 46
51 55 46
40 40 28
46 48 40
48 50 34
42 35 27
26 16 15
49 52 45
46 50 43
65 66 55
45 47 39
44 33 31
32 33 30
61 57 52
40 47 35
50 53 48
41 38 33
58 48 43
51 50 41
37 41 32
45 55 44
39 43 38
46 57 37
34 50 35
45 42 38
64 63 56
45 50 42
94 97 94
44 44 35
50 57 48
108 111 105
43 45 32
48 52 41
38 30 24
40 50 41
38 42 34
44 41 29
38 38 34
50 55 50
58 52 43
58 47 41
39 37 30
51 53 40
72 68 63
49 46 40
29 34 24
34 40 29
81 77 74
29 32 23
51 46 42
54 52 49
56 54 48
39 46 39
56 46 38
37 37 33
46 38 33
46 31 26
33 48 34
43 44 38
61 66 55
44 41 37
47 52 47
71 72 68
60 55 49
49 53 47
51 44 37
42 47 41
40 33 23
53 47 37
44 46 37
49 44 40
45 48 40
52 55 48
51 49 44
43 47 41
39 27 25
39 46 36
43 32 26
45 39 32
61 50 44
30 43 28
35 38 31
72 67 65
70 58 56
56 57 50
52 44 37
43 35 29
81 50 45
62 68 59
46 40 37
48 44 40
49 44 39
44 47 39
47 45 34
45 40 40
51 46 42
53 43 40
73 45 38
52 49 43
51 48 40
48 40 34
47 50 40
57 58 48
51 40 35
28 33 26
64 65 53
45 43 37
29 29 28
52 55 48
47 48 45
43 46 41
62 62 55
36 35 32
59 54 51
45 47 40
52 53 41
48 43 39
48 44 38
47 44 39
61 39 34
57 42 39
41 40 35
67 68 64
59 50 47
41 36 35
49 48 40
42 45 34
38 36 29
51 48 44
56 49 45
48 35 30
41 41 37
53 51 45
54 53 46
38 41 34
46 54 46
75 64 59
75 63 51
48 42 35
46 47 38
45 30 26
47 53 45
65 66 61
38 37 33
51 38 32
53 49 46
58 50 48
53 55 44
70 62 55
50 43 35
61 53 46
48 59 45
49 38 32
53 42 39
50 35 31
69 67 65
52 49 45
48 42 32
54 56 45
48 40 32
37 41 36
41 53 40
54 44 40
41 47 36
61 59 53
45 51 42
52 56 47
62 51 47
53 50 41
43 52 39
66 66 59
66 70 61
47 52 44
45 45 41
31 28 28
58 54 43
50 41 39
58 54 49
69 64 61
57 49 45
57 45 41
48 27 22
69 66 60
60 55 44
82 53 44
65 52 47
44 48 42
38 25 21
81 69 66
38 33 29
39 37 30
49 53 45
57 53 47
85 76 73
47 40 34
49 36 30
68 47 44
63 57 54
42 23 19
66 65 56
44 26 21
56 52 46
69 55 50
66 42 42
48 46 43
60 57 53
68 52 48
47 33 25
60 37 31
52 50 48
65 60 54
43 38 31
48 38 37
65 46 45
65 53 53
42 39 29
52 45 40
50 57 41
70 51 45
62 57 55
53 30 30
69 52 52
39 36 32
47 41 39
64 43 43
58 37 36
61 56 52
55 45 41
49 37 32
55 32 31
56 49 46
54 43 36
52 37 36
51 47 44
54 53 46
41 31 25
50 43 41
38 38 27
48 50 42
72 60 59
63 58 53
47 43 39
70 57 57
44 49 36
54 48 40
60 49 43
56 63 54
79 41 39
44 38 35
59 45 41
60 50 50
42 29 26
62 45 41
66 42 39
172 167 164
56 41 40
66 40 36
59 45 43
46 35 34
45 35 34
40 30 26
49 47 41
58 58 54
61 47 42
48 45 44
60 55 52
48 35 35
66 46 46
53 42 41
44 39 36
59 34 33
59 42 41
63 52 52
40 29 25
98 67 62
62 52 49
65 58 52
44 38 32
74 59 56
52 49 42
79 68 63
47 26 26
41 29 21
110 45 38
74 30 30
61 56 47
56 34 30
50 39 37
68 43 37
62 55 54
62 56 53
46 40 36
53 33 27
70 61 54
36 37 29
48 37 36
46 31 30
56 48 38
46 29 28
59 46 40
40 31 30
63 46 44
42 47 34
50 38 31
56 49 38
51 49 37
41 28 26
52 30 30
56 35 33
64 32 30
66 49 41
64 56 51
36 34 25
60 55 45
55 28 27
58 41 40
47 48 33
58 54 47
58 49 41
42 28 24
57 48 48
44 38 29
53 37 36
49 37 35
57 44 41
60 48 42
43 27 27
61 41 39
43 16 15
42 38 27
48 34 31
45 30 28
48 40 38
53 31 25
43 27 26
60 36 34
59 52 51
59 41 36
58 39 37
55 48 40
62 42 40
35 23 23
54 48 45
33 27 24
41 27 24
49 46 45
129 122 121
53 45 38
55 38 33
57 50 47
38 28 21
55 37 37
44 35 31
44 34 33
64 48 48
37 14 11
46 39 30
85 71 70
53 40 39
48 25 25
54 67 47
118 152 117
44 42 33
52 46 42
66 56 49
65 50 47
56 38 38
68 48 40
61 46 43
60 56 45
41 23 18
35 25 21
40 31 28
43 39 34
62 58 48
56 27 22
38 30 28
50 36 32
57 47 40
54 44 42
50 31 31
26 25 22
49 37 36
64 62 58
51 35 34
44 32 32
54 45 42
47 35 35
58 48 40
64 39 36
40 22 21
45 35 31
33 28 23
53 43 34
64 46 45
53 47 44
58 49 49
40 21 19
57 45 42
40 33 33
20 16 13
34 24 24
255 255 255
49 29 28
50 11 10
25 6 5
47 12 12
33 9 8
21 5 4
57 15 15
75 17 16
55 13 13
58 14 13
42 9 9
53 15 14
98 24 23
45 12 11
51 9 8
36 8 7
58 14 14
54 9 8
41 9 8
37 10 8
45 9 8
31 8 7
54 14 13
48 12 12
44 11 11
73 18 17
52 14 12
45 12 11
40 10 9
42 11 11
53 15 14
56 14 13
30 7 7
41 10 9
42 11 10
51 14 13
58 16 15
47 13 12
21 4 4
21 5 5
41 11 11
68 16 16
34 10 8
35 11 10
30 8 7
50 13 13
7 3 1
0 0 0
0 0 0
0 0 0
0 0 0
0 0 0
0 0 0
0 0 0
0 0 0
0 0 0
0 0 0
0 0 0
0 0 0
0 0 0
0 0 0
0 0 0
0 0 0
0 0 0
0 0 0
0 0 0
0 0 0
0 0 0
0 0 0
0 0 0
0 0 0
0 0 0
0 0 0
0 0 0
6 10 5
27 53 30
19 30 17
17 27 15
20 35 20
24 47 26
22 42 24
27 49 28
18 31 17
22 35 20
22 33 18
15 29 15
23 43 24
21 36 19
21 35 19
26 47 26
19 30 17
15 25 13
25 55 28
10 18 9
21 42 22
25 39 21
26 48 27
26 54 25
22 45 23
21 38 21
18 33 16
17 26 14
16 29 15
21 37 20
25 44 24
15 23 12
28 52 29
16 28 14
15 29 15
20 26 14
27 52 29
14 18 10
21 43 23
28 52 30
18 35 17
20 38 21
21 32 16
20 32 18
17 29 16
13 25 12
21 40 22
29 34 28
20 19 15
39 39 34
35 40 33
32 30 21
49 44 42
47 46 42
25 32 25
49 51 49
37 30 25
34 39 32
35 32 27
36 47 34
34 47 31
39 49 36
46 47 41
77 61 51
44 41 34
36 48 37
43 46 39
55 51 44
43 60 44
62 56 48
36 39 35
52 57 52
33 33 30
28 27 19
57 35 28
49 48 41
26 35 25
42 36 33
48 56 48
47 41 34
46 43 35
32 32 26
63 61 54
30 40 31
47 45 33
58 54 46
31 41 30
27 33 26
25 27 21
41 50 38
34 48 32
47 50 38
44 44 36
37 44 36
33 28 25
46 48 40
45 50 45
29 30 20
51 63 50
44 47 40
44 50 42
37 41 30
48 48 39
57 63 47
50 50 39
37 40 33
48 53 44
55 60 55
47 47 42
43 45 35
40 41 33
55 66 45
57 69 51
39 34 28
46 42 33
49 46 41
47 40 35
57 52 48
22 29 21
49 57 42
36 42 32
63 52 42
53 56 36
56 51 40
58 54 47
55 57 55
44 43 34
29 31 24
72 75 61
57 48 40
54 50 43
48 47 41
59 59 54
43 37 33
43 51 42
45 42 36
25 36 23
39 53 39
56 49 39
53 49 43
29 38 24
65 56 47
42 37 30
37 42 36
52 53 43
58 44 39
48 42 29
51 52 46
46 57 38
48 48 44
43 39 33
65 61 57
44 45 42
42 54 39
36 40 36
30 32 25
60 61 53
51 46 41
62 63 55
40 41 32
67 48 43
60 50 44
34 36 29
44 46 34
34 43 34
38 35 29
36 44 35
49 45 39
41 44 36
56 48 43
53 53 49
37 40 30
53 50 44
60 52 46
44 35 34
48 37 34
48 44 36
69 59 50
52 52 44
53 52 47
39 43 37
57 57 50
46 43 36
51 50 45
48 36 28
38 50 38
71 71 64
82 57 49
47 52 41
45 35 28
71 44 43
46 46 37
46 51 42
56 54 46
40 43 32
50 56 46
41 39 37
57 53 47
55 50 40
59 60 54
52 49 44
62 56 49
45 44 41
51 40 40
47 49 38
58 51 47
54 57 53
52 59 49
51 50 43
54 47 43
73 71 69
34 42 34
64 61 57
67 54 50
40 35 31
113 110 108
58 52 41
57 51 48
50 53 46
42 39 33
52 40 36
54 56 49
55 79 56
57 59 55
42 35 29
43 42 32
60 58 50
58 40 37
49 41 34
40 46 39
57 43 39
50 52 46
45 43 35
62 54 47
52 40 35
57 50 46
54 45 45
47 49 46
53 50 48
54 48 42
51 47 42
48 40 38
72 44 40
40 36 31
60 65 55
47 48 43
61 59 56
45 50 43
47 59 43
45 50 45
47 45 41
56 42 39
38 38 35
56 50 44
50 51 48
35 33 24
44 48 41
32 29 29
72 50 49
59 43 36
65 41 35
56 43 40
51 30 29
50 51 49
54 36 34
48 50 41
36 35 29
95 42 41
59 50 47
33 36 30
50 49 44
60 48 46
61 47 44
61 47 43
54 54 51
68 67 60
56 37 33
52 52 48
64 75 57
83 76 71
117 113 111
58 43 37
35 36 33
52 49 47
64 49 45
41 39 38
43 33 32
67 59 57
49 47 44
54 47 44
50 44 40
43 38 35
51 44 35
52 47 41
32 31 28
63 51 48
56 39 34
71 66 66
47 46 37
51 48 36
54 49 37
66 56 53
44 35 27
46 45 37
54 54 50
58 51 48
58 62 51
44 47 41
56 39 37
55 48 47
54 38 33
58 40 37
46 34 26
51 33 32
63 49 47
55 53 45
58 53 44
79 52 44
36 31 23
60 51 44
62 52 46
64 57 51
56 51 44
73 41 39
47 42 35
57 47 45
41 40 27
48 40 36
58 51 43
49 45 40
59 49 45
37 23 23
49 48 43
43 30 27
55 44 39
45 41 32
63 46 39
69 59 56
55 51 44
30 28 21
73 68 64
73 71 69
42 43 37
63 50 44
45 38 35
50 42 37
50 42 40
61 51 46
61 59 54
50 45 36
78 63 58
43 42 37
65 54 48
61 36 34
64 58 54
54 50 46
46 38 36
45 41 39
86 82 79
49 39 38
58 46 44
49 49 47
52 43 41
69 52 51
49 36 34
56 47 46
49 37 32
60 36 36
68 62 62
37 30 23
64 34 24
59 50 44
95 50 48
55 52 48
70 53 48
49 37 34
74 41 38
64 40 38
64 41 39
41 43 39
49 30 30
53 47 47
49 46 43
66 54 45
63 56 54
56 37 37
67 39 37
79 77 75
74 56 56
49 36 34
48 45 36
62 58 52
34 39 30
75 67 66
66 62 52
56 43 40
47 51 37
59 41 41
44 34 27
68 62 56
56 50 50
59 50 46
60 33 31
46 38 34
63 33 33
37 33 30
60 37 36
54 45 45
65 45 43
47 49 40
76 50 49
62 46 46
43 29 28
73 62 61
44 33 33
67 53 48
58 33 30
54 44 41
43 46 39
70 39 33
63 46 43
48 49 42
58 28 25
51 32 31
59 51 49
71 64 64
55 37 35
55 54 50
52 42 40
56 47 47
61 48 44
63 30 27
42 30 29
55 37 33
35 33 26
42 39 31
51 44 36
52 41 35
63 39 38
53 36 35
57 52 47
50 37 37
73 63 60
39 23 19
54 56 50
44 49 34
40 38 32
50 29 25
56 33 33
47 31 31
54 33 31
48 50 38
47 21 21
87 61 55
61 46 46
57 51 44
62 49 47
70 40 40
53 32 30
49 39 38
40 37 24
55 42 38
51 34 27
56 45 41
47 47 45
53 17 16
42 37 35
55 44 37
43 40 31
47 37 27
53 31 31
72 59 58
79 76 70
46 29 26
53 41 39
40 30 25
34 26 25
53 29 27
58 36 31
47 33 24
54 41 37
47 31 26
59 42 37
57 46 44
44 30 30
48 23 23
51 41 40
78 43 37
59 45 30
43 35 34
65 60 60
42 35 31
81 74 72
57 45 44
58 37 37
67 51 48
58 48 44
59 47 42
36 28 21
48 33 29
58 41 41
44 30 30
48 35 35
43 32 26
48 52 35
57 41 38
73 56 56
75 57 44
61 29 29
59 29 26
44 31 30
64 38 38
51 24 21
47 35 32
56 55 45
40 20 17
41 35 34
48 32 29
53 48 45
32 38 25
54 38 34
55 47 46
55 47 45
39 37 37
58 55 52
56 45 45
37 10 9
71 13 12
28 8 6
34 8 8
59 12 11
47 12 12
44 12 11
56 14 13
33 7 6
70 18 18
56 14 14
51 13 13
48 13 13
47 10 9
45 11 10
53 14 14
58 14 14
38 9 9
51 13 12
107 16 16
44 10 10
37 8 6
51 12 11
45 12 12
39 11 10
35 8 7
36 10 9
57 16 14
43 11 10
31 8 7
36 10 9
59 17 16
39 11 10
68 18 17
52 12 12
44 9 9
56 14 13
44 10 10
43 11 11
59 17 16
42 12 11
42 11 10
64 17 17
30 8 7
36 10 9
56 15 15
38 10 10
0 0 0
0 0 0
0 0 0
0 0 0
0 0 0
0 0 0
0 0 0
0 0 0
0 0 0
0 0 0
0 0 0
0 0 0
0 0 0
0 0 0
0 0 0
0 0 0
0 0 0
0 0 0
0 0 0
0 0 0
0 0 0
0 0 0
0 0 0
0 0 0
0 0 0
0 0 0
0 0 0
6 8 4
15 27 15
11 22 12
27 49 26
20 37 21
22 45 24
25 46 26
24 39 22
20 31 17
26 49 28
20 32 18
20 28 15
16 29 16
17 30 17
22 36 20
39 56 31
24 45 25
19 35 17
61 119 68
22 38 21
27 50 28
23 30 17
32 59 33
20 38 21
25 46 26
22 35 19
14 28 15
19 32 17
20 34 19
19 37 20
19 38 21
18 33 16
27 37 21
17 35 18
21 34 19
19 32 18
16 30 15
22 43 22
16 22 10
17 18 10
25 46 26
18 35 18
17 31 17
11 13 6
23 44 24
14 34 13
20 38 20
16 31 16
35 30 23
47 49 42
39 42 37
58 58 52
53 53 49
42 45 40
43 48 41
37 40 35
46 41 40
30 35 29
34 40 28
28 31 21
60 35 31
42 48 37
34 39 31
51 56 47
106 113 106
53 58 45
37 33 27
63 63 57
42 46 38
36 42 34
44 47 44
36 41 31
24 31 24
42 46 37
51 47 42
44 48 30
36 37 30
55 52 42
40 44 38
48 42 39
41 45 34
54 56 49
50 44 33
26 31 19
49 53 48
43 52 43
47 54 47
41 43 34
60 43 37
47 53 42
49 50 42
44 55 44
46 50 37
65 76 65
72 57 47
52 42 35
41 62 41
46 50 44
71 48 42
42 59 41
57 34 30
56 56 48
37 45 36
36 43 31
61 57 46
53 55 50
36 43 36
53 58 50
52 58 46
59 59 51
41 53 36
52 48 42
56 55 41
53 50 40
50 45 35
64 53 40
47 45 38
31 38 28
37 44 38
43 46 38
59 57 54
49 58 50
60 55 43
47 46 43
59 54 46
54 60 53
51 43 39
60 55 52
38 45 35
52 55 46
47 44 41
38 48 35
35 40 30
48 49 44
51 50 44
48 93 47
44 45 37
44 49 43
65 64 46
37 38 33
48 47 40
41 45 35
57 52 46
61 56 49
57 55 52
47 46 41
63 60 55
44 44 32
47 58 45
49 54 43
48 38 31
35 38 29
45 46 42
74 52 48
58 50 39
39 40 35
71 56 54
18 26 13
54 49 39
44 45 37
51 54 47
49 46 41
53 57 48
48 53 48
56 56 49
76 61 56
44 67 44
69 63 59
66 53 47
73 70 59
67 71 63
50 51 47
44 46 36
78 68 63
46 49 42
43 46 37
36 41 34
59 60 53
59 60 46
55 55 50
162 162 161
54 50 46
43 46 37
74 57 55
78 66 61
37 39 30
43 33 29
52 60 52
53 55 51
32 35 30
38 39 30
44 41 33
52 45 39
45 42 37
34 38 33
46 50 44
57 48 42
56 57 52
65 60 55
32 47 31
35 40 30
41 44 36
39 51 39
51 38 36
56 56 52
50 61 45
43 42 33
56 58 50
43 44 39
55 53 43
51 54 47
51 59 41
49 53 35
48 47 38
50 49 43
42 49 41
56 66 56
50 49 42
53 43 36
61 60 55
51 33 27
35 23 20
37 37 34
57 60 57
51 48 42
61 52 45
58 51 46
41 43 41
44 37 30
55 34 32
50 41 40
69 64 57
46 48 41
49 43 37
57 44 39
70 72 68
22 30 20
77 63 59
41 50 40
53 49 44
47 45 39
55 47 45
44 42 38
63 60 57
46 35 29
42 50 38
67 64 60
55 52 50
74 69 66
47 33 30
34 43 34
53 46 44
50 40 37
69 49 45
48 44 36
51 49 40
49 43 41
33 35 23
43 40 30
46 41 32
58 60 41
60 49 45
37 31 26
56 58 50
47 59 47
58 48 42
56 51 49
55 54 46
61 60 55
63 44 39
57 59 53
88 50 43
40 39 33
49 40 36
72 59 57
59 60 49
37 40 32
70 42 35
70 67 60
48 41 35
53 51 41
55 54 47
54 52 45
67 55 54
61 46 42
52 41 39
60 60 57
57 50 49
64 52 50
54 52 47
43 29 29
46 45 37
52 42 41
52 38 31
68 76 56
56 41 33
67 55 54
57 41 37
55 53 51
53 50 40
63 51 50
73 60 57
53 32 29
48 58 44
56 45 37
49 45 35
46 36 34
63 36 30
61 50 46
47 43 36
54 51 48
59 55 52
64 60 58
46 50 41
26 19 17
49 43 36
67 58 50
44 41 35
96 93 91
54 34 28
62 52 50
52 45 41
53 43 39
56 47 46
52 48 44
63 49 45
52 49 45
52 53 48
48 41 40
63 55 51
28 33 25
67 62 57
36 74 33
57 41 40
46 30 30
46 33 32
38 35 24
59 47 40
55 50 44
47 46 29
66 57 52
30 24 17
55 58 44
71 50 47
60 53 53
62 53 49
78 66 65
55 46 42
39 31 26
65 50 43
37 34 32
86 47 36
69 45 45
47 33 31
65 55 50
65 39 39
32 33 30
57 55 50
59 37 31
49 44 38
56 26 25
43 30 28
52 31 30
58 43 42
55 51 50
63 43 36
59 49 47
67 52 46
55 48 44
77 55 52
62 47 44
66 50 43
61 53 52
50 44 41
59 51 48
50 46 39
60 82 52
44 40 36
58 28 26
55 33 30
46 37 37
63 41 39
54 60 46
56 45 41
49 56 48
59 38 38
59 46 43
51 38 37
50 47 45
71 65 65
51 38 30
70 58 52
54 43 40
49 44 40
68 67 64
69 75 66
53 40 37
49 44 41
58 50 44
39 29 27
53 26 26
56 54 46
80 72 72
68 48 47
57 50 44
46 42 35
63 48 39
60 45 40
49 33 30
46 31 24
52 33 30
36 32 21
43 39 35
46 32 22
63 46 42
58 47 39
65 60 50
53 30 30
37 39 32
38 29 24
55 37 35
39 33 30
111 60 50
63 42 42
52 40 37
47 38 27
82 63 63
49 41 36
42 36 34
50 44 40
57 45 43
32 25 23
33 19 17
53 37 33
86 37 34
57 50 42
40 31 25
94 81 80
75 70 70
42 36 31
50 49 41
51 44 38
45 42 34
64 56 55
57 43 40
62 60 57
80 61 56
58 47 47
57 34 27
52 39 36
58 40 37
53 53 45
53 28 24
80 49 44
66 46 45
54 46 41
55 33 33
39 39 34
62 40 37
71 57 56
41 31 29
65 60 56
46 21 21
102 93 91
42 30 28
78 46 43
51 36 35
50 26 26
46 34 31
59 56 51
51 41 38
61 45 40
69 57 49
51 38 33
45 24 23
49 47 45
58 40 39
52 24 24
57 40 40
60 33 31
67 69 61
56 50 43
48 43 41
151 149 149
57 44 42
77 72 68
47 24 21
59 41 37
60 51 49
60 40 36
54 44 44
65 48 45
55 32 32
41 13 11
50 41 39
103 93 92
57 35 34
50 37 33
49 42 36
74 58 58
54 46 45
42 48 32
44 32 30
50 39 39
46 29 25
48 34 33
66 60 55
62 54 52
57 39 39
44 37 35
43 37 33
38 28 22
53 24 23
34 23 22
52 32 29
43 25 24
46 35 32
76 68 68
32 20 18
77 61 59
52 40 37
45 23 23
44 27 27
61 44 38
31 9 8
43 11 10
31 8 7
32 9 7
21 3 2
94 14 12
41 10 10
41 11 10
49 14 13
58 16 15
66 19 17
43 12 11
41 11 10
47 13 11
38 9 9
43 12 11
35 9 8
40 11 8
64 10 9
61 14 14
49 13 12
54 15 14
42 9 8
42 11 10
60 16 16
56 15 14
34 8 8
50 14 12
42 11 11
53 12 12
46 13 12
58 16 15
56 17 15
72 20 20
52 15 14
69 19 19
54 15 15
73 20 19
48 12 12
65 17 17
30 8 8
38 9 9
40 11 10
32 9 8
71 14 14
26 9 7
50 11 11
64 16 16
30 9 8
0 0 0
0 0 0
0 0 0
0 0 0
0 0 0
0 0 0
0 0 0
0 0 0
0 0 0
0 0 0
0 0 0
0 0 0
0 0 0
0 0 0
0 0 0
0 0 0
0 0 0
0 0 0
0 0 0
0 0 0
0 0 0
0 0 0
0 0 0
0 0 0
0 0 0
0 0 0
0 0 0
13 23 13
16 29 15
20 32 18
17 33 18
23 40 22
19 33 18
25 45 25
17 32 18
28 51 29
26 50 27
13 27 14
22 43 23
21 34 19
20 36 19
26 45 26
24 44 25
23 42 24
17 30 17
25 39 22
24 46 24
20 38 21
19 33 17
27 49 27
17 21 10
23 42 23
22 38 20
21 41 23
19 31 17
28 37 20
29 54 30
32 61 35
19 34 18
18 31 17
18 29 16
28 52 29
17 35 19
21 38 21
22 40 22
17 28 15
20 32 16
17 29 16
18 34 18
18 34 18
24 37 21
33 59 33
18 35 17
19 37 19
14 30 13
17 28 15
23 41 23
53 24 21
39 33 31
35 36 32
29 34 29
40 37 34
29 33 29
49 46 43
45 32 29
53 41 39
46 48 42
42 34 29
44 57 44
49 57 49
43 49 41
41 44 39
32 52 31
49 51 44
57 49 42
41 42 35
31 36 31
65 46 38
30 31 24
45 50 45
49 49 37
56 32 25
40 41 28
36 41 32
58 49 45
31 27 19
23 29 17
63 52 40
44 48 36
49 52 43
39 47 39
42 50 38
37 43 32
44 38 34
35 38 29
41 43 39
54 57 51
63 65 61
41 41 38
38 42 34
43 36 23
45 34 31
39 45 38
65 66 63
44 40 26
44 50 43
47 53 47
57 64 57
49 52 44
47 47 39
34 43 33
45 51 41
40 51 40
38 36 25
51 48 40
29 42 28
44 51 36
54 59 52
48 46 32
41 33 27
40 39 36
39 38 27
57 52 49
43 41 27
42 48 40
43 43 39
45 56 44
59 60 51
35 30 26
36 44 35
51 45 42
50 48 39
59 68 57
48 54 45
39 50 39
47 46 39
58 85 60
59 63 57
49 53 43
56 49 44
55 44 35
52 51 43
52 55 43
50 46 40
43 55 44
143 60 57
56 64 54
54 49 41
38 54 38
43 41 36
51 53 44
51 42 39
61 61 55
56 53 50
44 53 42
42 47 37
48 69 49
49 45 42
64 51 48
65 63 56
36 44 36
58 50 46
53 57 51
48 51 43
61 60 58
45 35 27
78 81 77
57 43 37
32 36 30
51 50 41
46 45 36
59 65 47
42 49 36
54 55 44
53 42 38
55 54 46
61 53 51
43 49 43
68 48 41
50 59 49
38 42 33
40 43 33
33 40 32
37 43 38
45 40 31
51 50 40
68 67 62
74 75 69
68 63 57
49 43 38
38 46 34
47 40 35
48 50 43
50 48 44
35 39 32
49 45 40
31 41 26
47 45 36
43 33 32
57 67 50
62 69 60
50 50 45
61 47 42
56 33 30
54 47 42
43 51 42
41 38 33
55 53 49
55 51 45
69 76 62
40 36 24
54 51 49
41 36 33
64 56 50
46 40 37
42 38 33
46 43 34
46 49 37
51 53 44
43 43 42
64 64 57
62 67 59
46 44 40
49 43 38
50 46 43
51 58 47
52 54 47
49 46 42
56 54 50
61 60 54
61 53 47
60 64 58
63 63 57
50 52 48
67 51 46
72 43 36
63 65 58
54 50 47
51 50 44
45 48 42
60 81 56
64 59 54
66 58 52
35 35 29
45 42 38
41 41 39
35 33 26
50 47 42
62 53 49
53 48 42
45 43 41
57 53 42
37 40 29
92 94 88
51 50 41
68 64 60
59 52 42
73 55 52
69 60 58
58 52 50
41 38 36
57 52 45
64 46 40
65 54 51
70 61 60
44 45 39
60 56 51
53 50 45
52 47 40
49 36 28
44 47 35
52 42 35
56 86 52
56 56 46
44 40 34
59 64 50
47 38 31
58 42 37
25 26 20
39 36 29
50 44 40
51 47 42
63 60 57
74 65 55
52 52 42
59 62 56
60 52 43
124 63 57
47 41 41
57 44 42
40 30 29
51 49 47
52 60 47
52 49 45
45 48 39
65 66 61
75 69 66
43 35 34
67 65 56
63 53 52
75 74 67
40 48 39
66 61 56
43 45 41
54 51 45
75 54 52
47 45 41
61 56 46
67 52 47
61 59 54
52 47 35
61 48 43
60 53 45
49 49 44
63 63 58
48 46 38
57 51 46
48 39 35
54 52 46
69 58 48
66 62 56
63 48 43
60 47 47
68 58 55
72 56 55
72 55 46
51 54 46
40 36 33
60 52 51
46 32 24
60 48 41
55 48 45
63 43 38
65 47 45
46 48 41
57 53 45
80 68 63
64 52 44
72 45 43
49 52 40
66 61 58
78 71 69
58 54 49
54 52 37
45 44 38
52 47 41
58 46 44
58 52 52
63 39 39
46 41 32
58 51 47
76 71 70
53 43 40
43 39 31
46 41 35
57 42 41
63 48 47
52 54 46
50 44 38
68 44 36
45 30 29
56 49 47
64 43 34
73 64 62
65 50 44
42 32 29
45 25 23
66 51 50
49 31 30
69 50 42
60 55 49
56 51 48
59 54 53
45 38 33
58 51 51
71 48 46
55 45 41
63 52 49
51 41 41
38 33 28
66 51 48
72 46 37
49 30 28
60 68 52
117 37 35
64 48 47
42 32 28
67 54 48
71 40 37
53 49 49
61 55 48
66 51 49
83 62 62
43 27 22
55 43 41
57 49 45
70 68 64
56 55 50
47 30 29
60 46 46
63 45 43
47 29 26
60 47 44
66 53 52
66 63 61
69 66 61
53 48 42
66 60 51
53 41 36
58 37 27
54 40 38
45 42 34
57 45 37
57 45 45
73 57 54
65 62 57
56 30 30
66 59 58
62 56 51
67 47 43
77 48 45
61 49 48
43 36 35
80 57 55
60 52 49
61 51 47
59 57 51
54 41 39
61 51 42
52 40 37
41 33 32
47 40 38
62 47 46
59 49 49
61 44 40
55 40 35
62 36 35
50 44 40
47 40 39
59 41 39
55 43 35
51 43 39
66 60 60
46 48 33
43 38 36
57 39 39
70 58 55
71 48 46
46 31 30
64 41 40
59 41 40
58 42 40
47 33 32
53 50 41
48 35 35
84 52 51
46 36 35
44 35 32
78 59 58
54 49 48
61 37 30
67 44 40
56 51 44
41 37 35
49 38 35
60 33 30
51 38 37
49 38 37
67 41 39
62 56 42
59 38 34
44 25 24
38 32 23
49 34 31
67 49 48
56 38 38
56 27 20
46 31 28
52 42 39
55 50 49
60 49 48
36 30 29
45 28 27
49 40 35
49 28 27
66 34 32
79 74 72
51 41 40
58 37 34
42 41 36
65 52 46
60 39 36
47 29 28
58 50 48
52 27 24
60 34 32
46 29 29
58 43 40
55 37 31
48 36 36
53 37 34
50 45 40
49 36 29
53 30 26
50 26 24
58 34 34
35 21 20
49 38 37
52 26 26
41 31 30
45 35 32
77 39 39
39 25 25
48 45 42
47 18 17
36 23 22
62 63 42
42 36 27
49 43 40
49 23 19
49 43 36
40 31 30
52 48 44
56 40 40
50 35 30
55 46 42
32 34 27
51 41 39
57 45 43
49 43 41
67 22 21
44 7 6
40 10 8
40 8 8
48 12 12
51 11 11
53 13 13
54 14 13
33 10 7
55 13 13
48 13 12
47 13 10
42 9 8
54 14 14
39 12 10
55 14 13
26 6 4
29 8 7
57 15 14
39 8 7
41 10 9
39 10 9
37 9 8
64 17 16
44 11 10
53 14 12
64 14 14
22 5 4
46 13 11
56 16 15
60 16 15
47 13 12
52 15 13
45 13 12
60 16 16
68 18 17
41 10 10
45 13 12
44 11 11
39 10 10
58 14 14
40 11 10
47 13 12
39 10 10
47 13 12
54 15 15
54 15 14
46 12 12
34 8 8
38 10 10
0 0 0
0 0 0
0 0 0
0 0 0
0 0 0
0 0 0
0 0 0
0 0 0
0 0 0
0 0 0
0 0 0
0 0 0
0 0 0
0 0 0
0 0 0
0 0 0
0 0 0
0 0 0
0 0 0
0 0 0
0 0 0
0 0 0
0 0 0
0 0 0
0 0 0
0 0 0
0 0 0
16 28 16
25 51 28
19 37 20
20 31 17
22 39 21
23 42 24
19 30 17
23 42 24
24 35 18
20 34 19
21 39 21
23 30 16
20 36 20
20 36 20
18 31 16
17 26 14
20 28 15
12 22 11
19 36 19
24 40 22
128 45 24
22 42 24
24 45 25
24 39 21
35 71 39
31 50 29
23 48 25
20 39 19
32 59 33
24 47 25
23 46 24
26 41 23
28 54 29
22 46 23
14 26 14
20 34 19
22 41 22
24 54 25
12 25 11
25 44 24
19 36 18
19 34 15
21 40 22
25 46 23
23 41 23
19 33 17
17 28 14
20 23 12
22 30 16
18 32 18
33 40 28
37 31 28
48 45 37
55 58 47
41 44 32
33 37 33
31 42 25
50 53 48
55 49 42
43 41 36
53 45 36
15 21 14
46 49 40
56 64 50
37 28 22
28 36 28
34 43 33
65 50 43
34 54 34
71 47 31
34 40 31
53 48 40
103 76 61
35 47 25
33 47 34
40 45 33
41 44 36
69 61 44
47 50 42
50 52 45
56 44 39
51 49 43
45 55 41
44 53 34
54 51 41
43 53 37
45 44 37
44 46 38
43 39 28
43 37 31
37 36 29
49 41 36
45 44 36
52 49 46
40 40 35
55 53 46
51 45 38
61 53 43
50 52 45
47 46 38
26 52 27
45 44 39
43 45 36
61 61 53
48 50 40
47 46 37
67 68 59
75 69 62
58 42 40
43 47 35
47 46 37
54 62 50
60 58 53
44 45 42
39 46 38
50 38 30
50 49 39
46 48 41
36 37 30
79 79 75
42 45 38
84 56 54
54 54 47
46 49 43
45 44 38
52 45 42
33 33 23
47 50 43
27 44 27
27 26 21
49 57 49
41 41 36
48 53 47
40 39 33
41 29 25
41 45 37
43 33 29
58 58 49
41 47 36
43 44 38
49 51 45
64 55 49
72 44 35
39 41 33
47 40 31
66 56 47
32 35 27
45 48 45
41 45 37
32 36 26
46 42 38
49 54 49
55 56 47
51 59 48
31 38 27
52 44 36
45 54 42
42 45 41
56 76 54
38 38 26
47 42 34
41 38 35
59 62 53
71 68 65
85 64 59
56 55 49
66 65 60
50 50 46
48 68 44
34 36 32
70 55 52
62 66 59
44 36 34
55 61 50
48 46 39
42 39 29
58 61 53
57 52 41
40 39 35
35 41 29
35 28 28
54 51 46
50 50 45
43 55 43
53 40 36
54 48 43
57 48 43
74 75 72
53 51 44
86 54 50
46 43 39
47 47 40
51 51 47
51 47 39
60 62 51
64 66 53
59 66 59
51 51 42
70 45 43
53 47 36
49 42 32
71 70 69
54 55 50
45 47 43
103 55 50
55 56 49
32 33 29
72 70 64
52 47 45
50 50 42
36 39 35
40 40 32
63 62 58
56 48 43
49 46 38
47 47 38
52 52 44
72 100 69
51 36 31
41 42 37
60 57 52
66 58 48
52 45 37
51 48 44
56 46 43
52 52 44
54 58 45
69 44 38
46 39 37
43 40 35
60 54 50
55 52 41
41 34 32
59 50 44
45 43 35
49 47 43
47 46 41
42 40 38
45 49 42
50 47 37
36 38 31
50 48 39
34 34 31
63 59 55
60 57 44
46 44 33
65 61 56
67 51 48
47 44 40
59 57 56
51 46 41
81 60 54
53 49 41
85 85 74
57 54 49
41 33 30
68 58 51
36 32 26
73 69 64
50 34 32
34 27 24
45 53 36
49 55 47
69 54 43
58 59 55
57 46 44
51 44 39
56 65 54
53 47 38
58 60 56
49 48 41
65 52 49
61 52 48
35 43 34
60 60 54
58 50 45
77 76 75
56 58 54
40 41 33
50 43 33
60 54 52
57 48 39
63 61 56
60 47 45
35 31 28
46 38 35
56 57 49
78 70 64
57 48 45
64 52 46
62 59 53
64 61 55
61 50 46
51 51 42
51 31 28
68 37 33
59 45 44
47 40 33
66 55 53
52 42 37
49 45 41
54 53 50
60 59 45
41 42 39
57 55 48
52 50 41
37 26 24
54 46 39
34 25 24
64 64 59
45 39 39
62 56 54
54 46 42
58 49 46
61 52 48
81 76 74
58 51 48
50 47 32
64 49 47
53 60 43
60 54 52
58 48 45
75 65 53
35 39 30
43 35 30
54 45 41
49 43 42
53 43 37
61 50 47
68 58 58
77 59 58
46 45 40
85 60 52
77 60 56
49 34 33
49 39 38
39 44 36
58 57 54
53 44 40
49 44 39
53 37 35
49 50 44
51 45 43
52 46 33
44 44 36
54 42 39
48 47 45
55 36 34
59 60 56
55 55 48
88 63 58
62 51 48
70 56 56
54 45 34
66 44 43
59 57 49
59 49 40
45 36 31
59 49 48
75 58 57
48 39 38
59 46 44
62 57 54
63 55 51
50 43 33
59 55 49
58 42 41
35 23 22
44 26 23
58 39 36
48 51 46
62 43 41
51 45 39
84 74 71
61 48 44
69 51 46
65 54 47
50 37 31
50 30 28
67 38 38
69 44 36
49 41 41
78 44 43
66 53 47
59 45 39
60 47 47
114 50 49
59 27 26
67 48 46
70 50 47
62 48 45
65 47 44
66 56 53
67 54 52
62 34 33
68 58 57
64 63 58
49 44 40
56 43 42
57 34 30
56 46 40
48 51 41
56 50 48
72 64 60
58 50 47
53 53 45
59 45 37
42 28 17
77 55 54
70 48 40
56 38 38
80 58 53
53 43 41
58 31 31
56 47 41
62 49 48
46 35 34
65 51 49
35 38 28
53 45 43
69 57 56
64 33 30
59 41 40
68 58 54
48 36 36
59 57 50
56 38 38
41 37 29
67 41 39
54 51 47
71 58 58
65 46 46
63 36 32
70 44 43
54 37 36
55 46 41
30 19 12
65 64 62
56 51 46
53 42 37
62 45 43
46 39 36
123 184 125
53 46 46
58 47 41
39 45 33
48 33 30
34 29 23
54 49 40
94 78 78
53 32 32
68 40 37
66 51 51
66 37 36
52 41 33
45 29 21
72 48 42
47 31 26
63 62 53
46 40 35
97 81 81
62 56 52
63 45 44
61 22 21
33 22 19
65 37 36
69 54 47
53 35 31
69 48 46
79 65 63
59 40 37
67 50 49
42 21 18
54 29 25
63 26 25
48 50 41
58 48 47
69 49 48
79 71 68
52 50 38
36 27 20
47 38 34
42 27 23
62 49 47
51 44 43
63 52 51
46 23 23
45 40 29
46 31 30
50 35 35
50 27 22
48 31 31
75 52 46
48 41 37
69 59 57
55 33 30
61 26 20
51 30 30
85 48 47
50 42 41
79 59 57
49 38 35
48 40 36
37 22 22
73 51 49
46 27 25
40 31 29
56 46 46
48 45 39
72 70 63
44 36 30
84 57 57
47 40 40
43 28 26
44 30 29
28 15 14
49 36 36
70 60 51
44 33 33
67 54 51
54 48 46
49 56 40
61 22 22
38 10 8
55 8 8
62 16 16
44 8 8
50 9 8
21 7 5
58 14 14
53 12 11
34 9 8
38 10 10
82 16 14
48 9 8
45 9 7
49 14 13
56 14 13
53 13 13
36 10 10
63 16 15
58 16 15
15 3 2
54 13 13
58 16 15
51 14 14
62 17 16
77 18 17
70 13 12
65 16 16
54 14 13
63 16 15
50 13 13
58 15 15
42 12 10
51 11 10
50 13 12
66 14 14
38 10 9
60 14 13
39 10 9
37 10 9
122 34 33
40 11 10
66 18 17
40 11 10
51 12 11
35 9 8
45 12 11
52 12 12
47 13 13
43 11 11
26 7 7
0 0 0
0 0 0
0 0 0
0 0 0
0 0 0
0 0 0
0 0 0
0 0 0
0 0 0
0 0 0
0 0 0
0 0 0
0 0 0
0 0 0
0 0 0
0 0 0
0 0 0
0 0 0
0 0 0
0 0 0
0 0 0
0 0 0
0 0 0
0 0 0
0 0 0
0 0 0
0 0 0
15 27 15
18 32 17
20 36 21
23 43 24
24 41 23
15 29 16
16 24 13
23 41 23
16 25 14
20 39 21
23 44 24
22 40 23
20 37 21
25 32 18
26 51 28
21 37 21
20 33 17
19 33 18
21 33 18
16 25 13
21 37 21
29 54 30
22 40 22
29 48 27
16 30 16
18 32 18
18 26 14
21 39 22
23 54 25
25 45 25
21 36 19
21 36 20
21 37 19
23 37 21
40 77 41
13 25 13
21 36 20
17 33 17
19 37 19
25 40 23
20 33 18
21 37 20
20 29 14
18 37 20
19 31 17
37 72 39
17 33 18
19 37 21
24 35 18
14 26 11
23 39 22
35 41 31
46 38 34
52 47 44
35 35 26
37 40 32
41 37 30
49 45 39
36 43 35
30 28 23
50 50 47
54 36 28
57 59 57
30 40 29
43 57 43
33 38 32
43 40 36
46 51 38
43 45 43
46 26 18
56 52 49
54 62 54
42 29 25
47 49 39
38 39 31
56 56 50
56 45 38
40 42 36
37 38 30
46 55 46
37 36 27
30 39 27
31 39 31
46 53 39
45 52 42
48 56 43
35 36 28
46 55 47
44 49 43
51 54 44
43 47 39
68 49 46
45 55 46
89 88 87
43 40 32
54 52 46
44 52 44
53 37 32
42 40 37
65 58 53
49 52 39
39 44 36
52 51 42
47 50 36
41 46 39
41 51 40
36 48 32
39 39 34
52 45 39
55 61 53
44 47 42
31 38 29
39 41 35
44 50 39
43 39 32
37 40 31
75 72 69
39 35 27
52 49 43
40 51 41
37 42 32
53 49 43
42 42 34
42 43 35
48 49 46
56 57 47
57 70 57
70 53 43
60 62 57
34 38 29
57 51 46
29 40 28
48 51 45
47 48 43
45 51 39
28 36 26
58 53 47
47 52 47
68 70 62
50 58 49
60 63 56
52 53 49
44 43 38
65 55 51
65 59 50
47 37 28
37 34 25
51 50 41
58 46 38
64 43 33
29 39 29
25 32 21
41 48 36
45 60 44
37 54 34
52 49 46
56 57 45
76 61 57
41 44 39
47 54 46
77 57 50
57 47 36
58 60 57
39 40 34
54 43 36
68 67 60
59 75 55
47 50 42
54 50 44
58 47 34
48 46 43
41 46 39
56 62 55
56 53 40
49 47 42
56 48 46
61 67 59
36 44 35
45 54 40
37 45 36
53 36 30
65 86 59
48 48 42
43 44 35
61 56 53
38 38 32
53 51 43
38 47 35
53 57 46
54 56 53
45 46 36
61 59 49
38 46 37
53 51 47
39 46 34
93 88 87
41 47 37
46 38 36
59 55 44
46 48 39
47 43 39
52 48 36
61 61 55
50 46 42
48 40 36
47 39 36
40 40 37
51 48 44
50 41 36
60 57 50
47 47 44
59 58 48
56 67 55
65 73 65
38 35 30
43 39 34
50 56 46
48 46 40
63 61 53
51 43 40
66 64 55
59 46 43
37 38 34
58 52 43
71 63 53
40 38 35
50 54 47
56 53 49
79 55 51
55 56 47
54 49 48
53 52 48
62 54 50
46 45 36
36 41 35
45 51 41
55 52 50
48 36 33
61 51 46
49 35 33
53 50 42
54 43 35
78 83 76
77 82 62
37 36 30
66 51 48
42 42 39
61 47 39
35 41 29
47 52 45
62 52 50
52 54 49
63 54 47
58 60 54
89 48 44
75 72 70
59 38 35
59 48 42
45 43 36
121 72 57
60 54 52
46 39 35
61 48 45
52 49 45
51 55 49
53 42 38
51 43 37
53 50 44
45 43 35
50 49 44
65 71 65
63 38 34
60 52 42
62 55 51
62 45 40
49 37 36
54 64 52
51 47 42
55 51 49
57 43 41
53 46 42
60 54 53
78 68 62
73 56 48
53 47 42
66 57 52
48 29 23
75 46 40
69 52 51
68 55 54
58 44 39
123 118 115
53 48 47
47 38 35
50 50 47
35 44 32
53 41 38
66 61 59
55 40 34
47 50 41
50 48 43
57 62 52
50 43 41
49 39 34
62 55 50
58 56 49
43 45 39
49 42 37
66 62 60
63 49 46
66 63 59
68 57 56
55 62 49
39 38 35
47 39 36
38 34 31
54 43 40
56 41 35
59 47 45
39 32 28
55 41 36
45 31 31
60 53 45
67 48 46
52 42 41
47 45 42
45 39 35
48 47 38
51 46 43
57 61 50
70 63 53
51 41 37
40 46 34
60 50 47
62 61 51
71 51 47
81 83 79
57 44 42
62 58 46
52 45 42
59 49 44
48 44 43
46 36 36
47 42 36
50 46 40
64 63 56
52 45 44
49 45 33
57 42 38
53 36 30
60 43 40
44 49 38
54 38 38
81 62 57
63 49 43
66 48 47
58 46 45
54 47 43
49 41 40
59 48 47
84 74 70
66 63 61
80 45 39
41 43 32
53 47 47
53 48 44
71 62 55
65 54 52
70 53 52
50 45 39
47 43 39
47 39 35
74 67 65
54 46 45
62 40 38
46 29 21
61 50 43
79 49 47
64 45 40
65 46 43
58 49 46
45 29 28
85 47 46
63 40 40
44 36 29
45 44 32
54 38 34
46 31 31
55 45 41
43 39 36
57 39 35
49 40 34
63 53 49
46 44 32
49 40 37
64 48 46
117 105 101
49 46 33
47 45 43
61 49 48
41 35 35
54 43 40
50 43 40
53 44 41
41 31 30
55 45 36
54 53 45
45 28 27
56 52 48
54 54 48
46 43 41
62 43 34
53 43 40
38 30 21
52 44 40
49 34 33
44 25 22
70 50 44
67 60 53
68 58 55
90 80 79
30 24 19
44 34 32
57 43 42
45 39 36
67 37 36
48 39 32
66 58 55
68 54 53
47 35 30
61 45 42
52 38 36
52 27 25
63 52 51
78 55 50
56 45 43
31 20 20
57 43 41
78 56 50
41 41 35
55 32 30
49 33 33
52 51 46
40 21 20
72 56 53
43 36 24
47 41 35
57 40 33
57 49 44
66 51 48
55 37 30
57 41 39
46 40 36
68 26 22
67 30 30
70 66 59
52 47 46
37 24 17
50 35 27
57 31 29
80 38 34
50 32 32
64 51 51
45 33 32
42 27 27
48 47 43
41 25 17
64 39 33
46 31 30
53 39 37
66 42 40
44 31 30
55 39 39
60 44 38
53 42 41
61 46 42
58 48 48
68 52 51
53 47 45
56 35 32
44 37 37
54 35 35
52 36 29
44 27 22
47 33 32
60 47 44
58 39 39
63 58 55
42 20 20
51 41 40
63 43 38
51 43 36
79 50 50
32 26 22
28 21 19
52 46 39
65 50 47
43 32 32
49 52 40
40 37 34
42 26 26
59 42 35
49 25 25
56 51 42
68 48 44
47 35 28
44 38 35
41 30 27
48 28 27
38 35 26
50 34 34
174 171 171
33 26 21
46 33 33
61 49 39
65 41 40
61 44 39
37 25 25
67 57 56
54 41 39
46 29 29
34 32 28
34 11 9
63 20 17
45 12 12
67 17 17
34 9 8
75 21 20
41 9 9
43 8 7
40 9 8
47 12 11
46 8 8
49 12 11
55 15 14
30 7 6
72 20 19
47 10 10
46 10 10
53 14 14
63 17 16
89 24 23
114 30 30
57 15 15
52 14 13
37 9 8
86 23 23
54 15 14
45 5 4
67 16 14
45 10 9
44 12 11
57 15 15
46 12 11
95 25 25
42 12 10
38 8 8
45 11 10
34 11 8
58 16 15
64 18 17
72 18 18
43 11 11
45 12 11
69 17 16
29 6 6
45 12 11
49 14 13
26 8 7
46 14 12
34 9 9
45 13 12
25 6 6
0 0 0
0 0 0
0 0 0
0 0 0
0 0 0
0 0 0
0 0 0
0 0 0
0 0 0
0 0 0
0 0 0
0 0 0
0 0 0
0 0 0
0 0 0
0 0 0
0 0 0
0 0 0
0 0 0
0 0 0
0 0 0
0 0 0
0 0 0
0 0 0
0 0 0
0 0 0
0 0 0
8 17 7
27 49 28
28 54 30
17 32 18
13 25 13
20 39 22
27 52 29
20 37 20
23 37 21
18 32 15
25 46 25
26 49 28
24 46 25
27 52 28
21 40 22
20 37 20
13 24 13
24 45 25
20 33 18
25 42 24
14 24 13
17 27 15
25 43 24
29 50 28
25 43 23
17 35 19
22 37 21
20 32 17
22 42 22
21 38 20
21 36 20
15 36 17
23 39 21
18 30 17
28 32 17
14 21 11
31 56 32
24 37 20
21 42 22
29 62 31
24 44 23
29 52 28
16 22 11
18 34 19
31 60 33
18 26 14
12 21 12
22 43 24
18 28 15
16 29 13
19 35 18
9 19 7
51 48 37
47 54 40
35 34 31
54 49 45
28 24 19
48 51 48
47 51 44
60 52 46
43 46 41
39 30 27
72 58 52
62 56 47
51 47 34
54 58 54
34 43 33
37 48 37
25 25 17
48 50 40
16 23 15
69 69 63
135 241 142
30 40 30
45 37 28
44 35 29
51 54 48
43 44 41
41 47 35
28 39 28
58 44 36
34 38 28
46 48 41
44 45 36
50 48 38
54 55 48
38 46 37
39 43 39
68 60 52
48 53 43
19 25 19
44 42 38
59 49 47
74 62 58
43 48 41
51 47 40
55 53 46
27 35 20
62 55 44
48 41 36
33 42 34
59 52 43
59 59 54
64 65 48
59 52 46
37 45 32
35 33 28
39 48 39
50 45 39
39 42 38
47 52 41
58 50 44
50 49 39
52 53 42
46 48 39
51 51 47
63 61 50
63 58 55
44 57 44
81 81 78
50 55 42
51 55 47
125 52 47
36 46 36
30 37 31
51 48 43
75 68 62
43 52 40
48 51 44
28 35 27
55 62 54
44 50 44
61 63 60
54 59 53
63 64 59
49 37 25
47 47 40
41 45 36
62 62 56
65 55 53
56 66 52
43 48 41
56 61 47
60 49 45
43 49 41
57 57 43
58 52 43
52 36 31
38 46 34
57 49 44
48 78 51
34 43 33
52 49 44
51 48 40
45 43 39
65 60 52
49 40 36
39 38 32
54 63 53
51 47 42
40 50 40
49 54 46
65 63 56
59 52 45
42 42 34
55 59 53
54 47 39
43 38 36
52 50 37
49 53 48
48 47 39
43 45 36
53 57 43
72 48 43
55 39 34
70 66 54
29 33 28
52 52 44
48 42 39
52 48 43
56 55 47
35 36 32
61 48 44
64 64 60
42 49 38
53 63 49
57 54 43
41 44 40
53 58 50
35 37 31
36 33 25
36 38 31
54 55 45
49 45 37
52 54 45
72 74 64
60 75 50
48 53 45
44 50 40
74 59 54
50 50 43
48 45 40
45 53 40
70 69 56
49 46 40
50 49 48
66 66 58
43 41 37
53 45 43
89 67 61
56 53 45
65 61 58
43 49 36
64 70 60
40 39 37
56 54 48
55 50 47
65 68 60
57 67 49
46 41 37
79 72 69
47 44 41
50 58 50
53 55 49
50 45 40
51 46 40
35 35 25
40 55 38
59 47 44
55 53 52
76 66 58
54 56 47
58 51 45
53 55 42
57 52 47
44 53 43
68 63 56
48 45 39
52 54 51
32 37 29
35 41 33
47 44 40
53 56 47
39 39 34
40 46 40
44 45 38
63 60 55
57 51 46
36 37 31
64 53 49
58 60 46
48 44 39
61 55 51
57 50 49
62 58 55
57 56 51
58 55 51
62 61 59
58 46 41
39 39 36
74 86 74
57 48 45
45 37 31
46 48 37
45 39 34
61 41 38
54 35 33
44 42 34
50 47 40
51 55 50
53 44 43
64 60 56
47 42 39
58 59 48
172 172 171
56 51 50
55 53 47
57 49 44
47 48 36
47 47 40
48 41 35
44 42 37
47 49 40
55 53 47
44 36 28
51 49 44
68 51 48
56 53 48
71 65 63
53 56 47
35 35 32
45 45 43
66 53 52
39 40 35
51 44 39
51 45 45
69 52 50
51 51 45
53 59 52
62 60 55
62 58 49
67 69 60
48 49 44
65 37 36
42 47 43
50 43 39
62 58 55
46 47 43
59 49 47
41 46 30
64 76 56
64 62 57
48 41 38
44 42 40
59 36 32
69 59 56
41 39 35
52 37 28
47 43 37
42 40 33
56 53 44
48 47 43
59 62 50
62 60 57
58 40 40
65 63 59
56 52 44
56 45 41
51 53 44
41 51 37
56 40 37
66 64 55
54 46 42
62 64 57
70 58 57
56 50 50
66 53 47
86 75 74
61 59 51
53 56 51
43 42 31
74 62 59
57 33 30
27 22 17
43 28 27
93 76 75
69 55 52
72 69 67
77 64 64
62 54 48
59 53 46
60 41 40
51 42 41
58 51 46
60 54 48
45 36 34
49 37 35
60 44 41
62 57 51
51 33 26
53 30 29
61 53 49
81 75 72
44 39 37
48 37 35
63 65 60
59 44 42
67 49 46
57 49 48
66 56 55
44 37 32
54 44 38
57 44 40
72 43 40
54 38 32
39 24 23
55 49 45
40 24 18
79 76 64
56 46 42
68 38 38
73 55 50
65 58 56
51 37 37
44 33 30
73 65 63
50 45 39
46 39 38
64 55 51
67 50 49
56 33 32
61 57 47
50 55 40
62 56 46
56 46 44
47 33 31
52 51 49
60 44 42
50 42 38
47 32 26
49 42 31
57 49 48
46 46 33
61 44 41
67 53 53
66 31 26
54 37 37
71 65 63
51 49 38
55 45 40
47 34 27
52 39 33
69 71 63
57 50 49
75 96 66
54 27 25
61 41 37
65 50 48
64 48 42
51 30 26
56 40 38
59 52 44
48 32 27
57 42 36
46 36 36
45 20 20
67 67 56
46 41 34
84 58 51
30 26 25
57 43 35
45 37 32
44 36 32
71 34 32
49 40 34
55 39 35
57 43 34
60 45 45
50 45 44
46 40 34
62 42 41
36 18 15
48 38 34
67 38 37
81 77 75
85 70 70
60 52 49
68 41 36
46 39 34
60 40 37
49 29 25
39 26 22
45 29 28
57 46 45
51 19 18
76 66 64
55 37 34
62 42 36
45 34 32
49 26 25
77 42 41
51 42 35
49 34 29
50 36 34
48 32 32
53 38 38
48 33 30
78 43 38
45 28 27
76 60 57
65 48 45
54 45 37
64 45 43
61 52 48
76 68 64
63 35 35
43 42 31
43 43 38
38 29 27
50 38 37
40 25 23
48 34 29
62 49 47
65 39 37
45 40 36
255 90 90
77 68 64
47 48 41
48 40 37
58 40 39
53 34 32
38 15 15
55 36 32
41 33 31
43 23 16
82 55 54
47 21 20
35 27 19
44 30 25
46 40 36
45 31 27
64 52 52
57 37 35
61 42 37
51 39 38
80 71 69
68 39 39
63 51 51
39 27 25
56 35 33
52 44 43
41 35 35
42 27 27
35 30 30
46 36 35
58 53 48
57 43 37
45 34 30
29 22 21
39 44 36
41 18 18
29 10 7
60 12 11
48 14 13
36 9 7
38 10 9
26 7 6
81 12 10
48 10 10
35 9 9
25 7 6
38 9 8
41 10 9
46 12 12
50 13 12
94 26 25
40 9 9
48 12 12
33 10 7
46 13 12
64 17 16
60 17 14
47 12 11
38 10 9
42 12 11
49 13 13
47 13 13
49 12 11
31 8 7
42 10 10
34 8 7
63 16 16
36 10 10
50 13 13
68 18 18
56 14 14
59 10 9
57 16 15
40 11 9
67 17 17
54 14 14
56 11 11
46 11 10
21 6 4
54 16 14
46 13 12
58 14 14
44 11 10
47 13 12
47 13 12
54 14 14
145 40 40
33 9 8
0 0 0
0 0 0
0 0 0
0 0 0
0 0 0
0 0 0
0 0 0
0 0 0
0 0 0
0 0 0
0 0 0
0 0 0
0 0 0
0 0 0
0 0 0
0 0 0
0 0 0
0 0 0
0 0 0
0 0 0
0 0 0
0 0 0
0 0 0
0 0 0
0 0 0
0 0 0
0 0 0
20 40 23
24 43 24
24 45 25
23 36 21
14 20 10
19 33 18
16 30 15
24 42 23
13 23 13
23 44 25
22 38 21
22 35 20
19 35 20
35 65 37
19 33 19
22 32 17
20 36 20
28 48 27
22 40 23
25 46 26
24 49 25
20 33 19
22 38 21
20 39 21
26 48 27
29 55 31
29 50 28
25 49 26
25 58 27
23 43 23
20 39 21
23 43 23
22 35 17
33 62 34
19 31 18
19 38 21
21 38 19
20 36 19
19 34 18
19 33 18
22 43 22
26 45 25
22 30 17
25 46 25
18 31 17
19 34 18
11 25 11
19 33 18
23 45 24
26 47 27
21 36 20
15 25 13
17 24 12
30 39 30
52 39 35
62 50 47
32 32 28
38 37 30
47 43 40
40 40 31
50 48 42
41 45 35
39 40 33
57 56 52
41 44 39
26 32 20
48 31 22
47 51 43
47 32 22
56 61 51
39 40 36
65 90 59
50 51 45
32 36 30
45 53 44
51 47 43
30 35 22
49 49 44
15 27 14
32 50 33
40 45 35
53 51 40
24 30 23
57 47 42
54 60 51
54 54 49
78 77 75
54 62 45
58 63 55
37 42 36
66 46 39
22 34 22
47 50 37
26 28 19
56 59 54
43 54 39
42 55 42
32 34 31
55 58 49
32 40 32
49 53 43
54 51 44
31 32 27
54 50 44
34 44 28
50 53 45
55 50 46
51 44 34
46 41 35
49 43 39
39 42 37
51 45 42
44 45 38
52 58 48
42 35 30
53 47 41
72 53 45
55 50 45
92 96 92
43 48 43
46 54 46
60 62 52
51 63 49
45 46 34
47 46 39
33 40 30
41 37 30
44 50 43
33 36 30
54 58 50
55 55 44
55 68 51
45 48 43
47 53 44
54 57 53
38 45 32
57 63 43
45 58 39
60 62 50
37 48 32
55 63 52
62 69 58
54 52 45
46 51 41
56 61 50
44 48 41
47 48 37
48 46 33
40 36 26
52 49 42
46 51 42
36 42 30
45 49 41
46 42 40
41 46 34
73 56 52
48 48 36
56 50 44
54 53 49
48 42 39
41 49 38
39 36 32
48 58 45
56 56 50
30 42 28
67 62 54
38 39 29
58 52 46
46 46 37
46 48 38
65 55 49
51 51 38
45 57 46
41 50 38
43 49 40
41 44 29
60 57 50
56 47 44
41 43 33
72 64 61
51 59 49
33 39 32
51 47 44
54 46 39
45 47 41
52 55 47
47 44 40
62 61 55
48 41 37
52 57 47
48 45 38
51 51 43
59 61 55
50 49 44
65 53 51
64 60 57
89 81 78
62 58 56
37 44 36
82 57 49
43 42 35
60 52 49
57 51 49
56 52 46
45 53 39
54 55 44
42 40 33
39 41 39
56 58 47
61 62 55
63 71 56
41 40 36
52 46 42
71 67 63
72 61 56
57 46 36
45 46 41
54 41 39
48 56 41
52 40 34
47 45 37
58 48 41
49 34 33
54 51 44
53 63 48
57 59 53
48 49 41
40 38 33
47 45 32
41 40 30
64 58 56
47 41 37
63 60 58
51 50 45
39 39 38
55 47 37
56 55 48
40 45 39
40 43 39
53 49 41
54 48 43
44 36 30
54 61 54
65 45 36
61 46 45
53 48 43
66 60 57
43 46 42
50 47 44
64 61 54
41 36 34
50 51 45
50 57 47
45 42 35
80 69 66
51 56 46
42 39 32
78 73 64
62 51 45
67 59 51
52 41 36
61 53 49
62 58 54
49 47 43
76 70 66
69 62 57
62 55 51
58 45 41
55 54 46
46 43 38
67 50 49
64 53 51
87 80 77
49 47 41
64 65 55
45 41 34
65 41 39
59 54 53
33 44 33
55 57 49
55 53 47
56 46 43
58 54 48
48 62 44
51 59 49
54 52 47
57 48 36
56 57 51
49 48 44
60 56 48
60 70 54
60 45 43
59 51 45
51 39 35
49 66 49
52 42 40
41 41 35
49 44 40
80 46 38
63 64 56
60 49 46
56 56 49
53 57 44
52 53 47
49 41 37
56 45 38
55 37 34
71 58 44
67 56 55
61 38 37
64 55 50
43 42 35
62 56 55
53 40 35
74 59 58
63 57 53
48 34 33
44 36 35
71 60 52
58 41 39
65 58 54
64 52 49
77 61 57
70 53 53
55 54 50
62 47 45
51 46 41
77 53 50
52 42 36
58 46 37
68 56 53
45 43 35
56 47 45
53 39 34
66 54 52
49 48 44
53 38 33
69 49 47
57 57 54
38 36 31
116 36 32
58 48 43
58 46 38
63 48 37
45 32 31
61 43 30
73 73 63
58 54 43
52 48 43
42 38 38
62 42 38
41 37 33
55 49 46
44 35 29
41 45 37
57 41 37
62 39 35
51 46 41
67 54 53
57 42 41
72 62 55
61 65 55
70 60 59
66 53 51
55 40 34
51 55 43
88 66 63
44 33 31
70 71 66
62 49 49
70 57 56
55 47 44
47 39 36
51 43 42
50 38 35
42 35 30
39 35 35
64 53 48
64 55 50
45 41 38
67 65 63
51 52 43
60 52 48
47 42 35
42 37 33
53 45 41
57 47 46
64 51 51
63 35 33
48 32 31
64 51 48
79 46 40
51 47 42
67 54 49
54 34 32
59 49 42
43 35 32
54 44 42
68 37 35
50 31 29
61 52 46
92 42 41
54 45 44
41 29 28
59 37 36
66 51 49
49 40 34
49 33 31
67 52 52
80 48 45
58 61 49
64 40 38
45 33 32
48 33 33
59 37 37
61 46 46
49 39 36
51 31 27
64 42 38
52 39 36
33 28 25
63 48 42
57 49 42
59 46 43
62 56 52
57 37 31
66 35 32
64 50 46
44 30 28
59 44 38
55 42 41
50 27 27
51 35 31
56 47 42
49 34 30
41 33 31
66 52 52
61 45 43
63 51 44
64 60 59
68 50 49
65 36 35
54 33 33
52 34 33
66 58 53
44 33 22
73 61 55
37 28 22
61 44 42
69 53 52
50 31 31
54 55 46
45 18 18
52 30 29
66 46 42
65 45 41
63 47 46
59 49 40
56 41 36
54 45 44
40 38 23
106 105 102
51 39 36
44 43 33
72 46 45
60 44 44
58 41 40
49 32 29
48 34 31
55 34 34
55 47 43
51 40 37
49 42 36
60 51 50
72 67 63
41 41 34
68 52 52
57 38 38
42 33 27
59 58 48
54 36 35
50 34 34
48 34 27
58 38 35
52 34 33
54 21 21
46 31 26
75 65 65
58 50 47
50 41 38
70 56 52
56 55 48
59 38 38
57 31 28
60 37 33
66 51 51
57 57 41
52 42 40
60 40 33
43 26 19
55 41 39
31 18 17
46 38 34
46 33 31
89 34 28
55 41 40
41 36 35
48 33 33
48 42 40
50 57 48
55 49 43
26 7 7
35 21 21
48 42 40
66 52 52
61 43 43
34 20 19
47 28 27
34 29 19
40 21 20
65 14 12
54 14 14
55 13 13
42 10 10
59 10 9
60 15 15
54 10 8
56 14 14
36 10 8
138 16 15
51 14 13
36 7 7
28 7 6
52 14 13
47 13 12
44 11 10
43 12 11
53 13 13
47 11 10
41 11 10
61 15 14
61 13 13
48 13 13
52 14 13
30 7 6
41 10 10
90 24 24
39 11 10
44 12 10
33 10 8
54 12 11
44 13 12
40 12 10
51 12 12
59 15 14
53 12 12
35 9 8
48 13 13
49 14 13
39 11 10
53 15 14
49 14 13
50 13 13
41 11 11
41 12 11
59 16 16
48 12 12
48 12 11
51 13 13
63 17 16
51 15 14
46 13 12
28 7 7
0 0 0
0 0 0
0 0 0
0 0 0
0 0 0
0 0 0
0 0 0
0 0 0
0 0 0
0 0 0
0 0 0
0 0 0
0 0 0
0 0 0
0 0 0
0 0 0
0 0 0
0 0 0
0 0 0
0 0 0
0 0 0
0 0 0
0 0 0
0 0 0
0 0 0
0 0 0
0 0 0
12 26 12
13 24 14
17 19 8
19 33 19
21 39 22
26 40 22
24 39 22
25 55 27
17 25 14
23 44 24
22 48 23
18 32 18
24 39 22
19 29 14
21 37 20
21 38 21
16 33 14
32 63 36
37 70 40
19 35 19
15 30 15
31 25 14
20 33 17
24 43 24
18 34 19
18 32 18
17 33 18
24 45 25
29 47 27
17 29 15
15 29 15
18 33 18
21 40 21
18 36 20
24 45 25
19 36 20
19 35 19
24 44 25
29 45 23
30 51 29
13 23 11
17 38 17
18 33 18
15 30 16
17 36 15
17 33 17
17 30 17
21 35 18
20 39 21
18 34 19
21 41 22
19 43 18
20 28 15
22 35 20
35 40 34
50 51 45
33 36 32
53 60 35
45 45 41
39 38 27
46 42 29
54 52 51
40 31 29
44 43 36
61 59 54
51 51 49
37 47 37
25 32 25
53 61 47
35 50 36
71 79 71
29 37 27
62 83 59
25 36 20
37 45 38
68 68 64
32 36 23
52 49 41
37 32 24
33 35 24
49 46 38
51 43 35
45 45 37
38 48 39
39 41 37
45 47 40
29 42 24
49 55 45
37 39 28
53 53 45
41 50 37
38 37 31
43 52 41
48 57 48
50 58 49
46 50 44
36 47 36
63 55 45
52 53 47
40 51 38
53 57 50
49 54 47
39 41 39
51 44 40
43 58 44
52 50 45
40 63 42
50 56 44
40 48 38
33 43 32
41 43 36
46 53 41
36 47 35
63 65 62
53 45 35
52 57 48
49 56 42
68 38 31
51 52 42
37 40 30
58 54 45
39 37 29
50 55 41
42 52 40
41 39 34
54 48 42
59 62 56
51 49 38
48 49 41
32 35 27
51 54 43
54 55 43
50 43 37
33 39 33
61 56 52
33 32 28
32 43 25
50 36 32
79 69 54
43 45 40
52 58 52
45 39 29
49 59 44
49 56 45
48 57 43
63 48 41
64 63 57
60 56 49
33 42 32
51 44 38
71 55 53
48 44 37
48 45 37
61 47 44
64 60 54
80 81 75
49 49 45
53 50 43
56 53 47
51 48 42
62 65 58
67 67 60
35 38 33
58 42 41
53 50 43
63 63 61
64 68 58
58 69 58
54 46 40
47 47 43
52 35 32
31 44 31
43 44 37
50 55 46
60 73 54
47 45 40
51 41 37
61 58 55
44 46 40
51 48 42
57 51 43
45 55 44
49 43 39
32 34 31
45 41 38
61 45 43
40 39 38
49 44 40
60 48 37
49 54 45
33 44 34
63 42 37
49 51 41
49 46 34
55 53 49
58 57 51
100 85 81
59 50 42
54 77 56
46 49 42
48 51 45
48 53 44
34 42 33
38 36 31
47 44 31
48 40 40
57 54 50
52 56 49
57 51 47
84 87 83
34 37 32
53 59 48
69 62 55
63 62 50
51 48 44
74 72 66
63 66 53
37 40 33
35 40 34
57 59 53
100 51 45
61 54 48
64 56 48
32 32 27
53 53 47
46 50 41
55 45 40
49 43 39
63 60 54
51 51 46
49 49 40
43 45 36
59 56 49
52 54 45
47 52 43
57 44 41
43 44 42
44 40 36
41 43 38
68 61 57
47 68 45
57 51 44
60 66 60
60 51 47
48 42 41
70 65 62
47 58 43
63 63 56
44 47 43
51 51 43
40 40 32
50 47 39
48 45 41
49 40 36
43 42 37
62 51 46
63 61 57
59 52 49
70 67 64
49 54 48
38 31 29
45 44 40
60 55 52
61 60 56
50 42 38
50 40 35
61 57 46
50 52 46
51 42 37
46 37 32
49 48 44
62 50 45
55 45 42
46 38 35
51 59 45
36 40 33
49 50 46
42 34 29
82 72 66
86 57 52
51 52 42
72 58 57
60 47 42
58 50 45
66 59 57
62 53 48
63 57 52
57 47 41
49 44 40
51 42 41
40 35 29
47 30 27
73 63 57
47 44 40
45 52 36
38 30 26
41 39 34
79 60 56
34 33 26
47 48 43
56 38 35
55 41 35
53 45 42
48 49 40
75 49 40
50 45 42
51 39 29
57 55 46
80 76 73
70 50 47
61 45 44
49 49 45
55 54 48
42 42 31
46 43 37
53 45 41
53 46 41
51 45 42
59 42 39
54 58 52
55 58 49
56 48 45
58 34 34
53 52 48
160 57 52
64 58 51
57 45 43
53 44 43
53 52 47
46 41 40
59 56 52
53 51 43
54 41 36
55 39 37
54 40 38
52 44 38
59 43 43
49 38 35
65 52 47
53 50 43
60 48 47
64 52 50
63 56 52
59 64 49
55 40 39
39 33 31
42 39 37
62 58 53
47 35 33
48 40 30
76 55 53
59 37 34
52 45 40
43 24 19
52 50 40
58 54 50
40 40 32
52 39 33
68 62 61
57 44 37
51 39 35
55 52 43
53 39 37
49 37 36
44 32 30
54 45 39
74 52 48
72 61 51
41 36 29
111 110 107
72 57 55
41 26 25
50 37 35
41 34 27
54 34 31
65 59 57
52 37 33
54 45 44
62 50 45
64 47 47
63 59 45
60 52 52
53 48 46
55 40 35
52 48 43
60 44 37
54 42 36
50 32 25
50 42 41
55 44 39
68 57 51
39 37 29
48 33 27
73 60 59
47 36 36
54 38 38
65 63 58
53 42 37
50 46 39
67 64 61
49 26 26
43 39 37
70 55 53
61 50 46
59 46 46
66 58 52
60 64 51
59 50 48
57 46 39
56 37 31
54 42 41
67 61 59
56 89 43
53 28 26
50 39 34
59 77 52
65 51 50
58 47 40
57 31 31
42 36 29
74 58 56
44 40 33
62 56 42
70 61 61
65 47 43
57 57 50
113 106 106
62 45 38
47 40 34
54 41 39
51 38 35
64 52 46
64 53 49
47 37 36
60 35 32
55 34 30
60 48 47
42 35 33
61 50 48
54 31 27
46 56 43
59 39 36
67 57 50
75 72 57
50 36 29
56 48 43
71 58 50
46 36 35
52 37 34
53 44 33
55 34 33
70 58 58
44 42 28
69 58 56
56 45 39
42 32 30
60 36 32
59 45 45
54 53 38
54 27 24
36 39 31
63 34 29
52 28 24
35 25 19
79 65 65
53 35 33
71 52 52
58 49 41
68 56 56
68 52 52
64 52 52
56 28 28
50 37 36
54 36 31
55 46 44
42 30 29
70 58 57
53 32 31
62 46 38
63 30 30
53 48 45
54 37 36
56 39 39
52 53 44
62 52 49
50 29 20
55 27 20
66 45 45
42 28 24
52 36 31
44 44 42
50 38 33
54 32 30
43 40 35
51 45 45
52 46 40
58 52 49
50 29 24
61 40 39
50 42 39
65 61 56
31 19 17
62 26 25
50 41 41
61 47 46
77 70 70
42 43 33
49 30 30
52 39 38
43 39 33
57 35 35
46 36 35
41 35 29
32 27 22
35 27 27
78 48 38
52 36 35
46 34 30
54 43 37
32 8 7
45 11 11
53 7 7
29 9 6
56 15 15
92 10 9
40 11 9
43 12 10
36 7 6
45 12 11
56 15 14
57 15 15
60 15 15
60 14 13
39 11 9
60 14 13
59 14 14
51 13 12
73 20 19
54 14 14
45 12 10
66 14 13
29 10 7
20 6 4
55 15 14
45 12 10
120 32 32
58 12 11
61 17 16
56 14 13
58 15 15
46 12 12
74 17 17
42 10 10
46 12 12
59 15 14
70 16 16
47 12 12
50 13 12
66 13 13
76 13 12
61 17 16
54 14 13
57 15 15
83 13 13
89 24 24
50 11 9
41 10 10
32 10 9
50 14 13
57 16 15
55 15 15
72 15 15
25 7 7
0 0 0
0 0 0
0 0 0
0 0 0
0 0 0
0 0 0
0 0 0
0 0 0
0 0 0
0 0 0
0 0 0
0 0 0
0 0 0
0 0 0
0 0 0
0 0 0
0 0 0
0 0 0
0 0 0
0 0 0
0 0 0
0 0 0
0 0 0
0 0 0
0 0 0
0 0 0
0 0 0
14 26 15
22 39 23
25 40 23
18 32 18
19 33 18
24 44 24
23 30 17
23 45 25
21 37 20
21 38 20
20 37 18
15 26 14
21 41 23
20 30 17
22 37 20
20 34 20
21 40 20
25 41 23
29 53 30
36 62 35
32 43 25
25 34 19
22 43 24
27 42 24
24 46 26
17 27 14
31 54 30
24 38 21
18 39 18
21 38 21
20 40 22
30 56 31
37 69 39
23 35 20
14 32 14
21 41 23
27 48 27
17 34 18
21 36 20
22 39 21
18 33 17
21 38 22
13 25 11
25 42 23
18 34 18
18 35 19
28 38 21
19 30 17
10 20 7
20 33 18
15 24 11
24 31 17
17 30 15
21 37 19
18 26 13
32 34 31
52 38 34
58 67 51
48 37 32
55 52 48
36 40 33
48 36 28
59 70 55
52 57 50
32 33 28
20 25 19
64 64 58
58 62 54
45 43 32
34 42 34
56 50 40
53 42 38
45 49 45
51 49 39
43 39 30
44 48 38
56 54 50
36 42 36
56 49 36
54 52 47
37 45 36
36 41 32
36 39 34
58 60 50
62 58 52
55 50 41
47 39 30
38 39 33
36 45 36
47 48 37
59 56 48
41 43 31
52 48 42
46 52 45
58 56 50
56 55 49
45 49 42
47 42 33
34 32 25
50 54 47
29 35 20
33 35 27
55 60 50
44 52 44
40 38 30
46 55 47
45 39 36
57 66 55
54 59 52
58 59 51
44 58 42
34 37 29
49 51 47
46 52 45
79 58 46
30 30 22
75 43 37
42 45 37
36 38 29
44 46 36
53 55 48
43 46 40
38 40 31
55 64 55
54 50 42
35 36 26
46 47 40
35 50 33
48 52 42
51 47 38
46 49 41
57 56 47
57 59 53
57 50 45
73 61 53
56 61 54
41 42 35
51 50 46
39 54 38
41 35 29
48 48 43
44 44 37
47 44 30
48 42 38
32 41 30
50 34 30
70 63 56
43 34 29
55 62 54
55 54 50
59 58 49
53 47 40
20 37 21
62 64 57
46 43 36
56 68 52
45 37 29
56 53 44
38 45 37
42 46 38
68 61 57
44 51 44
70 64 55
61 65 60
42 35 28
30 24 21
38 44 38
46 49 45
61 50 47
59 54 50
49 49 40
53 47 43
54 50 41
61 55 48
41 41 39
54 49 46
29 37 28
71 73 68
47 50 37
63 62 56
60 52 51
68 65 52
48 46 37
80 62 52
35 37 26
49 40 30
56 51 49
52 47 40
50 44 39
52 46 39
33 39 31
38 42 33
40 41 37
60 60 53
52 53 44
49 56 44
59 53 46
54 50 38
63 60 57
97 64 58
54 44 38
53 58 52
61 61 57
78 59 55
52 45 40
59 82 57
42 37 34
51 49 39
53 46 43
54 43 40
49 50 40
45 40 31
67 57 56
62 34 31
43 39 34
71 69 61
54 51 44
50 44 36
71 61 56
45 42 35
62 54 49
73 80 65
39 37 29
38 40 34
46 49 37
45 42 38
69 58 53
50 44 31
47 55 44
41 43 36
70 46 43
43 44 35
47 45 36
58 56 48
49 51 43
49 47 41
58 46 41
49 53 48
42 41 36
53 45 40
49 45 35
62 52 48
55 38 34
42 35 30
72 64 60
60 61 51
41 41 36
47 47 45
50 54 44
61 47 42
61 55 47
92 82 80
42 35 29
44 46 39
64 62 54
40 38 33
56 52 50
54 56 49
77 58 53
55 48 43
64 56 52
57 52 48
67 70 57
53 50 45
44 44 40
43 38 34
56 55 49
53 55 49
45 38 37
38 47 37
49 52 46
59 49 44
68 51 47
67 66 59
54 48 41
51 46 39
58 53 48
76 57 50
49 38 31
47 44 40
57 44 36
70 55 55
39 38 38
61 57 54
59 50 47
55 42 41
56 42 37
70 52 47
122 118 117
54 42 37
53 40 32
51 51 45
149 68 63
63 56 47
106 61 53
58 41 37
64 49 45
71 67 63
53 64 51
53 50 43
58 58 49
70 57 54
46 39 34
55 48 40
41 42 38
40 45 38
70 58 58
65 54 51
64 53 47
42 44 35
64 49 45
75 68 66
62 48 47
63 59 55
56 36 35
75 53 50
50 37 32
60 48 43
47 39 36
60 56 56
54 45 45
57 60 48
79 63 58
46 40 37
55 42 37
59 42 39
54 50 47
52 33 32
56 49 38
62 50 46
54 53 43
77 65 61
67 47 45
59 55 47
70 59 56
46 40 33
57 55 52
58 53 51
41 40 32
58 41 37
51 35 29
52 42 41
51 42 41
57 50 47
44 38 32
55 40 35
47 41 36
62 55 53
36 43 33
59 54 46
63 52 45
49 49 43
52 51 43
73 69 67
54 52 46
50 49 41
60 44 43
57 48 44
80 83 80
52 36 31
54 48 44
51 45 41
74 64 61
40 36 36
47 38 35
50 38 31
67 52 50
58 48 42
62 35 32
89 85 83
72 42 34
47 30 24
73 77 63
49 40 30
36 33 28
78 60 55
56 45 41
64 40 35
68 35 35
71 43 38
77 61 60
46 46 43
45 36 34
62 33 28
52 33 30
52 41 36
49 34 27
55 47 39
60 50 43
60 37 35
41 33 30
55 36 34
51 34 32
57 45 43
63 47 42
62 36 35
53 41 36
44 47 41
40 34 31
50 34 32
51 44 43
65 40 36
57 48 41
68 80 62
59 42 40
102 94 92
63 53 50
55 42 40
44 35 33
56 34 33
65 48 41
61 42 38
99 95 95
54 40 35
88 78 76
38 15 12
158 46 45
58 49 46
54 48 45
50 32 29
59 46 44
53 38 38
69 60 60
62 40 35
47 50 42
54 37 33
96 53 47
56 41 40
81 54 54
54 41 30
55 57 48
58 47 44
82 71 69
84 71 69
54 40 35
55 31 27
62 33 33
60 36 30
54 44 34
49 33 30
50 27 26
69 52 45
88 41 36
56 42 39
68 48 48
61 50 45
57 43 42
62 37 34
68 54 50
45 32 30
57 47 45
41 33 23
35 28 20
57 49 49
56 37 37
40 24 21
61 48 46
65 66 55
61 29 26
46 48 41
44 42 37
51 52 44
64 24 24
56 39 36
54 44 40
51 38 28
63 41 36
57 48 44
41 29 29
57 60 44
56 47 46
63 39 39
63 57 57
48 42 42
61 45 41
45 24 23
50 37 34
48 43 34
54 47 42
42 24 22
57 41 33
49 31 28
67 64 60
96 91 89
56 35 29
63 56 53
58 44 40
67 46 36
75 53 53
44 27 21
45 37 34
63 50 45
63 56 39
60 42 42
38 34 28
66 36 33
57 48 46
42 32 27
50 45 42
50 36 35
51 42 41
53 31 23
58 36 36
47 43 40
31 16 16
58 49 48
68 50 49
43 41 33
51 48 42
59 55 54
62 46 45
41 34 33
46 30 30
54 24 21
53 46 45
27 15 14
44 33 33
54 32 29
52 14 13
40 12 10
50 14 13
37 11 10
61 15 15
72 17 15
34 10 9
51 13 12
57 15 15
37 10 9
42 12 10
37 11 10
43 13 11
62 16 16
63 18 17
46 12 10
58 16 14
128 35 35
55 15 14
54 14 13
43 10 10
41 13 11
33 10 8
45 12 11
51 14 13
57 15 14
58 16 15
79 20 19
40 8 8
60 17 16
81 19 18
42 9 9
64 17 17
48 12 11
35 8 8
129 36 35
68 17 17
59 16 15
33 7 7
42 11 11
44 11 11
48 12 11
50 14 13
35 10 9
44 11 10
36 10 9
46 13 12
50 14 13
38 9 8
32 7 7
60 16 16
51 14 13
66 12 11
50 12 12
31 9 8
0 0 0
0 0 0
0 0 0
0 0 0
0 0 0
0 0 0
0 0 0
0 0 0
0 0 0
0 0 0
0 0 0
0 0 0
0 0 0
0 0 0
0 0 0
0 0 0
0 0 0
0 0 0
0 0 0
0 0 0
0 0 0
0 0 0
0 0 0
0 0 0
0 0 0
0 0 0
0 0 0
15 26 15
16 31 17
31 57 32
30 51 29
22 37 21
16 26 15
16 51 17
28 40 23
34 63 36
21 41 22
17 34 18
30 58 33
26 49 28
23 37 20
18 30 17
21 40 22
20 37 21
18 36 17
23 45 26
18 36 20
25 43 24
21 40 22
20 37 20
26 44 25
17 33 17
26 43 24
19 32 18
20 21 11
15 28 15
23 37 20
24 44 24
22 42 23
22 44 24
26 45 25
20 45 21
18 31 16
22 36 19
13 25 13
30 61 30
21 34 19
22 43 24
21 34 19
26 48 26
27 55 30
16 33 17
23 44 24
14 32 14
25 40 22
20 35 18
22 35 19
19 32 17
22 34 19
17 26 14
20 36 20
19 34 19
22 35 20
30 38 27
45 51 44
38 42 38
51 53 49
36 33 28
49 50 45
50 54 47
36 33 22
61 69 60
32 34 27
42 32 28
29 30 21
64 65 56
43 46 41
48 48 39
36 50 35
44 44 32
47 38 33
48 53 46
75 49 45
38 41 36
19 26 14
49 45 39
46 44 38
53 57 50
39 45 29
57 53 43
43 42 35
41 45 41
43 45 34
30 35 26
52 66 45
37 43 30
32 46 31
39 46 35
35 38 33
46 40 29
36 50 37
51 49 34
47 49 40
34 44 33
59 58 55
48 47 39
47 46 38
46 49 41
40 42 34
36 43 36
52 60 50
49 52 42
34 33 24
47 37 30
61 55 51
56 65 55
61 59 50
56 57 48
58 58 47
43 53 43
53 63 54
53 53 49
50 49 45
29 41 27
50 51 46
39 42 34
53 53 47
66 55 49
51 53 45
50 56 49
52 52 44
61 60 53
52 51 40
36 39 31
35 33 27
47 48 41
43 44 37
53 57 47
55 63 50
54 59 52
47 53 47
37 31 24
47 34 26
38 42 38
56 56 48
47 44 35
50 42 39
49 50 44
47 53 42
92 41 36
54 53 44
48 52 46
47 52 44
51 58 45
49 70 48
46 54 46
54 56 50
54 64 48
57 56 49
37 40 35
54 50 44
50 43 42
61 56 54
42 49 39
55 54 45
51 49 40
41 51 42
58 51 41
51 44 35
27 38 27
45 48 44
55 60 51
44 46 41
55 61 48
48 50 43
47 42 34
52 69 50
56 58 53
51 51 44
45 45 41
47 46 43
40 35 32
45 53 43
54 49 45
59 57 47
55 52 44
41 48 41
47 48 44
48 47 41
57 47 38
71 66 60
54 58 51
42 44 39
56 53 48
62 62 54
47 34 29
42 46 37
51 46 41
50 57 46
47 45 36
60 71 53
59 57 52
53 44 43
69 90 64
61 51 45
44 45 40
41 50 40
66 54 51
48 46 41
66 63 53
65 54 42
72 70 60
49 53 45
46 45 35
50 56 43
58 48 42
49 54 36
51 47 45
53 42 36
69 54 51
58 58 52
54 53 47
44 36 34
54 55 39
60 68 52
50 54 40
85 71 67
79 62 58
59 50 46
53 49 43
44 39 34
44 45 39
56 58 54
50 50 40
51 50 46
40 32 22
50 52 43
65 53 48
48 47 41
48 38 30
56 52 46
44 40 38
51 44 40
38 34 33
53 50 40
49 52 45
55 57 53
68 62 59
72 56 49
55 55 49
64 49 46
60 57 48
69 64 61
49 51 45
47 50 41
55 54 45
34 36 26
47 45 40
37 48 34
50 39 36
65 39 36
79 70 61
54 48 43
59 55 47
69 66 64
97 51 45
63 53 50
74 60 53
84 106 83
62 41 35
58 56 50
99 54 50
73 61 58
43 46 39
68 67 64
54 38 38
66 70 58
59 54 44
44 45 42
58 52 45
43 43 35
66 54 52
86 59 56
53 43 38
68 60 53
46 43 39
59 55 51
67 70 65
47 36 31
55 44 42
44 48 35
63 66 55
47 41 37
55 58 51
48 45 40
72 46 43
54 56 52
91 91 86
66 43 38
73 37 33
54 65 52
64 61 53
98 87 85
49 40 37
57 50 47
51 37 34
56 51 47
44 41 37
65 58 55
61 54 47
51 41 40
56 36 31
68 53 51
63 56 53
40 30 30
59 42 40
59 44 37
34 32 27
71 64 59
36 20 20
59 36 30
45 43 40
57 50 46
80 57 53
45 35 29
57 51 42
40 42 36
61 58 53
59 55 53
68 61 58
64 45 43
56 55 50
32 31 25
49 49 47
54 48 48
51 47 38
72 58 54
57 42 38
74 57 53
60 54 48
52 50 43
54 50 46
63 63 54
49 54 38
65 57 47
120 113 113
46 43 42
57 51 38
51 49 47
55 47 44
68 54 52
54 46 44
61 51 47
63 46 37
61 50 47
45 33 31
71 65 63
62 58 51
51 36 35
62 37 34
43 40 37
68 44 38
61 60 53
40 41 33
59 58 52
55 47 45
76 48 45
66 62 58
44 40 35
58 50 48
53 32 31
82 54 50
49 38 33
48 39 35
77 53 49
51 34 33
73 66 65
58 50 46
62 39 39
72 52 48
57 42 38
70 65 65
51 47 38
66 49 49
42 36 33
101 54 50
48 45 41
54 48 43
64 45 40
59 38 32
68 52 43
59 59 51
50 49 46
48 26 26
46 30 28
48 33 28
61 41 37
65 46 38
53 47 41
47 41 37
80 74 72
45 34 29
51 49 48
60 47 45
54 26 24
99 93 89
62 39 37
31 33 24
65 54 50
54 44 42
65 49 44
53 49 44
71 42 38
62 53 45
44 36 32
70 56 53
44 34 34
47 27 26
46 31 31
56 43 39
53 35 33
52 41 37
47 27 21
85 76 60
45 45 39
54 45 36
67 59 55
52 27 26
50 27 27
132 58 53
70 53 49
45 31 28
62 44 39
47 38 33
59 53 40
70 59 58
53 38 30
115 58 56
44 28 27
64 64 49
44 22 18
58 36 36
45 37 35
66 29 26
74 64 60
49 38 33
88 64 60
72 54 51
70 88 57
36 32 22
34 9 9
60 49 47
70 52 51
48 33 30
83 69 62
61 48 43
49 45 42
68 49 49
34 24 24
38 25 21
54 37 32
57 48 44
60 44 40
58 40 36
58 44 44
44 36 32
62 50 49
62 41 37
60 43 43
48 30 26
61 51 49
46 33 28
53 41 38
49 39 36
47 34 34
66 43 34
28 20 14
47 37 32
76 67 63
152 60 55
72 51 47
67 51 51
54 52 43
52 31 29
72 40 39
62 49 44
54 38 35
49 28 23
55 37 33
58 47 46
66 58 50
41 32 32
63 56 56
43 35 30
62 40 40
62 36 32
101 98 95
76 65 63
106 94 94
60 47 46
59 40 40
56 40 38
44 34 30
46 27 26
62 62 48
46 28 27
35 26 22
53 48 38
40 21 21
49 24 23
92 89 88
44 42 38
49 50 43
45 19 14
45 40 37
32 23 14
45 30 30
38 27 20
50 40 39
47 40 37
41 27 27
34 24 24
55 29 27
40 19 17
54 23 15
54 13 12
43 9 9
94 14 13
47 12 12
47 10 8
63 13 12
42 9 8
50 12 12
39 11 10
61 15 14
48 13 12
40 10 10
29 7 5
58 12 12
64 16 16
43 12 11
64 15 13
60 13 13
49 13 12
46 12 12
44 12 11
54 13 13
35 8 8
45 11 11
49 13 13
73 20 20
46 12 11
48 13 12
47 13 12
53 15 14
59 16 15
42 7 7
61 16 16
56 15 15
47 12 12
38 8 7
56 14 14
36 10 9
31 9 8
83 17 17
34 9 7
94 23 23
63 18 17
63 14 13
35 11 9
45 11 11
60 16 16
60 17 16
32 9 8
47 13 13
60 16 16
34 9 8
24 9 6
67 18 18
18 6 5
0 0 0
0 0 0
0 0 0
0 0 0
0 0 0
0 0 0
0 0 0
0 0 0
0 0 0
0 0 0
0 0 0
0 0 0
0 0 0
0 0 0
0 0 0
0 0 0
0 0 0
0 0 0
0 0 0
0 0 0
0 0 0
0 0 0
0 0 0
0 0 0
0 0 0
0 0 0
0 0 0
18 40 21
22 42 23
17 27 14
22 33 18
18 30 17
43 79 45
32 55 31
20 34 19
26 39 22
28 47 27
22 40 22
17 36 18
27 52 29
24 41 22
26 44 22
15 31 13
20 34 19
21 36 19
18 33 18
72 138 80
16 30 17
16 31 16
14 25 14
24 47 26
24 47 25
26 35 19
21 33 19
21 41 23
19 39 21
22 37 20
24 47 26
14 28 15
20 40 21
19 39 20
19 39 19
21 38 21
24 43 24
23 44 24
16 28 15
21 36 20
18 39 19
24 45 25
46 89 51
16 27 14
26 42 23
18 33 17
19 38 20
27 48 26
23 32 17
20 37 18
23 42 24
24 37 19
22 39 22
23 38 22
16 24 12
18 38 18
15 20 11
34 38 30
36 40 36
38 38 32
41 43 36
64 68 63
50 43 35
56 43 37
44 43 41
50 48 44
45 45 37
36 37 34
48 39 33
38 49 38
48 52 45
36 34 30
44 41 35
44 58 44
51 48 41
39 33 28
55 60 51
48 37 31
63 59 52
44 50 41
33 40 33
38 39 34
47 51 46
53 48 38
63 50 42
52 50 45
38 40 33
56 40 30
74 72 62
47 44 39
46 54 47
42 45 40
34 40 34
43 51 42
37 29 21
26 40 27
60 59 47
63 63 58
52 51 43
62 50 46
43 47 33
47 55 40
49 51 47
40 45 36
43 40 27
28 22 15
53 72 51
61 57 52
52 54 46
43 51 42
46 49 37
48 45 37
56 45 37
60 58 47
54 53 47
66 69 58
42 42 36
39 45 30
40 41 33
37 45 32
60 63 56
47 47 34
46 52 43
34 44 34
54 48 44
49 44 36
63 61 49
63 52 47
52 46 44
51 49 37
64 60 53
53 47 41
52 49 44
57 67 48
47 61 45
55 53 45
50 52 42
74 64 59
51 51 42
75 80 72
49 52 40
38 45 35
75 67 63
47 50 45
45 41 39
60 61 52
77 76 72
59 52 47
63 54 43
66 61 57
56 41 34
58 60 56
40 46 38
63 59 51
35 36 26
41 52 40
43 45 37
66 63 57
39 43 37
21 31 21
53 42 33
60 50 46
49 49 46
63 56 53
53 65 52
46 51 40
47 56 41
49 32 30
60 60 48
67 68 60
50 58 46
58 48 43
78 74 72
60 65 49
44 44 38
45 49 42
43 53 40
52 50 45
43 52 42
49 51 42
52 51 42
46 45 32
49 48 43
60 70 60
50 55 47
69 87 61
67 61 56
63 60 58
53 62 54
61 52 45
57 61 55
31 37 27
36 44 34
56 53 41
61 50 40
52 43 37
57 65 50
47 53 44
54 55 44
44 47 34
53 60 49
57 51 39
53 55 48
46 44 36
61 68 58
53 58 42
35 38 28
63 56 47
58 46 40
39 42 30
53 58 50
51 60 46
48 49 41
52 42 35
56 57 55
57 56 54
56 44 36
51 49 38
51 55 48
64 56 54
46 54 42
41 45 34
45 47 37
45 46 40
52 48 43
51 56 41
43 37 31
48 44 42
42 43 39
45 38 36
52 51 47
52 49 42
47 56 45
50 32 27
45 40 36
49 45 41
37 34 31
49 50 42
55 51 48
69 64 57
52 53 44
102 55 45
50 47 36
45 44 42
70 69 61
49 40 35
58 53 51
66 67 59
70 55 52
41 43 36
65 66 58
54 55 48
57 56 51
60 43 40
58 53 47
48 50 42
49 48 46
71 67 52
63 65 60
40 40 35
58 59 50
63 62 53
49 47 42
65 51 48
48 68 46
76 64 59
64 51 49
62 65 52
53 55 50
54 55 50
41 42 34
44 49 40
61 61 51
50 43 38
52 49 41
66 53 46
99 41 38
58 52 43
57 51 40
72 68 62
74 62 57
51 40 31
51 38 37
74 71 67
58 52 47
53 45 40
66 60 57
51 45 40
66 45 40
58 59 55
39 34 24
50 42 37
61 43 35
47 42 40
50 36 35
76 48 45
70 63 56
44 32 25
59 55 53
57 47 45
61 52 51
48 38 37
57 47 40
66 48 45
68 47 45
47 50 46
50 42 37
68 58 54
51 46 39
54 49 42
49 59 46
66 65 60
53 52 45
79 33 26
59 52 50
47 52 43
35 34 25
48 42 39
32 37 24
75 70 61
64 63 57
45 44 44
43 50 37
51 40 40
69 61 52
56 57 53
62 54 53
46 43 39
43 36 28
72 70 65
67 49 46
72 64 59
44 44 40
64 58 52
50 53 46
56 49 43
65 56 56
54 50 47
54 30 21
69 53 50
60 45 41
69 45 38
61 48 44
49 38 32
65 61 57
61 47 46
50 55 43
66 51 46
53 38 37
49 50 44
59 53 46
70 69 65
60 45 44
39 31 27
62 50 45
66 56 54
44 42 39
52 48 38
62 54 52
60 54 47
74 60 49
65 64 58
57 45 42
87 80 80
48 41 38
42 26 25
51 44 43
60 57 50
70 46 43
41 34 27
58 56 53
72 63 60
73 46 42
55 49 46
54 44 38
54 45 39
55 49 48
50 56 43
48 35 33
56 45 35
43 36 35
58 42 41
46 34 31
40 33 32
66 35 32
61 53 46
52 43 41
42 33 30
63 49 47
57 35 33
67 57 53
63 48 44
60 34 34
54 43 42
45 36 34
45 32 32
61 54 48
53 42 39
53 47 44
64 55 54
53 31 28
51 39 35
72 66 64
49 30 27
51 45 41
53 37 35
46 27 26
54 34 31
83 72 69
43 41 35
64 51 45
56 44 42
49 38 37
69 53 51
73 66 63
87 56 52
107 98 98
45 41 38
59 45 43
70 60 55
50 44 38
56 46 40
61 49 47
70 44 37
88 48 43
55 36 32
45 37 32
47 30 28
80 60 57
44 37 34
60 54 49
57 38 37
59 31 30
63 40 39
52 36 35
39 37 30
80 72 70
52 36 32
81 33 32
39 34 29
42 36 31
35 25 22
54 33 30
66 38 36
65 45 41
51 35 33
66 56 55
62 50 45
51 33 29
60 38 33
54 42 37
61 49 49
58 49 44
77 64 62
46 36 34
68 55 51
54 49 43
80 48 46
60 42 38
58 50 46
68 40 38
61 52 47
60 38 35
57 28 27
46 61 37
77 42 36
46 27 27
48 25 21
45 30 30
51 43 41
49 32 24
63 36 35
65 43 43
65 57 57
40 23 18
92 64 57
27 26 18
72 41 41
54 46 43
59 46 42
55 38 35
53 46 34
56 40 38
51 37 36
50 35 33
36 21 20
59 41 35
35 21 21
49 34 33
84 52 45
58 44 43
49 31 31
49 35 33
72 58 53
69 49 49
56 42 37
55 39 39
45 37 34
47 37 33
45 19 17
40 34 33
67 44 44
46 39 39
47 41 38
48 29 29
49 32 32
40 23 22
64 36 34
82 80 77
36 44 27
46 46 37
50 31 29
43 37 36
37 33 30
98 88 86
52 20 20
36 8 6
46 9 8
36 7 6
45 12 11
38 9 9
45 10 9
36 11 9
32 8 8
36 9 9
56 15 14
55 11 11
41 11 10
58 14 14
40 14 10
58 15 15
65 15 15
50 12 11
63 17 17
51 13 12
56 16 14
39 9 8
53 13 12
50 12 12
45 10 10
53 16 14
51 12 12
75 16 16
45 11 11
57 15 15
43 12 11
38 9 9
47 12 11
46 12 12
53 14 13
78 21 21
68 20 18
39 10 9
45 13 12
52 12 12
84 22 22
64 13 13
54 16 15
40 10 10
62 16 15
87 23 23
50 13 13
45 12 12
60 16 16
45 11 11
42 11 10
52 15 13
55 14 13
41 12 11
41 11 11
50 13 13
43 11 10
32 8 8
0 0 0
0 0 0
0 0 0
0 0 0
0 0 0
0 0 0
0 0 0
0 0 0
0 0 0
0 0 0
0 0 0
0 0 0
0 0 0
0 0 0
0 0 0
0 0 0
0 0 0
0 0 0
0 0 0
0 0 0
0 0 0
0 0 0
0 0 0
0 0 0
0 0 0
0 0 0
0 0 0
17 31 18
19 36 20
19 32 18
24 45 26
15 28 15
19 37 19
23 42 22
32 60 34
16 31 17
18 36 20
27 40 23
19 34 19
31 59 33
25 49 26
24 45 25
33 46 25
19 36 19
22 44 23
16 35 17
23 45 24
19 34 19
20 34 19
14 28 15
25 42 24
24 45 26
15 32 16
19 33 18
22 39 22
27 54 30
21 41 23
21 39 22
19 35 18
27 51 28
23 44 24
22 35 20
24 45 24
38 34 18
22 41 23
32 41 23
19 35 19
20 40 22
24 42 23
23 47 25
18 35 18
25 43 24
14 25 12
23 35 19
21 34 18
14 27 13
23 30 17
15 30 15
25 45 24
25 40 22
15 32 16
23 37 19
17 24 12
17 30 16
29 57 28
70 39 30
36 37 33
51 36 34
48 45 31
39 42 28
31 38 29
44 51 40
58 52 46
36 33 28
35 30 25
51 57 51
48 50 43
34 33 28
58 41 34
52 56 46
67 53 41
41 46 38
69 55 51
47 52 42
27 29 19
51 53 51
52 45 36
23 32 21
48 43 34
54 53 40
30 41 30
53 51 42
34 40 29
33 30 26
33 35 30
39 42 34
36 29 26
55 59 50
27 38 26
49 47 39
44 54 44
41 53 42
57 61 52
39 41 30
54 42 34
39 46 34
51 54 48
56 38 26
42 44 40
51 54 50
43 54 40
57 58 49
38 49 38
44 35 28
34 45 34
41 44 40
52 62 50
44 49 41
47 39 30
51 57 47
50 43 39
78 46 40
36 51 37
55 62 54
57 45 37
64 62 57
68 74 68
47 47 37
47 52 40
41 40 33
51 51 47
47 48 41
48 49 46
44 46 35
67 61 52
35 39 28
56 48 46
48 49 39
40 42 31
51 49 43
42 53 40
32 37 31
59 61 50
71 60 46
39 35 32
56 52 45
35 40 28
43 45 34
47 49 42
32 29 27
36 37 28
58 55 49
80 46 41
40 40 34
50 51 44
53 45 36
53 44 39
64 60 51
56 48 41
64 62 57
46 42 32
54 45 39
52 43 34
52 53 48
64 66 60
52 45 44
55 51 45
65 71 62
58 45 35
52 50 43
56 59 46
37 34 25
24 24 23
60 61 53
42 54 41
61 68 61
39 47 39
51 52 44
53 49 35
55 50 45
41 46 40
71 67 62
45 49 42
50 53 44
43 50 39
64 60 54
56 51 49
54 56 47
66 62 58
69 76 69
59 54 49
57 53 49
41 38 33
46 42 37
58 51 43
37 47 37
58 45 43
74 56 46
60 67 57
66 70 60
57 59 52
47 48 38
54 50 45
58 70 55
64 52 40
54 53 50
55 62 56
44 37 33
62 58 50
42 46 41
64 61 57
49 51 45
72 61 56
68 68 63
41 47 42
54 43 40
68 68 54
57 75 54
44 51 40
44 38 38
48 49 44
55 48 42
53 63 48
36 47 37
68 64 62
54 56 48
55 50 44
88 53 48
55 51 46
65 63 57
49 49 43
50 54 47
84 80 76
63 61 55
53 55 48
59 55 50
41 40 33
59 47 41
57 58 54
50 44 38
74 65 61
58 57 49
72 70 64
43 45 38
66 53 46
64 52 49
48 51 44
38 34 30
58 44 38
69 67 63
65 64 59
60 61 52
58 46 34
53 49 39
58 52 44
58 53 45
54 59 51
45 44 39
45 45 43
97 107 94
66 60 56
65 53 48
59 47 44
52 45 43
54 39 37
52 49 44
59 41 33
68 61 56
56 44 41
53 52 45
51 42 32
58 54 50
64 57 53
49 41 36
81 72 70
46 52 45
53 43 40
48 50 42
61 63 56
53 48 46
47 41 38
61 62 54
59 49 40
56 50 46
51 54 47
58 53 49
51 39 36
58 52 42
52 50 45
61 53 49
55 53 47
46 45 41
74 66 62
55 49 43
56 49 44
40 34 33
58 55 48
63 56 52
48 44 41
64 46 43
50 47 42
56 51 47
77 63 57
57 34 30
46 39 33
72 51 50
52 45 42
68 63 60
40 41 34
53 42 35
53 46 44
70 68 64
52 41 36
60 50 41
61 54 48
68 49 46
76 73 63
53 45 34
66 59 57
64 56 49
41 40 38
68 65 59
50 42 36
40 49 37
47 41 31
66 58 56
68 47 46
62 57 50
54 46 45
49 47 39
48 45 40
52 45 42
50 45 33
62 54 50
54 47 43
62 61 55
64 56 48
59 47 42
67 50 45
55 51 45
44 35 30
69 56 54
52 37 36
48 32 26
56 42 38
40 39 36
54 44 39
71 68 65
66 62 57
63 48 47
85 70 67
103 80 75
61 43 40
58 54 49
63 62 57
81 58 56
51 34 33
71 62 57
61 57 53
44 36 32
60 53 46
73 57 53
62 47 42
56 58 42
59 50 48
68 45 45
59 47 44
50 39 34
58 46 45
50 48 43
39 41 34
86 63 61
64 49 39
43 40 36
76 65 59
55 47 44
60 50 49
43 41 36
63 59 40
65 46 42
58 57 48
58 52 50
76 74 72
44 20 19
66 66 55
55 46 37
46 47 45
54 48 48
61 63 53
51 38 36
121 113 111
62 45 42
26 18 18
62 56 53
50 33 29
59 46 44
53 32 32
56 37 36
49 32 31
67 57 57
50 29 28
57 35 33
62 46 45
74 42 36
74 51 49
63 50 47
63 53 50
71 35 32
67 59 54
53 46 39
59 47 45
44 26 24
67 59 59
64 42 39
58 47 42
65 49 47
54 38 37
44 28 27
75 54 54
70 52 48
60 45 40
64 52 49
64 49 49
64 47 41
44 39 36
65 50 44
60 40 32
78 59 55
67 46 41
66 50 48
59 42 41
45 31 26
46 40 32
67 52 48
52 48 44
55 29 28
68 47 44
68 44 40
55 53 37
39 36 36
50 53 45
87 64 59
61 44 40
62 46 45
47 38 35
50 38 35
54 34 34
69 49 47
48 34 34
39 20 19
68 40 36
54 47 40
61 50 47
47 25 21
67 53 49
64 36 36
40 34 29
48 26 23
51 29 27
47 37 34
66 52 42
67 44 42
57 39 38
64 56 54
49 29 27
50 44 43
65 59 57
60 53 49
47 35 33
52 38 37
57 50 49
77 66 66
47 27 22
52 30 30
60 58 46
61 49 46
45 36 30
52 38 35
65 56 45
52 34 29
51 39 36
89 78 77
56 36 31
47 30 30
81 46 45
64 41 41
62 44 41
66 58 57
70 35 35
44 34 33
49 41 33
60 34 34
70 43 37
63 39 33
48 29 27
63 46 45
73 63 61
50 31 29
49 33 29
49 44 39
53 39 37
47 25 25
51 38 36
58 33 25
255 87 86
59 51 49
60 34 31
59 40 37
40 30 28
57 34 34
49 32 26
59 37 35
64 44 44
28 17 16
48 24 24
35 25 25
57 37 36
44 34 34
55 41 38
54 27 26
44 40 37
41 23 23
40 9 9
41 11 9
49 12 11
52 14 13
44 10 9
55 14 13
48 13 12
65 17 16
65 18 17
86 22 21
40 10 9
36 10 9
44 12 11
51 12 12
56 13 13
80 19 19
52 14 14
51 14 13
50 14 13
45 12 11
64 17 16
33 9 8
44 12 11
29 8 7
52 13 13
51 17 13
58 13 12
35 9 9
53 14 13
49 13 13
52 15 14
40 9 8
56 16 14
50 14 13
50 13 12
35 9 8
78 20 20
40 10 9
43 13 11
54 14 14
83 14 13
67 18 18
63 15 15
32 9 8
78 17 17
54 16 15
92 20 20
31 8 8
58 16 16
57 16 15
40 9 8
72 20 19
49 13 13
38 10 9
46 12 12
59 15 15
82 22 22
42 12 11
0 0 0
0 0 0
0 0 0
0 0 0
0 0 0
0 0 0
0 0 0
0 0 0
0 0 0
0 0 0
0 0 0
0 0 0
0 0 0
0 0 0
0 0 0
0 0 0
0 0 0
0 0 0
0 0 0
0 0 0
0 0 0
0 0 0
0 0 0
0 0 0
0 0 0
0 0 0
0 0 0
19 32 18
11 24 13
26 48 27
19 29 15
13 23 13
23 43 24
30 58 33
25 40 22
20 32 18
22 43 22
16 21 11
25 47 27
33 62 35
20 34 19
34 58 32
21 39 20
27 49 28
13 29 14
21 27 15
23 42 23
15 30 16
21 36 20
24 45 24
25 45 26
25 47 27
23 40 23
21 41 22
16 23 12
22 39 20
19 32 18
27 44 25
37 70 39
25 48 26
20 31 18
25 46 26
25 48 27
29 54 30
25 46 24
23 44 23
20 38 21
24 43 23
24 44 24
16 28 15
17 35 20
18 32 17
22 45 23
29 63 31
24 44 23
17 28 16
17 28 15
20 28 15
23 37 20
21 39 21
37 36 20
18 31 17
21 36 19
27 55 30
19 33 18
16 28 15
24 30 22
41 43 40
54 41 35
34 51 35
23 23 18
62 39 32
40 34 24
56 60 55
30 34 28
41 47 36
65 41 36
50 49 45
44 50 43
34 31 20
45 40 32
40 51 36
63 56 47
47 47 43
39 37 30
37 44 32
40 40 30
50 43 32
47 50 43
39 37 32
57 42 33
64 52 37
40 42 28
40 46 40
33 44 33
50 46 40
67 50 47
42 41 35
42 52 42
56 56 49
51 46 39
45 33 31
47 42 33
50 57 49
44 48 37
42 48 37
44 45 37
53 47 40
59 55 50
56 55 49
48 53 43
47 47 41
42 37 25
47 51 41
44 42 32
38 47 37
57 49 45
41 46 36
55 52 46
98 45 40
35 42 32
63 58 49
60 51 48
45 50 39
38 48 37
39 39 31
57 56 40
66 51 45
53 46 39
38 45 36
35 38 32
49 43 37
38 49 38
47 45 41
38 48 37
49 52 44
60 67 56
45 51 45
61 56 48
72 48 44
42 50 41
51 54 47
44 48 38
63 57 54
48 39 33
53 52 47
39 39 32
73 63 58
45 41 34
53 47 39
52 52 43
62 64 52
61 76 58
48 40 37
52 64 52
51 47 40
47 55 44
56 57 53
53 60 51
49 52 45
54 53 48
51 56 48
51 57 46
50 52 47
44 44 38
49 51 42
65 61 53
50 46 44
53 55 49
34 39 27
45 46 33
62 59 55
57 54 48
43 50 42
53 48 42
68 54 48
67 63 59
75 67 62
62 57 52
47 52 43
53 43 40
52 58 51
37 53 38
50 56 48
57 53 45
57 50 45
98 88 85
49 50 45
39 37 32
51 50 46
55 49 45
43 49 38
54 52 41
57 42 41
48 53 47
78 76 72
58 53 47
51 51 48
47 48 42
58 39 34
59 57 53
61 57 53
42 48 42
66 64 60
50 55 46
43 44 39
55 54 46
72 105 69
52 59 51
54 55 45
56 52 40
46 40 36
57 65 58
67 60 57
57 57 50
56 46 38
42 38 34
61 62 58
65 59 50
45 35 29
48 46 38
54 51 44
53 50 47
51 47 41
66 57 46
58 60 52
47 48 43
52 46 40
66 61 54
57 47 44
51 49 48
45 50 45
43 49 41
58 53 52
49 42 39
51 37 33
52 52 49
69 68 63
58 52 48
41 50 41
55 51 46
73 51 46
38 47 32
66 50 47
58 58 52
50 44 39
49 49 42
57 48 42
63 56 49
69 85 58
74 71 67
65 60 57
60 49 47
40 42 35
47 48 42
32 34 27
53 43 40
69 53 52
54 49 44
42 44 39
63 68 59
39 44 34
50 42 39
49 52 43
65 58 54
56 55 52
55 44 42
58 55 52
73 50 48
53 46 44
57 64 45
68 44 41
56 54 47
57 56 50
50 39 34
60 39 38
62 65 55
51 49 46
41 40 39
51 46 41
52 45 41
53 48 41
73 64 57
58 50 49
44 47 43
61 54 51
57 51 43
75 77 57
67 62 60
62 57 49
44 72 42
61 54 50
55 47 40
50 38 35
59 63 51
85 67 62
70 62 58
70 60 59
67 56 51
57 56 50
51 47 41
64 61 57
69 69 62
44 39 33
58 44 42
47 41 34
58 47 44
54 55 47
52 36 32
66 51 48
50 48 45
53 35 34
47 49 41
70 57 53
53 53 47
52 45 43
53 45 41
50 52 45
57 43 41
43 45 41
58 48 40
57 45 39
61 47 45
59 52 50
42 39 34
71 55 47
62 47 47
38 37 32
70 58 57
49 40 36
85 81 78
42 40 37
61 48 45
44 39 33
56 33 28
156 76 73
61 56 53
52 50 41
53 51 45
41 42 36
45 47 39
67 49 46
45 51 43
60 57 54
56 43 43
56 48 45
66 63 56
54 44 42
74 47 45
62 57 48
40 37 33
62 49 43
63 55 50
67 50 48
92 77 71
60 47 41
76 65 57
57 51 50
62 47 43
69 44 43
47 29 28
74 72 70
62 57 53
61 36 30
63 53 47
56 41 40
62 50 49
59 46 40
60 45 40
62 56 49
60 51 51
58 51 46
71 59 59
56 48 45
57 54 45
60 54 50
35 25 25
60 67 55
50 43 41
68 33 31
74 61 61
60 59 47
71 59 58
50 36 30
48 30 28
73 61 60
63 49 43
44 37 31
53 44 43
55 38 35
61 46 45
63 52 44
48 38 34
63 45 44
69 50 45
72 54 52
59 46 41
67 50 48
62 55 53
51 40 36
62 51 44
64 54 44
48 34 30
56 40 37
59 61 49
57 42 39
45 32 27
68 60 57
56 47 41
60 46 44
59 42 39
54 34 26
69 57 54
58 49 47
56 42 42
61 57 52
46 37 34
58 54 43
38 30 29
73 63 62
55 49 41
155 60 43
58 48 47
56 45 42
77 69 67
50 26 24
59 41 41
45 40 37
60 33 30
46 31 25
46 45 34
70 48 44
66 51 51
52 39 36
50 36 34
49 22 20
71 51 48
60 47 46
57 38 37
53 51 43
73 36 35
80 75 70
45 37 34
62 47 44
59 36 34
48 21 20
71 46 45
55 46 46
51 42 33
45 41 33
71 54 54
53 34 29
55 48 46
68 55 51
53 36 31
61 50 42
60 44 42
54 34 33
53 31 27
45 36 32
63 50 45
53 43 40
48 33 24
54 39 38
45 19 19
42 28 25
47 39 34
51 37 35
65 41 40
46 24 23
59 51 49
56 49 42
54 33 31
47 28 25
45 39 37
61 40 40
54 35 34
55 30 30
55 46 41
58 34 30
49 37 37
48 43 36
48 34 31
62 48 45
49 40 35
52 41 39
44 42 38
57 30 29
62 63 51
37 32 31
72 49 42
46 36 31
49 30 28
44 35 32
64 47 38
50 38 38
57 54 44
70 50 47
55 28 28
67 51 49
75 63 59
53 22 21
45 35 31
38 33 29
53 47 44
52 39 33
58 64 47
55 49 45
49 37 31
53 39 39
46 34 31
40 24 22
59 40 38
52 40 40
43 27 27
39 24 24
60 46 36
45 43 42
55 47 45
31 14 14
47 12 12
55 15 14
55 15 14
43 12 11
55 17 15
71 18 18
42 12 10
36 7 6
32 9 8
64 17 16
47 12 11
29 8 7
46 11 11
48 13 12
50 12 12
63 17 16
82 23 22
40 9 7
58 16 15
62 17 15
53 15 14
41 12 11
55 14 14
47 12 12
39 10 9
65 16 16
44 10 10
49 13 13
47 13 11
52 14 13
49 12 11
109 30 30
58 14 14
51 14 13
58 16 15
57 14 14
104 24 23
52 15 13
54 14 14
73 17 16
63 18 17
61 17 16
62 13 13
52 13 12
48 11 11
33 9 8
44 11 11
39 10 9
42 11 11
61 14 13
59 17 16
52 14 13
52 12 12
57 15 15
84 24 23
55 15 14
43 10 9
45 12 11
43 11 11
49 13 13
0 0 0
0 0 0
0 0 0
0 0 0
0 0 0
0 0 0
0 0 0
0 0 0
0 0 0
0 0 0
0 0 0
0 0 0
0 0 0
0 0 0
0 0 0
0 0 0
0 0 0
0 0 0
0 0 0
0 0 0
0 0 0
0 0 0
0 0 0
0 0 0
0 0 0
0 0 0
0 0 0
6 3 2
23 30 17
21 36 20
22 47 25
23 42 24
25 47 27
17 27 15
22 37 20
34 62 35
27 46 26
24 47 26
30 56 32
16 29 16
25 47 26
18 26 15
24 46 26
16 29 17
28 46 26
37 51 28
33 40 23
22 37 21
22 42 24
29 52 29
16 31 17
23 40 22
19 36 19
27 48 27
32 51 28
23 42 21
18 24 12
23 37 20
24 54 27
22 38 21
23 41 23
19 31 17
17 32 17
22 41 22
20 40 20
26 48 26
32 61 35
22 38 21
18 34 18
25 43 24
14 25 13
16 28 14
19 36 18
36 63 36
26 50 27
24 49 24
30 53 29
25 43 24
22 44 24
21 36 20
20 38 20
19 33 18
19 34 18
20 33 17
22 44 24
18 42 20
23 42 24
11 21 10
24 30 23
27 27 23
40 47 38
43 45 38
25 34 26
38 42 36
43 40 33
36 38 35
31 42 29
53 51 43
18 23 12
20 24 18
40 42 38
62 62 54
35 39 35
23 27 20
40 37 32
48 57 48
51 54 47
52 57 51
49 43 38
32 38 29
41 37 30
32 43 33
47 42 35
51 53 47
55 46 42
60 58 51
38 46 37
38 47 38
20 33 19
39 53 40
50 46 38
46 47 40
25 39 25
41 47 37
54 50 45
53 42 37
41 47 39
42 46 37
54 52 39
48 50 41
43 45 38
39 43 38
55 65 54
42 43 30
67 42 39
50 40 35
45 49 37
39 47 35
38 43 34
61 62 56
73 70 64
42 42 36
49 49 42
63 58 51
56 55 50
60 61 54
47 48 39
53 60 49
53 61 51
43 37 31
54 52 45
53 59 47
40 37 28
56 65 53
54 50 42
40 34 30
58 58 50
45 47 38
49 55 42
51 50 43
53 55 50
54 56 50
47 52 41
52 49 39
53 68 53
47 54 44
57 41 34
42 48 42
45 50 37
89 71 64
51 50 41
59 59 53
48 50 45
50 54 42
57 59 53
51 50 46
63 56 46
53 52 43
55 51 46
53 50 43
66 63 53
38 45 36
56 58 52
56 61 53
42 39 35
37 37 32
55 59 54
49 56 46
44 51 41
63 63 59
51 61 49
42 47 39
53 45 41
59 55 49
54 54 42
45 46 34
62 63 58
47 47 39
49 55 44
75 65 61
48 46 42
52 57 48
61 53 45
62 52 39
53 53 47
58 50 47
59 52 47
55 58 52
49 56 46
60 68 55
56 49 42
65 61 56
63 63 55
53 52 45
53 64 51
53 49 45
42 40 31
54 57 49
60 53 46
56 54 48
45 45 38
61 55 49
59 50 44
46 53 46
47 52 43
39 39 33
50 49 46
48 45 44
47 51 44
50 48 43
52 54 51
71 82 63
61 45 40
60 56 52
45 45 40
51 64 50
55 61 52
49 52 43
43 40 33
46 51 42
50 36 32
46 54 42
60 63 55
38 36 28
47 47 39
61 55 49
59 59 49
71 62 59
54 56 50
58 49 47
54 55 41
59 60 52
46 50 44
59 56 52
35 37 29
49 45 39
71 69 59
60 50 47
55 60 50
43 47 39
55 64 52
43 54 42
69 62 56
70 72 66
54 46 41
42 44 41
59 46 43
49 53 43
57 56 51
55 57 47
63 58 54
63 53 52
40 37 30
59 57 51
65 62 59
67 49 47
67 66 57
66 68 61
61 53 47
45 45 41
60 60 58
55 49 47
43 37 28
62 58 55
60 52 46
66 63 55
68 61 55
50 45 37
74 59 53
50 55 46
62 60 47
52 48 37
45 46 39
56 58 49
51 48 47
44 35 29
57 53 47
59 58 53
85 62 57
51 61 49
62 63 60
33 32 30
58 56 53
51 49 45
53 55 47
53 56 50
65 57 47
58 55 47
56 47 41
59 51 44
50 40 35
73 69 66
56 48 45
115 70 64
73 50 46
81 50 48
53 56 52
54 42 38
65 58 54
59 58 53
65 55 52
64 55 49
53 43 33
69 46 43
53 48 45
63 53 48
48 47 34
56 55 49
60 60 53
62 54 48
94 90 90
75 60 58
42 39 35
42 31 25
51 43 41
52 45 43
57 59 52
44 35 33
65 60 56
62 38 33
49 52 45
55 42 36
64 46 45
68 61 60
49 40 32
55 45 43
48 43 38
67 59 57
52 59 45
68 66 63
59 52 50
51 57 47
62 53 49
47 33 30
44 50 42
84 76 74
62 42 34
71 60 57
60 58 55
52 54 50
46 33 32
59 49 44
48 39 34
64 56 54
69 47 47
60 56 50
68 67 63
53 41 38
48 35 27
76 73 72
53 48 40
67 50 47
65 56 50
57 48 45
56 42 40
68 58 56
64 51 50
60 47 44
46 39 30
60 28 25
66 58 53
55 40 35
54 46 38
43 30 26
57 55 49
56 35 29
65 46 45
62 52 47
53 45 40
55 46 37
61 39 34
59 48 46
63 59 54
71 53 50
58 40 35
69 59 58
78 43 38
69 64 60
48 47 43
51 44 36
59 46 46
68 62 60
58 46 43
51 42 38
68 59 57
66 47 45
36 25 24
67 54 51
85 86 81
57 50 44
73 49 43
63 54 49
60 44 42
53 41 37
58 49 48
56 49 45
71 46 39
67 58 55
61 47 42
60 49 46
70 45 44
71 56 53
59 53 45
72 51 45
59 49 48
63 44 42
53 35 34
44 36 35
73 56 55
66 51 49
59 24 23
58 48 45
61 45 41
63 54 45
48 40 40
77 38 38
58 44 40
56 50 44
62 61 52
51 33 32
52 44 43
60 47 44
64 41 38
62 43 41
73 66 61
63 56 50
68 51 50
73 55 54
62 45 44
55 48 38
56 37 33
56 42 35
51 40 40
46 41 37
56 34 31
54 40 37
48 43 40
68 49 44
66 53 49
43 36 32
95 83 80
37 32 22
62 49 41
55 39 36
51 54 47
51 46 43
45 35 33
51 42 39
29 26 24
74 56 54
53 35 29
53 40 35
66 44 43
73 65 61
55 46 46
46 44 35
72 56 52
73 59 58
66 60 50
58 30 29
81 74 71
46 39 35
84 59 58
54 43 43
100 48 44
53 43 40
57 41 36
49 21 19
68 52 48
66 43 42
34 29 26
43 32 22
60 41 35
54 32 29
59 50 49
33 16 11
58 41 38
55 47 46
53 42 34
41 33 33
64 49 46
33 21 21
43 23 22
42 30 30
55 44 40
52 30 30
61 37 36
38 24 22
60 48 48
60 44 41
60 28 28
64 40 37
62 47 45
62 37 35
51 44 40
76 43 43
52 27 27
41 37 32
74 34 34
63 49 49
46 25 24
64 48 45
47 34 32
46 49 40
54 40 39
50 38 28
61 50 49
82 80 73
53 40 38
55 30 23
64 45 45
48 38 35
48 30 27
39 34 28
85 82 81
47 34 33
44 62 36
51 37 27
57 42 39
31 15 15
34 7 6
43 12 10
52 12 11
38 9 7
37 9 8
46 12 11
41 9 9
44 10 10
54 12 12
57 14 13
47 12 12
40 12 10
58 10 9
57 18 15
60 16 15
42 12 10
52 14 13
55 15 14
50 13 12
49 12 12
57 14 14
51 14 13
70 17 17
59 17 15
42 11 10
46 11 11
67 17 16
50 14 13
41 12 10
52 12 12
68 15 15
44 13 12
56 15 14
49 11 10
61 16 15
53 14 13
56 15 15
72 19 19
56 15 14
54 15 14
63 15 15
59 15 15
54 15 15
46 12 12
50 12 12
46 12 12
64 16 15
54 13 12
46 11 10
58 17 15
62 17 17
40 12 10
70 17 16
39 10 9
41 11 10
34 10 9
33 6 6
50 14 13
34 9 8
29 7 6
0 0 0
0 0 0
0 0 0
0 0 0
0 0 0
0 0 0
0 0 0
0 0 0
0 0 0
0 0 0
0 0 0
0 0 0
0 0 0
0 0 0
0 0 0
0 0 0
0 0 0
0 0 0
0 0 0
0 0 0
0 0 0
0 0 0
0 0 0
0 0 0
0 0 0
0 0 0
0 0 0
7 18 8
17 32 18
17 30 17
22 36 21
26 52 29
52 99 57
20 38 21
21 39 22
20 35 20
36 68 39
18 34 19
33 56 32
24 42 24
33 63 35
14 25 14
19 34 18
31 52 29
11 21 12
40 77 43
25 46 25
14 31 15
24 42 24
24 44 25
16 32 17
19 36 18
26 48 28
20 40 21
23 43 23
21 35 19
23 41 23
22 42 22
27 49 27
31 60 34
21 38 21
12 14 6
26 48 27
25 49 26
29 56 31
25 45 26
20 38 20
22 45 24
31 56 32
22 40 21
18 29 15
25 46 25
33 61 34
24 41 23
25 44 24
27 51 29
25 39 21
20 37 19
25 44 24
21 38 21
25 46 25
26 44 25
23 44 23
21 38 21
21 34 16
23 39 21
19 28 15
27 48 26
54 51 46
53 49 37
34 36 28
34 39 33
44 50 43
32 35 30
63 47 35
28 30 25
40 39 36
55 51 47
77 44 36
23 24 15
42 43 40
43 43 36
44 49 42
45 45 37
51 51 46
60 73 59
39 46 36
43 43 38
40 40 33
41 38 32
59 52 46
41 36 33
40 53 40
49 44 41
55 72 56
33 40 33
41 47 41
48 55 48
47 41 37
61 64 58
42 46 37
56 50 41
74 71 64
36 36 29
56 53 44
47 47 38
44 42 35
48 44 33
43 42 36
60 58 53
46 49 40
50 49 42
45 50 44
65 71 63
47 51 42
60 53 48
39 38 33
68 56 51
52 58 47
42 50 38
56 49 41
45 45 39
46 43 37
67 70 63
38 45 33
61 62 55
60 60 53
46 49 45
52 59 51
55 62 48
46 51 41
58 50 44
43 44 35
53 51 40
53 61 53
51 61 50
50 60 50
49 57 46
48 45 38
58 62 55
51 44 38
54 57 43
54 61 53
48 49 43
49 49 43
49 45 38
236 236 234
70 77 65
41 41 32
56 63 54
56 51 42
36 40 36
66 63 51
73 63 58
35 42 34
53 61 48
50 48 40
64 58 52
65 66 61
44 44 40
43 46 33
45 47 38
43 56 43
55 64 53
68 54 46
75 54 49
48 53 44
66 52 44
45 44 41
69 66 63
62 54 52
63 53 49
62 61 56
39 48 38
43 67 34
55 48 42
50 46 39
46 38 35
55 55 50
56 58 52
55 40 37
54 48 42
43 54 40
48 53 48
43 33 29
44 50 40
64 61 55
71 77 70
57 61 54
51 58 49
45 50 45
69 70 56
52 63 52
54 56 52
56 51 44
29 31 27
85 86 78
59 60 46
58 52 44
67 47 41
45 55 45
48 55 47
52 55 50
46 45 42
59 41 39
55 49 45
57 52 46
49 49 40
59 57 53
53 58 47
45 50 45
64 65 58
55 46 39
51 47 42
55 55 49
51 58 46
50 46 40
53 46 38
71 55 48
57 68 58
47 49 38
62 68 56
48 48 43
47 44 36
74 71 68
70 67 59
43 37 34
54 52 41
53 47 44
49 48 44
55 52 47
73 72 61
48 48 40
56 59 56
58 58 49
61 42 38
57 63 57
58 56 54
50 51 46
45 46 39
63 67 58
68 56 53
70 67 58
65 47 45
58 54 46
50 44 40
62 56 52
43 41 37
62 45 43
62 64 54
50 49 40
54 47 45
58 52 50
67 57 53
38 42 38
61 51 48
46 48 39
59 66 53
43 46 41
110 67 61
45 41 37
59 54 51
54 45 41
69 71 67
70 67 58
45 44 40
57 53 47
59 57 52
63 49 46
51 45 42
47 52 44
61 59 56
60 46 43
68 58 52
69 63 60
58 52 45
55 50 45
53 51 46
40 44 39
57 57 52
49 41 39
55 51 47
59 47 43
61 59 52
56 57 46
53 55 47
50 53 48
41 43 34
66 52 44
65 64 60
68 50 46
59 52 40
52 50 50
86 72 70
52 31 30
64 59 58
66 54 53
48 48 39
53 55 49
48 44 40
62 44 36
31 29 28
48 45 39
59 51 47
47 45 38
52 41 40
73 59 50
41 45 36
67 56 53
46 39 32
51 47 40
73 62 59
44 38 38
59 44 41
68 60 57
50 47 43
44 46 42
48 49 46
44 41 38
61 57 53
53 46 40
61 43 37
85 75 75
67 52 49
43 39 36
52 49 45
54 54 47
56 38 34
37 37 32
51 41 37
69 41 34
58 55 48
68 56 48
47 32 30
52 40 36
65 64 60
57 56 49
56 43 42
68 50 48
58 51 47
54 63 53
59 51 48
55 47 43
61 57 51
43 36 28
71 45 41
33 23 21
68 49 46
53 50 40
53 47 41
61 56 53
65 56 50
65 61 58
43 43 38
75 60 50
55 60 50
66 49 45
58 55 49
68 58 55
57 49 47
57 46 34
57 54 54
86 70 66
56 44 40
56 44 41
63 41 37
56 43 38
64 55 50
76 72 64
52 48 43
50 43 38
48 39 35
57 49 46
64 49 44
78 61 57
66 68 57
53 55 50
54 52 47
58 54 50
58 47 47
91 51 49
41 31 24
57 51 45
62 53 45
70 63 60
49 42 40
59 56 52
45 35 35
57 35 35
71 72 65
70 44 43
49 48 39
49 21 18
66 46 45
56 47 44
71 49 46
52 37 29
30 20 13
58 50 50
58 48 46
71 64 58
50 42 39
50 35 29
57 49 39
53 37 33
61 35 30
41 37 31
64 46 41
78 41 39
63 50 46
46 29 26
69 37 31
59 37 30
54 38 35
50 47 40
45 37 34
63 49 44
65 35 34
62 36 35
65 39 35
61 37 33
64 46 43
69 39 35
61 37 36
59 45 42
61 50 45
68 59 58
62 50 49
59 34 33
47 39 39
70 59 56
65 44 42
65 54 54
65 42 40
102 92 91
63 39 33
48 49 44
58 62 54
51 30 24
68 45 45
59 45 40
69 40 38
54 43 42
67 44 40
71 49 47
62 51 49
70 53 42
55 46 46
54 31 30
42 13 13
47 35 35
72 44 43
58 31 28
81 49 48
39 32 23
58 45 41
36 30 28
84 47 45
57 52 50
69 50 50
43 19 17
44 41 29
64 48 41
69 45 44
54 39 32
60 36 32
55 44 42
65 60 50
68 38 37
68 50 47
57 46 45
72 56 53
59 37 36
51 22 21
54 31 27
65 62 59
46 33 31
85 82 80
39 27 24
62 52 42
62 46 43
59 20 20
55 48 43
60 45 43
55 40 40
61 41 41
57 42 38
58 43 36
49 35 31
46 36 36
55 42 41
60 51 49
41 33 33
66 52 47
63 52 50
59 36 32
46 42 40
42 22 22
49 31 22
48 38 34
67 57 50
61 42 37
78 34 34
74 42 41
79 42 31
40 34 25
75 31 31
52 41 38
46 35 29
43 27 27
33 23 17
47 37 36
48 35 33
43 28 23
44 37 34
46 36 33
36 51 25
35 31 23
55 23 22
21 7 5
95 26 25
30 9 7
49 13 12
45 10 10
51 14 12
53 14 13
38 10 9
56 13 13
31 7 6
60 15 15
79 21 21
43 10 9
40 11 10
57 14 13
52 13 13
55 15 14
52 13 11
57 13 13
60 16 16
51 13 13
121 20 20
80 22 21
41 11 10
43 11 11
46 10 9
70 19 18
44 11 11
48 13 12
55 14 13
50 12 12
72 20 19
54 14 14
68 18 17
60 11 11
43 10 10
69 18 18
61 15 15
59 15 14
74 14 13
59 15 15
56 13 13
47 12 12
55 15 14
66 18 18
68 20 18
42 10 9
40 11 10
33 9 9
54 11 11
48 13 13
58 15 15
86 16 15
52 15 14
58 16 15
40 11 10
40 11 10
41 10 9
56 16 15
43 13 11
27 6 6
0 0 0
0 0 0
0 0 0
0 0 0
0 0 0
0 0 0
0 0 0
0 0 0
0 0 0
0 0 0
0 0 0
0 0 0
0 0 0
0 0 0
0 0 0
0 0 0
0 0 0
0 0 0
0 0 0
0 0 0
0 0 0
0 0 0
0 0 0
0 0 0
0 0 0
0 0 0
0 0 0
28 45 26
20 40 22
23 46 25
28 55 31
24 44 25
25 47 27
30 51 29
31 59 34
22 42 23
18 26 14
16 28 16
23 43 25
23 39 19
21 36 20
22 41 23
24 48 25
20 38 21
27 52 29
28 55 30
29 45 25
25 49 27
22 40 22
22 39 21
21 39 22
20 36 19
30 59 34
24 33 19
19 40 20
21 40 22
19 34 19
30 54 30
26 48 27
24 45 26
19 35 18
24 39 21
23 42 24
15 25 13
32 48 27
20 36 20
21 38 19
16 30 15
20 39 20
25 44 24
24 45 25
34 66 36
20 40 22
19 32 18
21 37 20
27 47 26
20 36 19
22 41 22
19 33 16
14 23 12
21 37 19
21 41 21
18 34 18
20 31 17
29 32 17
24 33 19
23 37 21
14 27 15
25 32 18
41 49 36
39 39 34
67 64 63
20 33 20
58 59 54
44 42 35
35 34 29
29 31 21
42 41 37
63 52 50
36 39 35
48 53 46
45 42 28
42 43 35
63 65 62
57 51 46
41 48 40
45 47 40
34 47 35
32 30 24
36 41 28
54 51 45
48 46 43
49 51 42
55 51 40
30 41 30
31 37 30
52 46 41
61 65 58
32 37 32
35 41 35
47 54 39
33 31 27
40 51 35
46 44 30
54 62 53
43 48 40
52 55 48
40 37 26
38 38 32
56 41 34
23 36 23
45 42 37
35 41 34
39 44 35
46 48 35
50 54 50
31 40 29
50 54 45
52 50 45
50 57 48
60 66 58
43 50 42
57 84 56
51 50 45
55 61 50
67 66 60
57 64 46
46 46 41
61 52 47
40 41 32
41 46 40
34 32 26
38 35 31
48 48 43
61 64 54
43 49 39
61 50 41
58 48 46
40 48 38
55 59 52
37 36 34
47 51 40
52 56 50
38 42 31
44 46 39
59 60 51
54 50 43
52 49 45
45 47 38
46 46 40
39 48 37
74 73 70
50 40 29
43 46 38
65 67 60
74 75 69
35 36 35
48 45 42
37 39 32
52 43 33
50 52 45
54 66 52
61 56 48
36 45 33
67 75 65
51 39 36
68 58 54
38 36 31
45 50 36
59 58 47
61 51 47
57 66 55
44 48 40
71 72 60
72 54 50
69 66 58
48 51 39
52 61 48
49 47 44
49 55 45
69 67 58
50 48 43
59 67 58
56 62 50
50 41 34
61 55 54
49 55 46
50 50 43
54 58 46
44 44 37
60 60 57
41 45 30
55 44 40
53 53 47
55 54 50
73 66 57
59 67 57
53 55 47
64 65 58
54 51 43
54 53 43
57 57 47
48 43 38
55 52 47
58 52 50
41 41 33
71 70 68
59 47 41
92 58 56
64 41 36
64 59 48
60 59 50
51 46 42
54 54 50
60 51 46
70 69 63
67 63 59
47 50 45
62 50 44
60 57 53
63 63 56
97 95 90
75 76 66
49 45 36
53 57 52
56 51 43
41 40 37
47 49 45
56 52 45
53 54 48
60 60 51
51 46 40
75 59 59
63 57 50
77 69 63
55 54 50
34 36 24
58 63 54
56 58 49
59 52 51
51 50 42
64 52 47
53 53 50
55 43 43
67 57 50
43 44 37
42 44 37
69 56 53
74 60 57
61 55 46
45 48 41
55 55 45
61 56 54
90 66 55
71 67 62
62 55 53
50 50 41
59 54 50
56 46 42
84 84 82
93 51 47
41 40 31
63 61 57
67 62 59
50 42 35
69 68 57
46 36 32
61 60 53
64 56 52
40 45 36
69 62 56
130 48 44
44 45 36
58 61 47
47 46 37
64 59 54
67 57 51
57 62 57
54 49 43
58 49 44
48 48 43
48 41 38
70 61 60
53 42 41
55 46 43
57 55 48
52 53 46
40 40 35
62 47 45
54 53 43
63 60 52
62 51 45
95 84 83
40 45 40
74 62 54
57 54 48
51 51 47
73 55 52
66 69 63
53 47 35
79 70 68
52 52 50
70 48 47
59 48 43
57 54 48
48 52 41
40 40 37
38 28 27
56 52 50
49 43 39
64 51 46
56 48 46
62 58 55
48 43 38
66 56 53
63 56 50
69 55 52
52 44 43
87 45 42
67 49 43
69 56 49
65 55 47
45 41 36
53 50 46
61 48 46
66 61 60
65 56 53
53 51 48
59 64 56
54 39 36
57 44 41
50 44 37
71 63 61
46 49 44
49 34 30
58 38 37
60 53 50
66 40 36
59 39 39
66 48 43
53 45 44
73 61 59
50 34 33
56 48 45
60 45 42
67 53 52
50 40 39
55 54 45
64 53 49
50 39 39
48 59 41
71 58 56
72 68 61
48 44 40
54 43 37
51 50 46
45 44 39
57 53 46
66 49 40
61 64 47
158 152 151
48 46 41
76 67 61
62 60 57
53 50 44
65 50 50
61 51 50
73 62 60
65 53 49
71 62 56
74 61 59
65 47 45
67 53 51
60 47 45
54 46 38
62 53 48
54 37 29
49 43 37
52 49 33
51 55 45
49 37 35
41 35 29
64 58 55
37 33 29
53 43 38
49 43 39
60 44 41
54 45 42
58 39 38
55 59 46
65 45 40
83 57 54
61 58 55
54 53 50
44 36 32
68 41 40
49 39 35
53 41 41
60 52 45
62 37 37
51 53 48
38 29 25
64 45 45
67 56 49
52 47 40
31 15 12
57 46 45
48 44 42
73 78 66
52 52 49
65 47 47
51 57 47
54 46 42
59 49 44
48 46 42
60 46 46
65 43 36
55 44 42
58 41 36
56 53 45
59 49 47
43 35 29
42 38 33
93 64 63
69 41 38
133 124 124
50 41 28
53 36 33
56 37 34
50 53 47
51 26 25
55 41 39
45 22 22
64 59 56
54 35 34
70 62 59
56 46 40
57 31 28
49 35 29
53 40 36
55 45 39
57 41 41
46 35 31
75 60 58
74 49 48
51 40 34
67 39 36
109 51 47
53 35 32
57 45 43
66 49 44
42 25 25
52 42 37
66 38 37
55 43 37
48 32 26
70 48 46
82 62 58
71 55 54
57 29 29
54 34 31
59 31 26
60 48 42
54 46 43
62 51 50
65 52 43
56 40 39
53 31 26
49 38 35
69 56 52
40 34 32
72 51 47
46 30 29
60 46 45
56 43 39
55 48 48
71 58 56
49 36 28
57 32 25
62 44 43
51 37 37
54 41 41
46 31 28
41 32 30
65 58 52
73 64 59
60 46 43
82 34 34
55 38 37
45 41 40
58 42 39
34 26 25
57 47 41
74 58 58
58 55 50
61 34 32
49 34 33
47 29 28
49 42 39
44 13 11
46 40 32
46 35 32
56 36 32
68 28 28
56 51 46
66 34 32
59 35 34
40 29 29
62 29 28
51 33 33
49 34 34
52 43 37
57 52 47
38 36 29
48 37 37
46 35 32
37 31 30
37 16 11
44 11 11
47 10 9
44 10 9
71 19 18
59 15 14
62 16 15
32 8 6
37 9 9
56 12 12
125 12 11
54 14 13
36 10 9
38 9 8
98 26 25
59 16 15
65 15 15
106 21 20
44 11 11
56 15 15
49 14 13
94 17 17
48 13 12
79 21 20
97 21 20
56 16 15
48 13 12
53 12 11
46 12 11
124 17 17
71 19 19
50 16 13
52 13 13
38 9 8
57 16 15
51 12 11
50 14 13
49 12 12
47 13 12
64 13 13
72 16 16
49 11 10
53 12 11
37 11 10
61 17 17
62 14 13
58 16 15
65 17 17
39 9 9
47 11 10
62 12 12
55 17 14
62 17 16
67 13 12
54 13 12
52 13 12
50 13 13
52 13 13
45 13 12
41 11 10
43 9 9
37 10 9
22 6 5
0 0 0
0 0 0
0 0 0
0 0 0
0 0 0
0 0 0
0 0 0
0 0 0
0 0 0
0 0 0
0 0 0
0 0 0
0 0 0
0 0 0
0 0 0
0 0 0
0 0 0
0 0 0
0 0 0
0 0 0
0 0 0
0 0 0
0 0 0
0 0 0
0 0 0
0 0 0
0 0 0
23 43 25
46 88 50
19 38 20
23 43 23
33 62 36
34 65 37
26 46 26
23 43 25
26 55 29
18 30 16
17 23 12
28 53 30
25 42 23
23 44 24
18 32 18
17 25 14
19 36 20
25 41 24
25 41 23
30 57 33
24 37 21
16 34 18
37 67 38
20 36 20
19 32 17
19 29 15
19 37 20
23 43 25
23 43 24
20 39 20
23 43 24
31 60 33
27 48 26
28 54 30
21 41 23
19 34 18
24 46 25
20 30 17
21 38 21
22 42 23
18 32 17
24 42 23
24 45 22
22 45 24
26 62 28
18 33 17
30 51 28
23 32 18
21 43 22
20 38 20
20 40 19
23 40 22
25 51 28
20 39 19
19 37 19
25 42 23
20 36 20
14 24 12
22 41 23
21 35 18
18 28 16
26 49 26
20 36 19
39 39 34
54 41 34
43 40 37
51 53 47
39 43 36
56 43 41
54 58 53
45 42 38
41 44 34
41 38 31
55 50 47
45 41 34
20 37 21
40 53 39
48 45 39
44 52 43
54 53 43
48 42 38
58 49 44
41 39 27
44 47 41
46 43 36
38 47 37
49 49 39
38 42 35
45 57 46
47 49 40
42 48 42
33 33 28
55 55 50
48 54 46
49 57 48
75 60 43
37 45 36
54 45 37
25 33 20
42 51 41
44 44 41
51 51 44
34 33 32
45 42 36
35 41 32
42 44 36
46 58 42
64 62 49
38 33 29
45 50 36
60 69 55
63 57 53
40 41 37
39 37 34
49 48 45
50 40 31
48 53 43
40 51 39
38 35 25
48 54 43
56 44 36
65 57 49
55 59 51
67 63 56
86 55 49
50 49 37
47 46 41
41 29 21
41 34 29
56 63 54
56 62 50
39 43 37
53 56 47
41 46 38
52 51 44
48 59 41
69 71 61
41 49 39
54 64 50
61 72 49
63 46 42
40 43 34
52 57 46
46 47 39
52 51 42
49 50 42
56 68 47
46 50 37
55 49 45
53 43 38
51 55 50
35 26 21
49 55 49
39 41 35
47 55 47
29 36 26
62 65 59
46 54 40
73 67 62
44 46 40
55 53 48
76 67 61
58 47 40
43 44 38
41 46 39
38 45 37
70 75 64
45 40 34
56 57 52
78 48 38
49 52 48
59 56 51
50 53 45
41 49 40
61 78 59
56 61 50
60 61 54
81 76 69
68 66 61
58 54 48
56 60 52
70 53 45
55 59 48
47 50 44
65 67 58
59 57 50
48 44 37
50 56 48
49 52 45
53 48 39
45 46 39
56 47 43
59 54 44
56 59 52
64 59 52
60 62 45
54 56 48
58 56 52
62 53 47
54 51 41
41 47 37
64 63 54
56 51 43
53 51 44
56 45 41
46 48 43
62 60 58
65 53 45
59 61 50
81 80 77
45 44 36
33 35 29
60 56 49
52 57 49
43 34 32
63 59 56
67 53 48
69 56 54
59 65 56
100 56 51
75 46 37
68 69 62
54 50 47
50 54 45
45 33 32
61 57 51
33 33 31
54 56 47
52 47 42
44 44 36
79 59 53
60 54 50
48 42 36
42 41 39
33 37 33
41 43 35
35 37 34
32 32 25
33 30 29
45 42 39
31 32 26
41 45 39
36 29 24
63 49 47
43 42 38
50 48 44
45 50 42
35 41 31
53 44 34
49 43 39
33 35 32
35 42 34
32 38 28
28 33 28
44 34 30
40 41 31
35 38 34
51 47 45
54 52 41
49 50 49
33 32 27
36 51 35
47 50 38
49 53 49
41 39 35
38 41 37
27 23 22
61 47 46
71 72 69
27 27 19
47 43 34
37 37 34
45 45 41
41 45 38
25 13 13
39 47 40
45 38 33
50 51 42
41 29 29
48 32 28
43 37 34
49 36 33
44 36 33
39 43 34
55 49 40
40 49 40
34 32 27
47 44 41
59 31 29
39 40 36
43 29 28
43 39 36
52 46 42
50 36 33
40 25 24
33 31 29
35 30 22
40 37 36
48 40 35
29 25 24
67 45 42
44 40 36
33 28 25
32 25 20
43 44 35
42 42 40
39 39 35
47 38 36
36 36 31
45 42 36
51 38 34
33 28 26
51 43 42
47 39 36
40 32 31
57 44 44
42 35 32
50 39 38
49 42 40
40 33 26
36 25 25
45 39 35
48 39 32
41 30 27
67 57 56
44 40 36
54 51 49
46 40 38
34 35 29
36 36 31
44 45 38
25 22 20
53 39 31
42 34 29
51 46 45
50 47 40
38 35 33
41 35 26
54 33 32
119 56 51
56 38 35
52 43 39
59 51 50
63 53 47
61 52 45
47 42 37
71 58 52
44 46 35
48 40 40
61 57 50
52 43 36
62 52 49
57 46 39
62 43 41
62 54 45
56 42 35
47 44 41
49 40 39
77 65 62
73 54 50
53 55 51
67 59 56
94 62 58
64 50 50
66 52 49
59 48 47
57 43 37
61 43 40
45 28 24
52 43 42
49 34 29
76 76 66
51 33 32
72 52 47
48 47 42
48 41 39
43 35 34
59 54 50
71 51 51
56 51 45
66 47 44
53 52 41
55 34 30
59 40 40
46 27 23
62 55 51
102 44 42
54 48 46
63 53 46
47 45 41
49 40 34
67 34 33
74 64 61
44 45 42
42 41 35
57 42 39
75 70 65
64 44 43
66 59 54
64 55 54
51 47 47
30 27 21
63 62 54
50 38 31
59 57 49
52 49 34
65 42 40
56 45 40
67 47 44
59 44 34
57 45 40
57 43 43
44 22 19
70 44 44
124 62 47
43 32 29
43 28 28
54 45 44
53 34 28
61 41 40
47 32 30
65 40 40
55 40 34
52 32 30
47 35 32
82 69 62
71 60 57
53 43 34
61 46 45
57 51 43
78 55 54
63 23 20
65 60 55
68 64 62
57 37 37
56 35 32
50 44 37
57 33 29
61 43 37
52 38 35
58 45 39
93 56 49
54 33 26
57 37 37
69 61 61
67 41 39
61 44 41
54 40 38
63 35 32
45 33 33
58 41 39
72 51 48
58 54 41
59 47 42
64 42 38
69 55 53
63 49 43
54 25 25
51 38 35
53 44 38
70 41 41
48 41 38
42 40 35
57 38 36
44 33 28
230 34 31
77 44 42
81 67 66
37 29 24
63 45 43
48 41 35
53 30 29
81 74 72
62 43 41
57 46 43
46 31 30
58 48 48
63 51 45
66 48 45
47 27 22
100 54 53
54 30 30
79 56 55
104 88 86
51 39 34
58 52 49
59 38 38
96 74 74
60 40 40
41 26 24
52 43 41
42 22 19
56 40 37
72 65 62
55 42 41
44 36 36
60 44 43
95 21 20
49 37 32
44 29 26
63 49 45
50 34 30
54 50 41
58 35 33
44 36 27
46 39 36
48 38 31
52 46 46
42 38 36
28 10 10
25 8 5
48 14 12
60 16 16
42 9 9
47 12 11
25 5 4
52 14 13
35 9 7
63 16 15
55 15 14
28 7 6
50 13 12
53 14 13
65 17 17
62 12 11
59 15 15
56 15 15
56 13 10
50 13 13
51 13 13
43 11 11
34 10 8
56 15 14
61 14 14
66 20 15
70 18 17
59 14 14
47 10 9
33 8 8
49 12 12
37 8 7
69 17 16
53 12 12
38 10 10
52 14 13
55 13 12
41 12 11
43 13 11
60 13 12
63 15 15
62 17 16
55 15 15
54 15 14
39 11 10
36 8 7
81 20 20
39 10 10
39 11 10
44 12 11
66 17 16
48 12 12
55 15 13
51 14 14
47 13 12
49 13 13
65 16 16
76 19 18
50 14 12
53 12 12
49 9 9
49 13 12
47 13 12
31 9 8
0 0 0
0 0 0
0 0 0
0 0 0
0 0 0
0 0 0
0 0 0
0 0 0
0 0 0
0 0 0
0 0 0
0 0 0
0 0 0
0 0 0
0 0 0
0 0 0
0 0 0
0 0 0
0 0 0
0 0 0
0 0 0
0 0 0
0 0 0
0 0 0
0 0 0
0 0 0
0 0 0
12 22 12
21 36 20
22 38 21
33 38 21
20 32 17
18 31 18
21 35 20
27 52 30
22 40 22
20 39 22
26 44 23
22 33 18
17 33 19
30 55 31
22 39 21
22 38 20
20 34 18
24 40 23
22 39 21
29 58 32
18 34 19
27 51 29
23 43 24
23 41 23
21 40 21
23 36 19
22 42 24
25 46 25
19 36 20
14 25 12
23 35 19
19 40 18
23 45 25
28 51 29
19 28 16
21 36 20
30 48 25
30 52 29
21 43 22
27 54 30
21 35 19
19 36 19
25 49 27
16 31 16
27 46 24
29 55 31
22 39 21
22 40 22
24 46 26
21 32 17
21 36 20
23 41 22
16 32 18
20 34 19
25 52 26
16 38 16
25 50 27
16 34 16
21 39 21
23 45 24
21 39 22
19 34 19
19 27 14
23 46 24
43 36 31
45 46 44
46 46 42
51 57 45
37 46 35
31 50 31
31 37 30
47 46 41
55 41 35
36 39 35
42 51 37
60 84 58
57 60 52
54 48 35
44 44 41
45 49 41
56 63 53
32 40 30
64 53 45
51 53 42
42 51 42
53 42 36
67 105 69
33 38 26
47 52 47
47 44 36
58 60 45
41 40 33
51 49 45
62 43 36
38 44 37
47 45 40
48 43 37
37 41 34
35 46 35
57 69 48
63 74 63
56 55 44
48 43 38
36 40 25
41 42 36
41 49 41
48 61 48
28 35 26
45 50 44
58 39 32
47 54 45
52 59 46
68 65 61
47 59 47
62 51 50
47 44 41
37 51 36
47 49 41
67 71 64
52 71 50
66 46 39
42 54 43
44 55 45
56 49 45
56 57 51
48 51 43
43 41 34
52 52 47
45 50 40
52 54 46
48 44 37
52 49 40
32 40 28
43 49 40
48 55 48
38 37 29
34 42 31
42 37 27
51 51 45
57 63 57
63 47 31
78 108 73
55 44 39
58 61 54
46 33 31
56 64 53
53 54 49
56 48 41
52 41 32
43 49 40
41 49 39
47 49 41
60 58 49
58 63 55
50 51 44
70 62 49
48 48 41
63 41 35
52 47 35
79 84 73
45 39 33
42 43 37
49 55 49
57 60 52
49 47 36
57 54 46
52 58 49
58 47 39
47 50 35
48 52 40
62 65 56
54 54 42
61 45 40
46 60 39
62 61 55
52 48 37
56 58 49
46 54 43
49 38 34
65 61 51
58 63 53
42 59 41
56 53 46
53 48 36
56 55 46
74 58 52
55 57 49
69 64 57
58 59 52
69 69 58
43 46 38
54 56 51
55 51 48
65 57 49
50 53 48
66 65 57
60 63 53
58 52 47
61 63 58
56 42 36
52 51 38
65 55 51
45 51 42
55 59 54
63 58 52
58 54 50
51 60 47
47 45 43
51 46 43
77 47 42
53 52 44
55 46 42
52 51 50
46 65 44
71 54 48
65 62 57
46 53 42
47 43 38
53 50 47
42 49 40
63 56 50
52 48 43
52 43 37
52 47 38
48 48 43
62 50 42
67 65 62
59 53 51
56 44 42
50 47 40
72 116 73
51 53 45
61 64 50
235 236 235
255 255 255
255 255 255
255 255 255
255 255 255
255 255 255
255 255 255
255 255 255
255 255 255
255 255 255
255 255 255
255 255 255
255 255 255
255 255 255
255 255 255
255 255 255
255 255 255
255 255 255
255 255 255
255 255 255
255 255 255
255 255 255
255 255 255
255 255 255
255 255 255
255 255 255
255 255 255
255 255 255
255 255 255
255 255 255
255 255 255
255 255 255
255 255 255
255 255 255
255 255 255
255 255 255
255 255 255
255 255 255
255 255 255
255 255 255
255 255 255
255 255 255
255 255 255
255 255 255
255 255 255
255 255 255
255 255 255
255 255 255
255 255 255
255 255 255
255 255 255
255 255 255
255 255 255
255 255 255
255 255 255
255 255 255
255 255 255
255 255 255
255 255 255
255 255 255
255 255 255
255 255 255
255 255 255
255 255 255
255 255 255
255 255 255
255 255 255
255 255 255
255 255 255
255 255 255
255 255 255
255 255 255
255 255 255
255 255 255
255 255 255
255 255 255
255 255 255
255 255 255
255 255 255
255 255 255
255 255 255
255 255 255
255 255 255
255 255 255
255 255 255
255 255 255
255 255 255
255 255 255
255 255 255
255 255 255
255 255 255
255 255 255
255 255 255
255 255 255
255 255 255
255 255 255
255 255 255
255 255 255
255 255 255
255 255 255
255 255 255
255 255 255
255 255 255
255 255 255
255 255 255
242 239 239
59 53 45
86 55 52
63 43 43
54 46 41
57 42 38
59 52 48
53 38 33
79 72 70
48 31 28
41 44 36
63 51 44
58 48 45
66 50 49
67 59 58
45 20 19
62 55 48
67 51 48
61 45 44
48 44 36
43 39 35
52 49 46
63 40 34
51 40 39
54 43 41
76 58 56
62 49 46
47 43 41
59 43 40
62 37 36
51 39 38
66 57 51
68 50 44
71 65 63
51 45 42
87 43 41
43 39 35
42 34 29
73 58 51
84 77 75
48 35 30
41 20 19
51 29 29
55 41 34
55 46 41
61 50 44
51 37 31
58 47 44
60 56 54
55 31 30
52 46 41
47 38 31
60 49 46
57 44 43
54 50 44
53 44 38
71 43 41
44 30 26
65 50 43
58 49 40
66 50 49
57 46 43
73 49 49
48 38 35
48 32 31
48 41 34
60 43 37
48 40 39
57 45 42
51 48 42
56 40 38
47 23 22
56 47 45
43 40 36
58 48 42
54 37 36
84 68 64
50 37 33
54 40 37
40 29 29
53 32 30
93 88 82
51 31 28
52 44 40
43 38 36
63 55 51
59 56 42
42 22 22
65 52 50
65 58 53
56 37 33
71 63 59
70 61 57
49 34 33
49 38 30
52 49 43
60 43 42
64 43 41
64 53 47
50 35 32
43 24 23
35 24 23
57 41 40
56 35 34
44 40 36
53 40 36
54 41 35
60 41 40
55 51 44
46 35 34
59 43 41
63 26 25
60 43 39
63 47 46
66 66 53
68 45 44
40 51 30
48 45 35
56 36 32
56 37 34
55 41 37
63 47 44
62 49 44
52 43 39
59 49 46
60 41 34
65 46 44
47 34 32
76 57 56
63 38 34
52 39 36
60 48 43
68 48 46
63 56 55
59 47 45
55 35 33
51 28 22
71 39 39
34 25 24
74 57 56
62 48 45
65 52 52
32 24 24
57 43 42
54 45 43
53 36 36
58 39 36
46 34 28
47 35 32
57 40 39
51 32 30
53 40 38
26 22 19
66 44 44
132 140 130
66 45 37
52 43 43
46 30 30
31 19 19
49 40 33
43 34 27
33 27 25
53 42 41
59 46 46
73 28 25
34 27 27
53 44 44
51 41 39
68 46 41
66 54 51
31 13 13
44 7 5
44 12 11
48 13 12
42 10 10
46 14 12
68 17 17
46 11 10
39 10 9
57 15 11
63 17 16
42 11 10
46 11 10
56 16 14
57 15 15
53 10 10
58 14 13
63 15 14
84 23 22
64 16 15
56 12 11
41 9 8
35 10 9
59 16 16
61 14 14
58 15 14
41 11 10
59 15 14
67 15 15
52 12 12
62 16 16
45 11 10
57 15 14
40 10 8
75 21 20
62 13 13
46 11 11
65 19 17
58 14 12
55 12 12
41 10 10
52 14 14
109 30 30
63 17 16
63 17 16
41 11 11
47 13 12
42 11 11
66 18 18
46 14 12
51 14 13
60 17 16
44 12 11
60 15 15
68 19 17
46 12 12
55 13 12
41 10 10
44 12 11
74 16 15
55 13 13
25 8 7
33 8 7
47 13 12
48 13 13
0 0 0
0 0 0
0 0 0
0 0 0
0 0 0
0 0 0
0 0 0
0 0 0
0 0 0
0 0 0
0 0 0
0 0 0
0 0 0
0 0 0
0 0 0
0 0 0
0 0 0
0 0 0
0 0 0
0 0 0
0 0 0
0 0 0
0 0 0
0 0 0
0 0 0
0 0 0
0 0 0
3 3 2
15 32 15
21 27 14
22 39 22
34 59 34
25 45 26
20 38 21
34 110 41
20 34 18
22 45 25
22 40 23
19 35 20
33 104 38
15 29 15
24 39 22
15 24 13
9 8 5
17 31 17
29 55 31
15 29 15
34 64 36
27 53 29
22 38 21
21 34 19
22 43 24
27 52 29
21 43 22
23 45 23
18 38 19
22 45 25
21 36 19
23 43 24
22 41 23
27 49 27
23 44 24
30 53 30
23 44 23
19 37 21
22 36 20
24 45 25
28 51 29
27 50 27
25 47 26
26 47 26
45 88 50
25 43 23
16 30 16
28 52 30
20 37 20
25 48 27
26 47 26
19 38 20
21 40 20
18 31 14
21 35 19
25 46 26
30 54 30
32 61 34
24 42 22
21 43 23
18 31 17
16 30 15
15 26 13
29 42 23
17 24 12
27 31 24
49 56 45
56 50 47
45 45 39
35 43 34
48 48 44
62 61 56
49 44 34
53 55 49
39 31 24
45 45 39
41 41 33
65 65 61
59 56 51
51 44 36
79 68 60
52 63 48
32 29 23
37 45 36
36 47 34
68 74 66
68 65 59
44 51 37
35 42 33
53 53 49
35 46 35
22 33 22
50 54 42
53 43 35
39 44 38
47 57 43
44 45 38
55 47 41
42 51 38
40 47 37
45 46 40
37 47 36
36 46 36
66 60 52
47 55 46
47 44 36
58 58 52
38 32 19
75 74 57
45 48 40
57 67 58
42 47 41
57 60 54
42 51 40
56 55 44
46 36 29
63 76 60
44 55 45
65 54 52
43 45 39
39 50 40
40 44 34
49 60 49
46 46 39
42 55 41
68 65 56
41 50 38
67 74 58
58 65 52
49 52 49
213 208 205
44 42 37
47 52 43
69 60 51
64 66 61
43 49 43
44 46 33
61 59 52
90 51 45
56 62 46
53 59 52
44 50 43
60 47 38
54 59 47
47 44 38
29 33 26
61 57 51
46 49 43
61 73 62
42 48 41
63 64 55
52 44 37
50 49 40
48 49 40
33 43 31
50 62 50
66 76 58
47 50 43
57 69 57
62 51 47
71 57 50
45 53 45
43 56 43
53 40 37
45 46 41
65 67 58
64 56 51
65 61 52
58 56 50
59 47 43
62 67 57
65 50 47
61 68 54
73 62 50
60 58 52
75 68 61
61 61 53
38 44 38
65 64 57
62 61 53
40 42 36
84 88 82
77 74 71
47 52 46
44 48 43
54 62 52
63 42 40
65 63 57
45 60 46
46 41 37
67 59 50
57 56 52
46 46 39
61 60 57
45 56 45
23 33 23
59 56 50
64 55 51
56 55 47
58 53 45
68 63 56
48 47 44
48 51 45
70 75 64
59 59 52
59 59 54
46 39 37
54 49 44
51 54 48
47 33 31
79 77 70
53 61 50
63 58 56
56 52 43
59 61 53
82 68 61
54 53 48
61 58 55
86 73 67
62 49 47
56 58 47
52 52 43
56 52 45
58 36 33
40 49 40
77 46 38
57 61 55
49 55 45
48 32 28
54 49 43
51 46 43
54 55 51
52 53 42
88 88 87
255 255 255
255 255 255
255 255 255
255 255 255
255 255 255
255 255 255
255 255 255
255 255 255
255 255 255
255 255 255
255 255 255
255 255 255
255 255 255
255 255 255
255 255 255
255 255 255
255 255 255
255 255 255
255 255 255
255 255 255
255 255 255
255 255 255
255 255 255
255 255 255
255 255 255
255 255 255
255 255 255
255 255 255
255 255 255
255 255 255
255 255 255
255 255 255
255 255 255
255 255 255
255 255 255
255 255 255
255 255 255
255 255 255
255 255 255
255 255 255
255 255 255
255 255 255
255 255 255
255 255 255
255 255 255
255 255 255
255 255 255
255 255 255
255 255 255
255 255 255
255 255 255
255 255 255
255 255 255
255 255 255
255 255 255
255 255 255
255 255 255
255 255 255
255 255 255
255 255 255
255 255 255
255 255 255
255 255 255
255 255 255
255 255 255
255 255 255
255 255 255
255 255 255
255 255 255
255 255 255
255 255 255
255 255 255
255 255 255
255 255 255
255 255 255
255 255 255
255 255 255
255 255 255
255 255 255
255 255 255
255 255 255
255 255 255
255 255 255
255 255 255
255 255 255
255 255 255
255 255 255
255 255 255
255 255 255
255 255 255
255 255 255
255 255 255
255 255 255
255 255 255
255 255 255
255 255 255
255 255 255
255 255 255
255 255 255
255 255 255
255 255 255
255 255 255
255 255 255
255 255 255
84 79 78
64 52 50
60 52 47
54 42 36
51 36 34
55 48 47
57 40 36
53 48 44
52 47 40
59 53 47
56 41 41
62 51 44
47 38 38
80 66 65
56 51 47
58 38 34
60 49 43
58 56 45
63 51 46
56 45 42
58 43 38
79 61 57
54 47 45
59 53 44
56 47 43
60 61 55
75 61 54
63 51 51
37 31 30
66 47 43
60 46 42
44 33 27
61 48 47
63 49 45
55 30 25
69 62 59
55 54 42
64 50 43
55 60 52
67 49 46
50 43 39
61 49 46
116 51 47
54 48 42
54 50 44
56 51 44
59 44 41
70 48 47
53 42 40
65 59 54
67 48 44
65 52 50
52 39 36
61 60 53
54 57 43
62 43 43
65 56 55
77 52 44
51 31 25
71 50 46
60 45 41
58 42 36
65 58 52
62 38 36
53 35 34
48 40 35
56 50 48
57 42 37
61 47 43
62 43 36
85 64 61
57 41 37
60 52 50
53 36 35
80 54 49
76 54 48
61 47 43
65 59 52
52 41 33
58 39 37
47 35 30
58 31 30
67 57 49
73 61 60
68 56 53
57 34 33
59 44 36
46 38 38
73 52 51
68 66 59
58 31 29
45 40 35
57 54 40
59 56 48
55 41 37
68 41 37
46 36 31
68 57 52
62 53 52
55 36 35
74 57 49
54 33 30
64 31 30
65 63 51
62 39 33
66 60 50
62 34 33
57 50 45
44 26 25
62 55 49
63 41 40
63 45 42
46 37 34
49 31 30
38 25 23
67 38 38
57 39 38
100 43 41
63 54 52
60 24 23
57 37 36
52 30 30
50 29 27
75 42 42
75 39 36
50 32 32
53 35 28
58 39 36
49 28 27
47 26 25
66 33 31
62 51 48
36 31 26
53 32 28
57 41 37
73 43 43
59 31 30
63 46 46
68 38 36
77 62 58
50 39 39
70 53 51
44 32 31
49 48 36
65 44 39
44 28 28
51 31 29
50 33 28
57 52 50
56 64 45
55 52 44
52 38 38
50 33 33
48 40 33
47 39 38
58 27 27
45 38 34
24 11 11
60 45 45
77 70 70
45 34 33
55 48 48
40 38 33
41 36 32
45 41 37
46 44 40
59 38 38
64 77 48
46 43 41
38 16 15
45 13 11
33 9 8
33 8 7
57 18 13
52 13 12
47 12 10
38 10 10
47 11 10
75 20 19
46 12 11
45 7 5
71 20 19
51 13 13
39 10 10
50 15 14
49 13 12
60 16 15
58 15 15
48 12 11
58 15 14
44 12 11
34 8 7
77 20 19
47 11 11
54 13 13
45 12 11
41 10 10
54 12 12
54 13 12
58 15 15
69 18 17
68 18 17
40 11 10
54 14 14
58 16 15
74 19 19
44 13 12
64 15 15
58 16 15
56 15 15
51 14 13
64 17 17
49 11 10
50 13 13
53 12 11
49 12 12
26 7 5
55 16 15
53 13 13
47 13 12
60 16 16
50 12 11
39 12 10
26 6 5
57 14 14
40 10 10
45 12 12
43 12 11
53 15 14
43 13 11
58 18 16
47 13 13
60 16 15
35 9 8
31 9 8
0 0 0
0 0 0
0 0 0
0 0 0
0 0 0
0 0 0
0 0 0
0 0 0
0 0 0
0 0 0
0 0 0
0 0 0
0 0 0
0 0 0
0 0 0
0 0 0
0 0 0
0 0 0
0 0 0
0 0 0
0 0 0
0 0 0
0 0 0
0 0 0
0 0 0
0 0 0
0 0 0
8 13 7
23 45 24
24 42 24
18 30 17
21 37 20
18 30 17
20 39 21
18 28 16
32 62 36
20 37 20
19 30 16
23 44 25
10 17 8
27 47 27
25 47 27
20 32 16
26 48 27
24 47 26
32 58 33
21 34 18
19 36 20
29 45 25
29 54 31
28 52 30
20 30 17
19 39 18
20 37 20
20 36 21
23 44 24
20 35 18
16 29 16
26 44 25
19 32 17
23 43 24
23 44 24
24 45 25
30 53 29
23 43 24
36 51 28
24 40 22
23 41 21
27 53 29
27 47 27
27 50 28
29 47 27
35 68 38
17 32 18
20 33 18
30 51 29
20 49 22
18 36 17
25 52 24
29 54 30
16 30 15
22 39 20
19 33 19
25 45 24
19 36 20
22 44 23
29 64 31
20 59 22
21 32 17
19 25 12
19 34 18
23 43 22
17 30 16
37 38 31
46 70 48
45 38 31
55 57 49
27 25 19
58 59 54
37 37 30
36 37 34
39 42 36
50 39 31
35 36 27
63 59 49
52 39 31
43 35 28
58 39 38
38 44 36
74 73 69
38 45 38
44 36 30
43 49 35
34 36 30
51 58 50
48 37 29
52 51 47
40 46 37
53 54 44
59 58 50
40 51 37
54 60 53
37 45 36
39 46 38
45 57 45
38 44 37
49 55 45
54 53 45
49 42 35
52 45 33
60 49 41
61 63 56
52 53 43
78 80 76
45 44 37
65 72 52
58 56 49
40 44 36
56 47 44
49 52 44
65 60 48
46 51 40
57 58 53
39 56 40
77 43 39
58 60 56
75 65 58
57 52 42
41 43 37
57 53 46
42 46 36
59 61 51
39 45 37
57 44 38
72 78 72
49 48 39
59 52 49
61 51 45
85 66 57
51 48 37
50 46 43
51 52 48
62 55 45
56 56 49
44 54 44
56 62 56
45 54 44
51 47 40
55 51 48
44 50 42
55 51 44
49 47 39
89 85 82
59 72 53
50 51 37
47 52 44
55 55 46
51 51 42
45 53 45
46 47 42
49 56 48
46 47 40
58 59 55
21 25 21
57 66 57
46 50 38
47 47 38
59 65 53
58 60 51
68 58 50
71 123 75
72 63 57
52 48 45
57 55 53
45 52 45
37 45 32
44 40 35
63 55 45
52 53 45
51 46 37
50 50 47
58 57 47
45 52 43
64 63 60
60 61 57
55 60 51
65 68 62
57 55 51
59 60 51
48 44 39
57 55 49
55 57 49
52 50 45
58 48 43
50 57 49
50 52 45
46 49 35
61 63 53
49 52 43
39 44 36
63 60 53
65 66 61
66 60 56
65 48 41
54 60 53
63 52 47
47 53 43
64 60 50
82 71 69
89 63 58
48 53 37
44 47 38
64 61 54
53 46 41
47 53 45
47 48 40
63 60 56
41 46 40
52 43 34
44 55 43
55 53 48
78 76 70
59 56 50
57 43 36
56 55 48
52 45 35
67 65 59
78 53 49
72 74 59
46 37 33
55 49 46
54 45 39
62 51 48
40 46 36
71 66 59
54 48 43
55 56 48
64 61 55
60 52 49
52 49 45
56 60 53
255 255 255
255 255 255
255 255 255
255 255 255
255 255 255
255 255 255
255 255 255
255 255 255
255 255 255
255 255 255
255 255 255
255 255 255
255 255 255
255 255 255
255 255 255
255 255 255
255 255 255
255 255 255
255 255 255
255 255 255
255 255 255
255 255 255
255 255 255
255 255 255
255 255 255
255 255 255
255 255 255
255 255 255
255 255 255
255 255 255
255 255 255
255 255 255
255 255 255
255 255 255
255 255 255
255 255 255
255 255 255
255 255 255
255 255 255
255 255 255
255 255 255
255 255 255
255 255 255
255 255 255
255 255 255
255 255 255
255 255 255
255 255 255
255 255 255
255 255 255
255 255 255
255 255 255
255 255 255
255 255 255
255 255 255
255 255 255
255 255 255
255 255 255
255 255 255
255 255 255
255 255 255
255 255 255
255 255 255
255 255 255
255 255 255
255 255 255
255 255 255
255 255 255
255 255 255
255 255 255
255 255 255
255 255 255
255 255 255
255 255 255
255 255 255
255 255 255
255 255 255
255 255 255
255 255 255
255 255 255
255 255 255
255 255 255
255 255 255
255 255 255
255 255 255
255 255 255
255 255 255
255 255 255
255 255 255
255 255 255
255 255 255
255 255 255
255 255 255
255 255 255
255 255 255
255 255 255
255 255 255
255 255 255
255 255 255
255 255 255
255 255 255
255 255 255
255 255 255
255 255 255
60 44 44
57 44 41
74 58 56
89 61 57
102 83 82
59 51 48
59 58 54
48 48 43
69 56 49
64 46 45
46 40 38
53 47 39
63 69 61
60 52 48
71 42 42
72 60 59
48 36 36
60 36 33
50 43 36
72 61 57
63 49 42
65 49 48
66 59 59
62 47 47
47 40 38
44 34 34
65 42 39
65 36 36
66 61 56
66 50 41
54 41 37
42 33 30
65 58 53
67 59 56
69 53 49
62 60 52
68 61 58
55 43 40
48 42 32
78 79 69
59 48 45
59 45 44
69 53 53
65 56 51
70 66 60
60 36 33
73 42 40
51 46 46
63 42 38
56 41 39
47 32 31
59 35 33
37 33 26
86 72 71
58 50 44
66 50 44
59 47 41
74 63 57
75 55 54
69 32 24
46 43 37
62 55 48
70 41 39
36 31 31
53 42 41
55 33 31
46 37 28
50 35 30
67 51 49
49 46 41
65 51 45
52 33 33
70 57 56
47 32 32
62 44 43
42 35 32
53 28 27
58 41 40
54 51 41
40 37 32
53 33 33
53 41 39
54 34 33
59 53 44
56 38 38
51 42 35
53 37 31
64 59 55
65 49 49
58 54 51
80 64 63
67 56 53
58 44 43
70 58 52
65 46 41
55 35 35
64 36 36
44 42 35
47 29 28
66 49 48
60 42 35
68 41 39
58 55 48
54 41 41
52 27 27
45 33 28
55 35 35
45 38 38
60 45 40
56 28 24
52 39 39
69 46 44
51 35 35
77 56 56
68 52 51
55 41 39
92 33 29
66 44 43
81 53 51
60 60 55
76 59 59
68 55 52
66 39 38
54 32 29
46 14 12
50 44 40
60 49 46
60 49 47
56 44 42
55 40 36
55 51 50
52 45 44
57 47 46
45 29 27
53 35 29
55 41 41
76 66 62
81 58 58
52 35 34
62 51 43
79 57 56
47 36 33
71 49 49
58 45 44
76 67 67
72 40 39
54 34 31
56 50 46
54 36 31
60 45 39
46 30 27
58 44 42
63 38 36
50 39 31
49 28 27
45 39 37
57 53 50
48 34 33
49 36 35
58 36 30
47 38 37
65 46 44
52 41 35
49 38 33
28 8 7
46 38 38
40 25 25
171 63 59
54 31 23
44 11 10
39 10 9
52 13 12
52 13 13
60 9 8
49 11 10
43 11 10
36 10 9
58 15 14
57 9 8
62 17 17
48 13 12
63 17 16
76 18 18
48 13 12
74 17 17
45 11 10
82 18 18
61 15 14
54 14 14
59 14 14
70 18 18
54 15 14
61 15 15
47 15 12
85 20 19
40 10 10
41 11 9
61 16 16
54 10 10
91 15 15
60 16 16
68 18 18
47 13 12
62 16 15
51 9 7
60 16 16
54 14 13
50 14 13
62 14 13
52 14 13
54 13 13
57 16 15
66 17 17
64 16 16
63 14 13
63 18 16
58 15 15
57 16 14
59 16 15
41 11 11
64 17 17
63 16 16
45 12 12
68 18 18
38 10 9
58 16 14
44 11 10
90 17 17
61 18 16
50 12 11
56 13 13
67 18 18
48 13 13
53 11 11
33 8 8
0 0 0
0 0 0
0 0 0
0 0 0
0 0 0
0 0 0
0 0 0
0 0 0
0 0 0
0 0 0
0 0 0
0 0 0
0 0 0
0 0 0
0 0 0
0 0 0
0 0 0
0 0 0
0 0 0
0 0 0
0 0 0
0 0 0
0 0 0
0 0 0
0 0 0
0 0 0
0 0 0
4 2 1
15 29 16
28 44 25
21 34 19
17 27 15
17 31 17
20 35 19
17 30 16
25 43 25
32 57 32
13 26 15
27 51 29
21 30 17
18 32 18
23 44 25
18 33 18
30 54 29
22 40 21
26 48 27
26 45 26
23 42 24
27 45 25
23 39 22
14 25 13
25 48 26
29 41 23
17 27 15
31 42 24
25 54 26
25 42 24
30 57 32
22 43 23
17 33 18
34 37 20
24 43 24
37 52 30
25 48 27
32 57 32
26 48 27
24 57 27
26 50 28
21 37 21
19 36 20
26 48 26
23 39 22
29 55 30
29 50 28
23 41 23
22 42 22
22 41 23
21 32 18
34 63 35
26 46 23
24 47 26
27 48 27
25 44 24
20 39 20
29 43 23
21 39 22
23 37 20
13 26 13
26 44 23
20 34 16
15 27 14
15 24 13
14 29 15
18 33 18
40 43 38
44 64 45
31 31 29
49 48 38
37 43 34
48 53 47
55 51 47
26 34 23
30 39 30
44 48 42
80 112 69
56 52 37
43 34 29
31 36 30
54 52 41
50 60 44
48 47 40
47 47 41
64 60 54
50 67 50
41 53 39
59 67 55
53 60 50
50 53 40
59 61 55
37 46 34
38 39 37
36 37 29
54 50 40
63 56 52
52 61 48
31 41 30
35 45 33
50 43 34
44 49 42
47 60 46
53 59 53
46 54 46
30 38 28
38 42 34
57 60 52
36 52 37
37 44 32
37 39 33
53 47 42
48 51 44
51 51 42
38 47 37
52 52 44
67 38 30
65 60 54
46 45 36
52 52 41
60 61 55
52 50 41
32 41 31
60 60 52
65 60 53
57 64 55
64 57 49
65 63 58
57 48 40
58 54 51
56 57 51
64 51 45
52 60 45
64 64 53
67 68 62
53 63 45
69 61 48
55 61 51
65 59 52
83 60 50
55 49 45
52 48 45
50 52 41
60 61 57
49 50 46
66 71 66
34 41 33
67 64 53
73 51 46
62 54 44
60 64 52
56 64 51
55 52 45
44 54 44
56 58 49
45 44 38
47 48 36
55 49 43
60 52 42
50 58 43
55 62 46
61 53 43
39 49 36
56 47 43
73 59 54
51 52 48
52 57 47
64 55 48
52 54 44
63 69 60
49 52 46
55 48 40
79 79 68
52 48 39
50 45 36
73 70 61
58 55 50
68 97 70
59 55 46
56 59 50
58 57 45
46 54 43
65 61 46
70 68 65
53 52 41
57 54 41
61 57 50
66 75 57
44 53 43
47 48 42
57 56 51
61 57 53
64 63 55
57 61 52
54 58 45
69 58 53
62 66 58
60 65 60
81 53 43
57 54 52
46 48 39
67 60 53
51 51 44
41 48 38
73 72 67
59 52 46
62 61 57
61 60 53
65 72 61
62 54 52
56 55 46
62 68 56
53 52 48
43 44 39
63 66 58
74 67 61
49 58 46
57 61 48
40 39 33
58 59 56
57 69 57
55 44 42
48 43 37
58 55 48
59 62 54
63 47 41
43 36 28
53 43 42
54 50 43
44 50 40
60 56 44
60 54 48
95 87 85
55 45 42
255 255 255
255 255 255
255 255 255
255 255 255
255 255 255
255 255 255
255 255 255
255 255 255
255 255 255
255 255 255
255 255 255
255 255 255
255 255 255
255 255 255
255 255 255
255 255 255
255 255 255
255 255 255
255 255 255
255 255 255
255 255 255
255 255 255
255 255 255
255 255 255
255 255 255
255 255 255
255 255 255
255 255 255
255 255 255
255 255 255
255 255 255
255 255 255
255 255 255
255 255 255
255 255 255
255 255 255
255 255 255
255 255 255
255 255 255
255 255 255
255 255 255
255 255 255
255 255 255
255 255 255
255 255 255
255 255 255
255 255 255
255 255 255
255 255 255
255 255 255
255 255 255
255 255 255
255 255 255
255 255 255
255 255 255
255 255 255
255 255 255
255 255 255
255 255 255
255 255 255
255 255 255
255 255 255
255 255 255
255 255 255
255 255 255
255 255 255
255 255 255
255 255 255
255 255 255
255 255 255
255 255 255
255 255 255
255 255 255
255 255 255
255 255 255
255 255 255
255 255 255
255 255 255
255 255 255
255 255 255
255 255 255
255 255 255
255 255 255
255 255 255
255 255 255
255 255 255
255 255 255
255 255 255
255 255 255
255 255 255
255 255 255
255 255 255
255 255 255
255 255 255
255 255 255
255 255 255
255 255 255
255 255 255
255 255 255
255 255 255
255 255 255
255 255 255
255 255 255
255 255 255
65 57 56
49 49 46
70 59 56
57 51 45
59 52 48
60 57 53
43 37 31
68 54 53
63 49 46
45 37 30
60 47 44
52 52 44
67 49 47
65 62 54
63 46 40
64 56 55
52 46 43
70 56 54
56 52 51
61 43 42
53 38 35
56 44 44
66 55 52
50 39 37
67 63 60
59 43 40
62 46 46
59 50 47
52 45 39
60 55 48
67 50 46
68 59 55
90 69 67
56 37 35
65 54 48
66 39 36
44 41 32
55 55 51
64 63 54
67 50 49
85 71 70
48 26 18
54 33 28
52 48 45
50 45 40
120 43 35
62 30 27
46 32 32
73 43 39
65 51 47
61 44 42
51 44 40
66 50 50
48 36 35
68 64 63
60 50 39
58 52 45
70 59 55
46 41 31
101 93 89
60 50 42
58 36 34
63 40 40
75 43 41
72 54 53
56 44 38
73 29 28
59 51 46
66 52 48
42 36 30
67 54 53
81 70 66
54 37 37
47 40 35
79 73 73
69 58 52
60 55 54
52 43 37
65 42 38
57 50 49
56 37 34
59 46 46
82 74 73
59 45 42
64 51 42
44 28 28
62 45 42
62 39 38
52 42 39
57 45 35
80 61 56
52 40 37
59 38 38
47 28 27
51 37 34
57 45 44
52 50 42
57 45 45
46 35 30
44 35 30
40 27 27
51 39 36
55 40 36
58 38 38
82 71 70
61 42 38
55 42 36
39 26 25
70 54 53
73 49 47
58 43 39
55 36 31
119 67 63
61 41 40
67 43 42
74 61 60
52 36 32
51 33 31
66 35 33
47 23 21
47 35 31
45 26 26
53 44 41
60 35 35
58 41 39
61 39 37
77 63 60
63 44 39
53 42 38
62 53 52
65 47 44
59 49 44
54 42 41
80 47 44
59 35 34
65 55 52
47 34 25
63 38 34
57 42 38
59 45 44
49 50 36
53 47 42
56 43 37
54 37 32
54 45 38
64 43 41
56 51 48
55 41 38
54 39 38
43 31 24
55 41 40
59 36 34
49 32 32
37 28 28
66 55 53
38 29 28
55 43 28
52 28 27
45 33 27
48 49 39
50 47 46
45 37 36
58 23 18
45 28 24
49 44 39
57 51 48
42 47 38
37 20 19
52 14 13
45 11 11
56 15 14
37 8 8
50 14 13
43 11 11
43 13 11
60 14 13
54 13 12
59 16 16
39 11 10
49 13 12
48 13 12
53 11 10
63 16 15
58 14 14
52 14 13
62 16 16
63 17 16
86 23 22
48 12 12
41 11 10
73 14 14
42 10 9
50 13 12
82 22 22
50 14 12
65 12 11
63 15 13
62 17 16
43 12 11
57 15 15
43 12 10
51 14 13
71 14 14
32 9 8
64 17 16
55 14 14
64 18 17
65 17 17
47 12 12
56 14 13
52 14 14
49 10 10
52 14 13
51 14 13
63 16 16
59 14 14
57 16 15
56 16 15
51 14 14
65 16 16
46 14 12
55 14 13
42 11 10
39 10 10
51 14 13
29 8 7
42 11 10
23 5 4
67 18 17
49 14 13
52 13 13
59 15 14
86 23 23
59 13 12
46 11 11
0 0 0
0 0 0
0 0 0
0 0 0
0 0 0
0 0 0
0 0 0
0 0 0
0 0 0
0 0 0
0 0 0
0 0 0
0 0 0
0 0 0
0 0 0
0 0 0
0 0 0
0 0 0
0 0 0
0 0 0
0 0 0
0 0 0
0 0 0
0 0 0
0 0 0
0 0 0
0 0 0
12 24 14
25 51 28
19 36 21
18 32 18
25 48 27
28 47 26
23 40 22
16 28 14
17 31 17
30 56 31
24 45 25
21 40 23
20 37 20
20 42 18
13 19 10
21 33 17
26 49 28
19 33 16
25 46 26
32 59 33
25 44 25
25 44 25
15 25 14
26 50 28
26 49 23
25 43 24
27 52 27
24 46 26
27 52 28
28 47 26
24 43 24
29 56 30
25 48 27
30 51 29
18 31 17
20 37 20
30 55 31
35 65 36
21 38 21
37 73 40
24 52 25
24 44 25
24 41 24
23 41 22
21 46 21
23 44 24
31 56 32
25 45 24
32 59 34
15 31 16
20 37 19
18 33 17
22 46 24
30 58 32
22 35 19
27 51 29
18 37 20
27 53 29
26 51 26
27 46 26
30 56 32
21 31 17
18 29 15
21 34 18
16 33 15
20 36 19
19 34 18
12 26 13
20 32 18
73 49 46
41 47 38
50 54 47
37 34 28
41 45 33
46 36 28
40 41 27
39 40 37
44 38 36
56 46 43
58 52 44
58 54 53
60 63 55
42 50 38
56 63 52
40 47 35
65 70 62
71 76 69
46 42 36
33 37 28
44 49 38
46 46 41
66 43 37
74 61 50
60 59 53
53 50 39
54 58 48
74 79 70
43 51 43
45 44 31
72 74 68
42 47 38
45 46 41
44 40 33
45 46 40
48 57 44
48 52 43
50 55 46
45 53 44
68 76 67
49 53 48
86 61 52
43 49 43
54 48 43
58 62 47
44 51 42
41 50 38
56 61 44
59 70 57
49 49 42
76 69 61
52 60 50
50 48 44
48 45 38
47 49 38
51 50 43
50 54 48
44 41 29
55 69 52
52 53 45
41 49 38
61 59 50
36 43 35
35 39 30
35 46 30
58 58 50
54 54 44
36 44 34
55 53 46
69 60 53
42 45 36
67 65 57
62 64 57
41 45 34
50 48 38
54 46 35
48 54 48
47 52 45
49 47 38
51 50 39
59 56 46
64 56 52
60 55 49
52 52 44
36 42 33
50 43 38
59 68 57
50 51 44
50 54 46
31 31 23
59 44 37
50 46 39
57 63 46
58 91 59
52 47 39
46 44 35
47 53 43
54 60 52
60 64 57
49 54 44
70 67 58
40 41 35
52 59 52
54 59 51
51 49 41
62 72 57
45 49 40
53 45 34
78 78 72
51 47 44
34 47 33
63 50 44
51 45 42
60 62 51
45 44 39
56 59 50
55 64 47
56 58 54
62 59 53
50 52 45
50 67 50
55 58 49
64 78 52
70 43 39
59 52 48
56 60 53
43 47 43
67 52 50
49 43 37
56 54 51
62 62 58
68 76 61
66 60 51
56 57 52
46 43 36
61 63 54
74 54 51
133 66 57
64 60 56
36 48 37
56 54 46
60 59 53
53 49 46
72 66 60
41 47 40
33 39 32
43 44 38
48 45 39
61 52 45
55 53 42
48 44 40
63 47 44
45 48 41
46 55 41
60 53 50
63 60 54
72 76 58
52 45 41
84 74 70
72 68 64
63 52 47
55 49 43
75 74 71
61 67 61
43 42 40
255 255 255
255 255 255
255 255 255
255 255 255
255 255 255
255 255 255
255 255 255
255 255 255
255 255 255
255 255 255
255 255 255
255 255 255
255 255 255
255 255 255
255 255 255
255 255 255
255 255 255
255 255 255
255 255 255
255 255 255
255 255 255
255 255 255
255 255 255
255 255 255
255 255 255
255 255 255
255 255 255
255 255 255
255 255 255
255 255 255
255 255 255
255 255 255
255 255 255
255 255 255
255 255 255
255 255 255
255 255 255
255 255 255
255 255 255
255 255 255
255 255 255
255 255 255
255 255 255
255 255 255
255 255 255
255 255 255
255 255 255
255 255 255
255 255 255
255 255 255
255 255 255
255 255 255
255 255 255
255 255 255
255 255 255
255 255 255
255 255 255
255 255 255
255 255 255
255 255 255
255 255 255
255 255 255
255 255 255
255 255 255
255 255 255
255 255 255
255 255 255
255 255 255
255 255 255
255 255 255
255 255 255
255 255 255
255 255 255
255 255 255
255 255 255
255 255 255
255 255 255
255 255 255
255 255 255
255 255 255
255 255 255
255 255 255
255 255 255
255 255 255
255 255 255
255 255 255
255 255 255
255 255 255
255 255 255
255 255 255
255 255 255
255 255 255
255 255 255
255 255 255
255 255 255
255 255 255
255 255 255
255 255 255
255 255 255
255 255 255
255 255 255
255 255 255
255 255 255
255 255 255
69 65 62
69 58 53
53 43 36
57 50 45
71 61 60
84 63 62
59 45 44
61 42 42
69 53 51
63 64 54
60 49 44
84 80 79
66 60 57
70 63 58
79 53 47
68 50 46
63 48 44
77 97 68
44 35 31
67 53 51
60 42 38
60 45 42
63 62 57
65 53 47
55 48 46
78 57 52
70 69 64
67 47 46
61 55 53
65 53 53
63 53 50
53 43 41
60 59 55
58 42 39
81 64 63
69 67 61
50 37 32
71 64 57
121 112 112
67 50 49
45 38 37
58 54 49
64 36 36
69 46 46
69 60 59
62 44 42
59 46 46
71 65 55
69 44 42
66 44 41
53 27 23
37 32 28
57 54 50
66 51 49
56 54 49
58 49 46
63 49 45
51 37 33
65 48 43
60 38 35
63 38 38
58 35 33
56 41 38
54 42 42
80 62 59
51 37 35
74 56 53
53 40 36
57 46 36
90 46 46
70 52 52
72 54 51
60 53 48
77 53 48
60 42 40
57 50 48
67 48 44
54 47 46
68 50 45
59 48 40
68 57 53
56 39 36
60 50 46
58 44 40
59 45 36
51 41 36
66 44 44
67 60 57
63 43 43
49 41 36
71 61 59
66 54 44
74 54 52
48 32 32
62 44 38
69 52 51
64 45 41
68 61 57
46 41 38
83 52 51
64 48 46
61 35 35
58 43 43
75 36 32
40 38 32
73 55 55
59 56 47
67 39 38
63 54 52
63 41 35
61 49 45
61 40 37
53 37 37
53 43 35
52 29 25
39 28 25
72 39 38
41 36 33
48 26 26
50 40 35
62 52 47
69 61 59
63 46 45
52 40 39
60 58 51
62 42 38
65 44 41
76 65 65
62 48 43
51 55 42
78 61 57
56 38 37
55 34 33
63 41 41
51 24 24
59 56 50
52 30 25
37 24 22
76 57 54
49 38 30
52 39 38
59 43 42
59 48 40
79 67 66
64 51 50
49 31 24
37 25 19
70 64 62
43 28 28
71 51 48
90 44 44
46 31 28
52 44 42
49 35 30
61 48 45
56 37 36
37 31 31
33 32 21
41 36 29
31 27 18
64 31 27
47 36 36
61 54 43
46 39 38
58 47 46
69 64 64
48 39 23
45 11 11
45 12 11
51 13 12
52 20 13
42 11 10
51 11 11
36 9 8
46 12 11
45 12 11
63 16 15
52 15 13
63 15 15
53 12 11
37 10 8
47 12 11
51 13 12
59 12 11
73 20 19
66 18 17
40 10 8
55 14 14
63 17 17
48 13 13
53 13 12
49 11 11
50 13 12
59 16 16
67 17 17
49 12 11
33 8 8
46 12 11
51 14 14
49 15 13
47 13 12
69 17 17
56 15 14
68 19 18
48 12 12
52 14 13
42 11 11
56 14 14
51 13 12
61 17 17
47 12 11
50 13 13
58 16 15
44 11 11
55 13 12
36 10 9
62 16 16
63 16 16
69 16 16
44 11 11
54 16 14
49 11 11
55 15 15
43 13 12
44 11 11
42 13 11
54 15 15
60 19 16
38 9 8
61 21 16
32 9 9
34 10 9
42 12 11
47 11 10
41 10 10
0 0 0
0 0 0
0 0 0
0 0 0
0 0 0
0 0 0
0 0 0
0 0 0
0 0 0
0 0 0
0 0 0
0 0 0
0 0 0
0 0 0
0 0 0
0 0 0
0 0 0
0 0 0
0 0 0
0 0 0
0 0 0
0 0 0
0 0 0
0 0 0
0 0 0
0 0 0
0 0 0
17 28 16
26 52 28
26 50 29
18 36 20
20 32 18
21 42 22
29 52 29
23 42 24
25 47 27
24 46 24
23 45 23
20 39 21
25 47 27
29 54 30
34 64 37
24 41 23
21 41 22
19 27 14
22 41 23
29 49 28
19 29 16
20 39 22
21 42 24
27 44 25
18 32 18
31 60 34
36 67 37
27 50 28
23 45 24
24 49 27
26 44 25
26 43 24
27 49 27
22 42 23
26 48 26
23 41 23
22 31 17
27 51 29
26 50 27
24 45 25
26 50 29
34 66 36
19 33 18
28 51 29
23 34 18
33 64 36
20 32 17
28 48 26
24 44 24
25 49 26
28 52 29
26 46 25
25 44 25
32 37 20
21 29 16
20 37 21
25 41 21
20 36 18
23 35 19
22 38 19
24 42 23
21 38 20
19 31 17
25 44 24
18 32 18
25 43 23
20 38 21
18 31 16
28 54 30
35 44 34
40 37 32
34 38 34
57 51 45
44 35 28
37 40 36
39 29 22
67 51 42
54 48 41
36 36 29
51 53 45
45 58 42
44 49 40
36 39 35
40 45 37
46 47 39
33 37 28
47 48 39
44 44 35
48 52 48
52 48 40
26 33 19
38 44 38
54 46 41
45 53 45
60 66 59
37 46 33
41 45 40
34 47 35
45 52 45
49 49 43
49 56 46
51 52 42
47 42 34
49 53 45
33 50 32
81 83 78
51 53 47
28 29 24
49 53 46
32 39 32
49 76 50
51 49 39
56 57 52
53 60 52
54 62 39
64 70 59
55 67 54
55 66 53
37 50 38
53 40 37
44 47 39
41 50 40
51 61 50
40 48 41
57 62 55
57 62 53
61 56 51
62 68 62
46 46 39
52 54 43
58 51 45
65 68 58
50 50 41
51 49 38
47 47 42
61 65 56
121 58 49
45 50 43
76 80 70
46 50 40
52 57 47
51 52 45
41 41 30
55 45 41
58 58 50
67 66 63
66 56 52
42 45 34
66 46 38
38 52 37
56 48 39
54 57 53
51 51 43
61 59 53
64 71 60
36 43 34
63 63 56
56 58 52
56 55 49
50 55 50
57 59 54
51 53 46
63 54 47
57 58 50
52 58 50
67 63 60
48 64 46
55 51 46
56 53 48
46 53 40
62 56 49
58 44 38
50 53 45
71 62 56
41 48 37
49 45 40
61 55 51
61 63 54
32 39 31
61 56 52
60 52 46
80 58 52
57 57 49
60 57 52
59 73 53
56 60 50
63 54 47
64 56 48
49 53 47
56 55 45
49 63 44
70 56 50
60 63 53
54 57 49
43 47 38
62 57 52
54 58 52
48 52 46
71 68 67
66 59 55
59 77 48
47 44 38
42 44 41
47 37 37
64 69 60
54 56 48
53 40 36
70 64 56
68 68 59
56 56 46
45 47 35
57 54 51
68 65 60
49 37 31
53 53 49
41 52 40
55 38 35
65 56 53
53 49 46
62 56 53
70 84 64
56 59 50
65 59 55
42 42 33
54 54 44
47 47 41
67 65 59
56 61 56
66 54 48
68 62 58
62 57 53
77 66 62
57 60 49
47 42 34
159 159 158
255 255 255
255 255 255
255 255 255
255 255 255
255 255 255
255 255 255
255 255 255
255 255 255
255 255 255
255 255 255
255 255 255
255 255 255
255 255 255
255 255 255
255 255 255
255 255 255
255 255 255
255 255 255
255 255 255
255 255 255
255 255 255
255 255 255
255 255 255
255 255 255
255 255 255
255 255 255
255 255 255
255 255 255
255 255 255
255 255 255
255 255 255
255 255 255
255 255 255
255 255 255
255 255 255
255 255 255
255 255 255
255 255 255
255 255 255
255 255 255
255 255 255
255 255 255
255 255 255
255 255 255
255 255 255
255 255 255
255 255 255
255 255 255
255 255 255
255 255 255
255 255 255
255 255 255
255 255 255
255 255 255
255 255 255
255 255 255
255 255 255
255 255 255
255 255 255
255 255 255
255 255 255
255 255 255
255 255 255
255 255 255
255 255 255
255 255 255
255 255 255
255 255 255
255 255 255
255 255 255
255 255 255
255 255 255
255 255 255
255 255 255
255 255 255
255 255 255
255 255 255
255 255 255
255 255 255
255 255 255
255 255 255
255 255 255
255 255 255
255 255 255
255 255 255
255 255 255
255 255 255
255 255 255
255 255 255
255 255 255
255 255 255
255 255 255
255 255 255
255 255 255
255 255 255
255 255 255
255 255 255
255 255 255
255 255 255
255 255 255
255 255 255
255 255 255
157 156 155
87 74 69
47 48 41
58 52 48
61 51 46
54 41 38
62 55 55
65 61 55
54 53 44
67 43 41
68 52 51
63 55 52
58 48 46
113 100 99
75 53 50
59 53 50
59 56 50
49 38 38
60 52 49
55 57 50
68 58 49
73 74 61
56 41 38
58 51 46
57 56 45
61 54 51
54 42 38
48 43 40
44 39 34
57 45 43
53 44 42
75 70 64
53 43 35
64 53 49
89 49 43
58 51 43
60 58 45
66 57 49
56 51 48
69 55 50
73 60 58
61 43 42
59 37 34
74 50 48
58 36 35
62 57 48
53 49 43
48 39 36
43 51 40
70 58 57
56 50 48
71 70 59
55 40 32
49 41 40
64 56 53
62 48 44
107 70 67
54 44 42
68 44 41
51 42 40
55 49 46
60 50 49
75 51 44
62 49 46
63 36 36
84 52 48
54 39 38
60 51 46
83 73 68
67 56 54
60 46 46
58 44 41
34 39 28
67 55 53
74 55 53
64 51 49
64 44 42
55 40 39
63 39 38
57 46 43
47 35 31
71 71 67
64 51 50
64 56 53
63 30 24
61 41 41
73 72 64
54 35 28
47 45 39
52 42 39
70 51 51
53 37 37
80 73 66
56 67 46
65 47 43
60 48 42
55 43 42
46 45 38
67 58 54
61 54 47
65 45 39
63 75 51
69 38 36
61 47 40
73 47 43
95 84 84
93 79 77
50 35 32
60 39 34
56 39 35
48 32 30
65 45 45
53 37 34
52 31 30
64 56 55
51 38 32
77 63 61
59 26 23
62 33 32
59 44 39
64 37 32
49 39 39
55 33 33
55 38 37
71 65 64
50 33 30
62 49 43
59 42 42
59 40 39
46 34 30
63 45 39
46 33 32
51 41 37
54 39 39
71 48 44
52 30 28
65 53 50
47 31 25
42 34 30
66 60 54
53 42 42
48 33 30
56 37 37
47 27 24
41 29 25
44 35 24
51 38 34
49 30 30
39 23 22
89 81 81
63 24 23
65 60 57
63 56 49
63 50 50
55 39 36
47 34 34
70 57 56
56 55 47
52 33 30
38 26 20
42 26 26
50 44 41
48 20 18
62 54 52
50 46 46
48 38 33
42 23 20
54 14 14
38 8 6
40 11 10
52 13 13
43 11 9
52 13 12
47 12 11
54 16 14
60 16 15
37 11 10
79 18 18
52 13 11
45 9 9
50 14 12
44 10 9
59 12 11
74 18 18
61 16 15
52 13 12
37 10 9
95 26 25
52 14 13
47 13 12
54 14 13
58 13 12
50 14 13
50 13 13
71 20 19
51 16 13
47 13 11
54 12 11
40 12 10
58 15 15
62 16 16
46 11 10
59 16 15
65 18 17
52 13 13
78 21 20
54 20 15
57 15 14
225 61 61
67 18 17
46 11 11
65 17 17
44 10 10
56 15 14
59 15 15
58 16 16
48 13 13
59 17 16
56 15 15
63 16 15
51 13 13
43 11 10
59 18 16
46 12 12
28 9 7
52 14 14
48 13 13
52 15 14
34 9 9
58 14 14
56 14 14
53 15 14
51 12 11
55 13 13
56 15 15
43 11 11
0 0 0
0 0 0
0 0 0
0 0 0
0 0 0
0 0 0
0 0 0
0 0 0
0 0 0
0 0 0
0 0 0
0 0 0
0 0 0
0 0 0
0 0 0
0 0 0
0 0 0
0 0 0
0 0 0
0 0 0
0 0 0
0 0 0
0 0 0
0 0 0
0 0 0
0 0 0
0 0 0
1 0 0
16 34 18
18 35 17
16 26 14
22 39 22
28 45 25
21 41 23
21 38 21
21 44 22
25 42 24
23 44 24
21 36 21
30 55 31
27 49 28
28 54 29
27 49 28
18 33 19
25 46 26
28 50 28
14 23 12
20 35 20
24 50 27
25 48 26
23 46 24
20 41 20
21 41 23
24 48 26
22 43 24
25 44 25
24 47 26
27 56 31
21 38 21
45 86 49
37 54 29
23 45 25
35 69 38
29 51 28
22 39 22
17 32 16
24 32 17
22 38 22
27 50 26
29 49 28
24 52 27
23 46 25
24 40 22
24 44 24
27 48 27
22 32 17
28 49 28
35 67 38
23 43 23
26 45 25
25 46 25
23 42 22
30 48 27
31 57 30
26 49 25
23 46 25
19 25 13
26 39 21
28 44 25
20 36 19
19 38 21
16 36 17
22 41 23
19 34 18
29 34 17
22 39 21
17 28 16
34 50 33
30 29 25
42 44 41
38 42 37
35 37 32
32 33 28
39 38 28
39 49 39
54 52 43
41 45 39
41 40 35
50 50 45
53 49 43
48 55 43
32 37 28
46 43 35
45 49 40
46 51 44
50 43 34
34 37 22
55 46 41
54 55 42
61 55 47
73 74 69
87 54 47
55 59 49
50 46 42
41 46 40
50 48 42
42 45 36
55 60 53
44 49 40
31 37 27
37 48 34
59 64 57
58 59 55
60 56 49
48 54 42
55 53 39
54 53 47
59 68 57
44 52 43
67 90 67
48 73 47
48 49 41
45 52 45
57 54 42
40 51 38
43 55 38
63 77 63
55 60 51
59 53 44
58 61 51
51 58 49
27 47 29
63 52 41
42 51 36
41 41 37
74 56 54
48 50 43
47 59 43
54 54 49
49 45 37
47 51 44
55 62 54
53 57 53
61 69 54
56 58 50
51 43 34
61 77 60
77 56 51
53 50 36
50 52 42
55 55 48
64 60 53
64 56 51
56 63 54
36 46 36
47 55 46
47 54 47
58 53 44
47 51 45
64 66 56
67 63 56
56 66 57
48 53 44
52 103 51
47 61 45
49 52 42
36 39 29
51 53 48
62 70 62
53 53 46
64 63 59
62 62 54
65 67 61
50 51 43
61 66 58
55 46 40
59 61 48
42 48 40
53 48 42
56 62 52
51 56 49
46 44 35
46 50 38
56 62 55
38 42 29
66 48 44
50 51 43
73 50 40
60 60 56
58 56 49
66 52 46
86 45 43
49 41 38
53 55 47
48 48 38
47 44 40
45 54 40
36 42 32
55 64 55
64 56 47
53 57 50
47 48 45
64 62 56
43 39 34
63 51 47
48 56 46
43 46 41
67 60 58
45 49 39
48 47 39
67 59 54
59 46 42
64 64 61
59 64 45
54 50 44
64 73 62
42 49 40
68 60 52
52 52 44
61 61 57
51 47 37
61 61 52
52 51 44
46 53 45
58 59 52
59 76 55
57 63 54
66 62 58
64 66 59
50 40 39
46 42 40
53 43 38
50 51 46
70 63 58
49 50 46
64 63 56
78 71 68
63 71 58
71 60 57
68 53 51
53 51 45
53 55 49
255 255 255
255 255 255
255 255 255
255 255 255
255 255 255
255 255 255
255 255 255
255 255 255
255 255 255
255 255 255
255 255 255
255 255 255
255 255 255
255 255 255
255 255 255
255 255 255
255 255 255
255 255 255
255 255 255
255 255 255
255 255 255
255 255 255
255 255 255
255 255 255
255 255 255
255 255 255
255 255 255
255 255 255
255 255 255
255 255 255
255 255 255
255 255 255
255 255 255
255 255 255
255 255 255
255 255 255
255 255 255
255 255 255
255 255 255
255 255 255
255 255 255
255 255 255
255 255 255
255 255 255
255 255 255
255 255 255
255 255 255
255 255 255
255 255 255
255 255 255
255 255 255
255 255 255
255 255 255
255 255 255
255 255 255
255 255 255
255 255 255
255 255 255
255 255 255
255 255 255
255 255 255
255 255 255
255 255 255
255 255 255
255 255 255
255 255 255
255 255 255
255 255 255
255 255 255
255 255 255
255 255 255
255 255 255
255 255 255
255 255 255
255 255 255
255 255 255
255 255 255
255 255 255
255 255 255
255 255 255
255 255 255
255 255 255
255 255 255
255 255 255
255 255 255
255 255 255
255 255 255
255 255 255
255 255 255
255 255 255
255 255 255
255 255 255
255 255 255
255 255 255
255 255 255
255 255 255
255 255 255
255 255 255
255 255 255
255 255 255
255 255 255
255 255 255
61 55 55
47 39 36
48 49 45
54 44 39
50 36 34
43 33 29
62 51 47
49 50 37
76 66 62
55 47 46
58 33 32
55 49 44
49 45 40
67 56 50
52 48 42
72 66 65
71 56 50
48 44 42
46 47 42
64 54 50
71 71 67
51 47 39
59 36 34
62 53 46
51 52 43
65 59 57
64 53 47
50 41 38
58 49 44
57 44 39
61 45 43
66 43 40
54 53 44
72 62 59
78 51 48
50 41 34
51 41 35
69 52 40
69 68 60
53 36 33
56 50 46
63 51 48
51 42 42
72 53 51
95 43 41
69 56 52
63 66 56
59 53 50
72 61 57
51 36 36
43 38 31
58 47 45
58 44 41
58 38 36
48 35 30
42 38 32
57 37 35
61 54 51
57 34 30
36 33 24
64 34 33
64 55 50
65 48 45
62 49 48
42 40 35
69 67 59
71 49 43
61 38 32
48 44 38
68 49 47
45 35 29
45 38 33
50 33 30
64 49 46
78 34 31
56 55 47
90 50 50
59 46 45
56 29 29
74 71 59
57 49 46
72 65 62
75 53 51
60 49 48
54 50 44
60 49 46
62 50 49
67 62 57
103 90 88
56 39 39
42 32 27
61 43 41
53 56 44
90 54 49
49 31 28
46 40 39
50 39 34
62 50 46
69 58 56
59 42 41
50 39 36
62 50 45
57 38 33
63 43 43
38 22 20
89 56 55
59 47 46
52 43 40
49 39 32
39 25 23
63 45 43
60 33 24
56 46 42
49 18 18
48 34 33
127 114 114
57 30 29
51 43 39
74 58 53
56 40 34
77 44 44
59 48 46
48 29 28
50 34 27
45 29 29
61 38 33
45 42 39
61 36 36
60 37 37
66 40 40
51 36 35
53 50 40
58 40 36
64 58 47
65 39 37
74 66 64
64 50 47
47 23 23
54 33 29
74 43 37
68 38 36
49 17 14
48 30 30
51 37 30
64 51 49
51 40 31
47 45 39
54 44 36
78 58 49
40 17 13
57 50 45
73 64 61
41 35 28
53 43 40
45 37 37
52 36 34
48 39 36
55 31 31
57 42 39
58 48 46
51 36 36
50 42 42
51 39 36
62 55 50
43 50 38
45 24 21
46 13 12
45 9 8
38 9 8
33 8 7
53 14 13
45 11 10
67 18 18
57 15 15
70 19 18
49 13 13
44 12 11
67 16 16
59 14 13
67 17 17
62 13 12
41 11 10
46 12 12
64 18 17
55 14 14
39 9 9
56 15 15
53 14 13
46 14 12
76 18 16
41 13 11
53 14 13
60 16 16
53 13 11
58 15 14
65 16 16
66 20 18
59 13 12
51 13 12
68 14 13
50 14 13
42 9 9
38 11 10
43 10 9
53 14 14
46 12 12
54 15 14
47 13 13
56 15 14
44 12 11
58 16 15
49 16 12
59 17 15
71 18 18
43 11 11
66 18 17
36 8 7
52 11 10
59 17 16
45 12 11
26 7 6
57 15 14
53 15 13
69 19 18
50 14 12
39 10 10
52 14 14
71 19 18
69 19 19
53 13 13
39 11 10
40 9 9
45 12 12
37 10 10
60 16 14
5 2 1
0 0 0
0 0 0
0 0 0
0 0 0
0 0 0
0 0 0
0 0 0
0 0 0
0 0 0
0 0 0
0 0 0
0 0 0
0 0 0
0 0 0
0 0 0
0 0 0
0 0 0
0 0 0
0 0 0
0 0 0
0 0 0
0 0 0
0 0 0
0 0 0
0 0 0
0 0 0
0 0 0
14 25 14
18 35 19
21 36 20
30 53 30
17 27 15
28 52 30
25 48 27
25 49 27
34 53 30
12 22 10
18 38 21
25 50 25
22 41 23
21 36 20
24 43 25
27 48 26
26 44 25
25 45 25
21 39 22
28 51 29
21 37 20
25 47 27
32 63 35
22 39 23
26 48 27
25 46 25
21 39 21
24 46 26
25 45 23
27 50 29
27 49 28
23 45 25
23 42 23
20 39 21
39 74 42
26 42 24
29 54 30
25 43 24
30 45 25
28 44 24
26 48 24
30 55 30
21 35 19
21 42 22
28 48 27
24 44 24
25 48 26
21 43 23
21 29 15
23 37 18
19 37 20
21 40 22
27 48 27
20 37 20
31 46 26
33 62 35
21 36 19
24 41 22
23 44 25
22 43 24
26 48 25
23 41 21
30 56 31
26 47 25
18 35 19
24 47 25
26 50 28
19 34 17
42 81 46
20 45 21
25 48 24
51 50 40
52 52 49
32 39 32
65 40 35
51 49 44
53 47 44
41 43 40
60 53 44
53 52 42
48 42 36
51 59 48
36 37 32
29 35 23
38 39 33
34 45 34
48 44 38
53 46 37
47 53 43
43 50 43
37 42 35
52 58 45
32 34 28
49 54 42
62 51 45
71 54 48
48 49 43
54 45 40
44 47 36
55 46 39
50 43 32
40 43 37
58 64 57
45 52 45
40 45 37
58 51 48
76 53 47
46 55 46
38 50 31
45 46 38
50 52 45
47 46 43
44 56 39
47 58 48
63 53 47
51 50 45
49 44 40
51 53 46
64 53 45
47 43 34
57 64 56
37 46 34
66 67 60
55 52 43
48 52 42
40 39 33
47 52 42
59 60 56
57 61 54
80 64 54
45 44 35
54 62 52
64 66 57
62 66 55
64 90 66
61 63 58
52 50 41
50 57 46
51 52 44
42 45 37
50 60 46
61 62 51
41 35 28
38 52 38
48 53 48
42 45 37
39 50 37
58 62 50
45 50 43
96 63 59
61 61 52
51 49 44
54 67 51
55 45 42
52 52 43
42 52 42
74 66 58
88 63 53
50 51 44
55 51 40
54 53 49
74 65 60
36 43 33
43 41 35
55 53 44
57 48 41
63 62 56
55 50 43
49 55 45
65 60 52
53 52 47
49 44 38
61 61 53
63 59 56
45 48 43
79 59 58
58 57 53
64 47 42
57 57 50
47 42 38
51 52 47
49 55 42
57 52 47
38 44 33
51 51 41
67 61 55
54 59 51
52 47 40
44 50 41
52 49 44
63 66 59
59 57 52
73 74 65
68 73 68
48 45 43
45 52 41
58 61 55
71 64 58
58 54 50
62 59 55
51 51 45
65 64 56
53 52 42
55 64 53
42 51 41
57 50 46
68 66 61
80 55 48
62 64 52
59 53 47
57 58 55
82 61 50
63 59 53
70 57 53
68 64 60
55 42 39
57 60 51
47 43 38
77 59 54
54 48 41
49 46 40
49 55 45
52 55 46
102 76 59
58 55 51
47 49 43
58 53 51
54 63 49
76 74 68
66 68 64
83 75 70
60 53 49
48 50 43
89 81 75
45 49 43
255 255 255
255 255 255
255 255 255
255 255 255
255 255 255
255 255 255
255 255 255
255 255 255
255 255 255
255 255 255
255 255 255
255 255 255
255 255 255
255 255 255
255 255 255
255 255 255
255 255 255
255 255 255
255 255 255
255 255 255
255 255 255
255 255 255
255 255 255
255 255 255
255 255 255
255 255 255
255 255 255
255 255 255
255 255 255
255 255 255
255 255 255
255 255 255
255 255 255
255 255 255
255 255 255
255 255 255
255 255 255
255 255 255
255 255 255
255 255 255
255 255 255
255 255 255
255 255 255
255 255 255
255 255 255
255 255 255
255 255 255
255 255 255
255 255 255
255 255 255
255 255 255
255 255 255
255 255 255
255 255 255
255 255 255
255 255 255
255 255 255
255 255 255
255 255 255
255 255 255
255 255 255
255 255 255
255 255 255
255 255 255
255 255 255
255 255 255
255 255 255
255 255 255
255 255 255
255 255 255
255 255 255
255 255 255
255 255 255
255 255 255
255 255 255
255 255 255
255 255 255
255 255 255
255 255 255
255 255 255
255 255 255
255 255 255
255 255 255
255 255 255
255 255 255
255 255 255
255 255 255
255 255 255
255 255 255
255 255 255
255 255 255
255 255 255
255 255 255
255 255 255
255 255 255
255 255 255
255 255 255
255 255 255
255 255 255
255 255 255
255 255 255
255 255 255
49 40 38
56 41 39
76 60 59
45 40 30
55 44 42
46 42 39
67 61 57
50 56 47
68 55 52
52 40 35
54 67 52
67 61 60
63 56 54
67 58 51
55 39 33
67 59 59
53 58 51
72 64 63
51 38 37
85 83 81
66 60 55
73 49 47
78 61 54
59 50 49
66 52 51
51 49 41
46 34 27
63 52 48
63 47 39
54 51 39
64 48 45
64 52 46
55 47 38
72 58 52
63 48 46
56 50 43
60 49 45
73 43 42
49 32 26
80 74 72
64 42 41
52 40 40
55 39 39
45 29 28
70 61 57
90 70 67
50 39 37
77 57 54
72 55 49
96 38 37
82 56 53
60 48 41
68 47 45
51 41 40
44 33 29
73 62 60
74 54 49
73 56 52
76 48 44
54 29 24
46 44 41
48 37 34
77 66 63
45 40 35
61 56 48
56 47 43
50 50 43
67 45 42
74 55 52
64 51 49
57 54 46
64 54 51
48 35 35
49 38 30
69 48 44
58 46 42
78 58 57
52 43 41
58 43 37
58 49 49
70 58 55
53 40 39
71 45 39
96 55 52
52 29 27
49 43 40
59 49 46
59 51 46
94 60 58
66 54 52
52 39 39
58 40 40
58 48 40
52 51 48
75 40 40
53 43 40
71 45 45
59 46 44
52 45 39
51 32 30
52 37 34
55 28 28
57 35 35
52 48 40
75 43 41
56 40 32
49 42 39
69 37 36
64 50 46
52 29 29
56 45 38
58 38 35
44 18 17
63 53 46
54 47 34
52 34 32
62 54 51
64 39 38
55 32 32
59 44 38
49 21 21
68 55 52
64 35 35
72 33 28
52 42 40
66 52 41
47 46 39
42 33 31
134 127 127
47 40 37
58 26 26
48 26 25
49 41 33
51 44 44
60 62 49
85 76 72
46 31 29
66 44 41
43 35 31
47 28 28
62 35 31
53 53 35
53 40 36
52 41 38
43 24 23
63 53 50
60 53 51
60 46 44
62 44 41
81 75 72
51 41 39
92 57 56
57 43 38
59 29 25
62 41 35
51 37 34
60 54 41
60 28 28
57 46 40
66 38 34
60 56 55
59 49 48
53 49 48
49 45 42
35 15 10
50 12 8
52 11 9
48 11 9
65 14 13
50 13 12
184 45 45
57 15 14
58 15 14
64 14 12
55 15 14
47 12 11
79 18 18
44 11 11
68 17 16
64 16 16
57 16 14
54 14 13
43 12 11
43 11 10
162 44 44
56 15 14
63 15 15
65 17 17
80 21 21
64 17 17
70 17 16
73 19 19
52 13 12
43 10 9
59 16 16
68 18 17
51 14 14
57 14 13
66 17 16
54 15 15
54 12 11
78 22 20
52 14 14
59 17 16
75 16 15
29 6 6
63 16 16
59 16 15
70 18 18
51 14 13
69 16 16
48 12 11
53 14 14
48 14 13
53 14 14
41 10 10
39 8 8
54 15 14
62 15 15
32 8 8
48 12 11
54 15 15
60 16 16
43 12 11
58 16 16
65 17 17
52 14 14
66 18 17
57 14 14
48 13 13
41 11 11
37 12 10
42 13 11
60 17 16
40 11 10
31 9 8
0 0 0
0 0 0
0 0 0
0 0 0
0 0 0
0 0 0
0 0 0
0 0 0
0 0 0
0 0 0
0 0 0
0 0 0
0 0 0
0 0 0
0 0 0
0 0 0
0 0 0
0 0 0
0 0 0
0 0 0
0 0 0
0 0 0
0 0 0
0 0 0
0 0 0
0 0 0
0 0 0
21 39 22
26 48 27
12 22 13
13 22 13
32 59 33
27 45 25
27 50 29
19 38 21
27 47 27
24 40 23
26 54 28
19 36 20
26 47 26
25 49 27
19 31 17
22 42 23
20 36 20
22 40 21
26 48 27
24 42 23
21 39 22
20 37 21
24 39 22
26 52 28
23 45 25
23 43 24
19 39 20
26 48 27
29 54 30
24 57 24
22 36 20
21 41 19
24 42 24
30 52 30
30 57 32
24 45 25
26 58 28
23 45 24
27 52 29
31 56 31
24 40 22
30 56 32
22 40 22
35 66 37
23 32 17
23 43 23
19 34 17
21 41 22
25 47 25
23 34 18
25 47 25
29 54 30
20 36 20
22 41 22
24 45 25
31 56 32
21 40 21
20 40 21
28 38 21
28 52 28
22 40 21
25 51 28
18 33 16
33 62 35
21 37 20
27 46 25
22 40 22
25 49 27
22 34 18
24 43 24
16 29 15
19 38 20
30 45 31
59 60 58
56 55 52
33 37 33
43 43 37
39 42 36
59 53 50
43 50 42
64 71 65
51 51 39
54 54 51
41 35 22
38 37 28
64 63 56
53 54 45
45 48 42
45 48 41
53 59 50
50 55 49
41 46 31
47 43 35
57 48 39
37 45 37
57 56 47
54 47 34
54 59 47
38 45 32
39 44 35
50 61 46
69 77 67
41 55 42
36 36 30
171 54 48
65 62 54
44 47 37
54 52 43
29 34 28
49 45 40
51 59 44
55 60 55
56 50 44
41 27 18
54 52 44
61 54 46
49 50 37
30 33 24
20 31 21
60 63 48
71 56 47
48 45 38
46 49 39
54 56 49
56 61 46
72 70 56
36 47 33
51 49 39
38 44 36
56 62 53
54 52 47
58 62 53
55 59 51
53 58 48
57 49 45
42 49 36
38 46 37
42 54 41
54 62 53
44 46 37
47 48 38
54 52 43
41 56 42
41 46 40
37 43 35
54 53 45
53 52 46
57 55 50
44 51 44
62 64 53
63 60 56
53 54 45
50 61 44
58 55 45
49 44 41
66 38 29
45 52 45
51 53 45
34 41 33
51 46 41
60 58 49
47 54 43
57 56 48
67 57 49
50 46 40
51 54 47
61 61 56
35 44 35
45 47 43
42 42 39
62 56 52
44 62 46
60 60 54
50 54 42
41 43 34
62 60 48
72 55 48
51 51 43
47 47 38
63 62 48
70 64 55
40 40 34
68 55 48
76 76 75
73 58 53
50 57 47
85 46 44
65 59 54
74 62 57
63 60 57
51 55 50
95 60 56
37 36 32
44 60 45
51 52 46
42 46 38
60 57 48
62 53 50
47 45 36
75 69 65
61 55 47
70 53 48
47 52 43
65 63 56
46 49 44
55 60 53
79 80 68
41 42 35
51 55 44
83 64 60
67 72 63
52 49 44
57 47 39
65 66 62
50 48 45
54 53 49
57 60 51
45 45 39
65 67 59
54 45 41
61 58 53
61 61 53
56 56 51
61 60 55
64 69 62
63 64 56
61 51 47
48 43 38
46 44 37
62 60 50
75 68 63
52 44 42
49 48 41
71 62 59
60 59 56
255 255 255
255 255 255
255 255 255
255 255 255
255 255 255
255 255 255
255 255 255
255 255 255
255 255 255
255 255 255
255 255 255
255 255 255
255 255 255
255 255 255
255 255 255
255 255 255
255 255 255
255 255 255
255 255 255
255 255 255
255 255 255
255 255 255
255 255 255
255 255 255
255 255 255
255 255 255
255 255 255
255 255 255
255 255 255
255 255 255
255 255 255
255 255 255
255 255 255
255 255 255
255 255 255
255 255 255
255 255 255
255 255 255
255 255 255
255 255 255
255 255 255
255 255 255
255 255 255
255 255 255
255 255 255
255 255 255
255 255 255
255 255 255
255 255 255
255 255 255
255 255 255
255 255 255
255 255 255
255 255 255
255 255 255
255 255 255
255 255 255
255 255 255
255 255 255
255 255 255
255 255 255
255 255 255
255 255 255
255 255 255
255 255 255
255 255 255
255 255 255
255 255 255
255 255 255
255 255 255
255 255 255
255 255 255
255 255 255
255 255 255
255 255 255
255 255 255
255 255 255
255 255 255
255 255 255
255 255 255
255 255 255
255 255 255
255 255 255
255 255 255
255 255 255
255 255 255
255 255 255
255 255 255
255 255 255
255 255 255
255 255 255
255 255 255
255 255 255
255 255 255
255 255 255
255 255 255
255 255 255
255 255 255
255 255 255
255 255 255
255 255 255
255 255 255
63 57 53
68 48 46
51 43 43
56 50 41
69 60 57
64 50 45
67 53 52
76 41 38
62 50 48
53 40 36
58 43 41
61 55 48
70 60 58
70 45 44
64 47 44
70 56 55
61 47 40
62 53 50
74 56 54
72 64 62
77 54 51
46 42 37
56 54 51
55 48 42
60 49 44
73 61 56
59 46 45
38 29 29
50 43 38
56 40 33
51 39 38
64 58 53
68 59 58
70 45 41
68 65 62
53 32 32
50 41 36
38 35 30
81 65 63
59 47 47
64 56 55
72 55 52
66 51 49
49 45 43
61 39 36
55 52 43
52 41 40
64 53 53
47 35 27
67 41 32
89 135 87
60 53 49
68 54 48
61 31 30
82 62 60
47 44 37
26 19 18
101 96 96
72 58 50
65 100 64
135 56 53
67 43 40
64 50 48
65 36 35
74 55 53
65 48 44
62 57 57
46 36 36
105 103 101
53 35 35
63 52 46
61 56 52
56 48 43
72 66 62
62 46 43
50 37 37
67 60 50
66 51 48
37 26 23
55 45 42
54 44 40
46 38 38
63 46 42
72 40 38
65 52 47
59 38 35
69 50 47
62 41 39
78 71 68
75 54 53
66 55 50
64 45 44
51 34 32
57 47 44
72 46 43
57 38 33
47 27 27
55 40 40
70 50 50
58 49 43
77 47 47
60 50 45
63 51 44
64 43 39
58 47 45
56 42 39
58 37 31
54 52 46
63 55 55
63 22 22
72 61 59
59 40 36
55 50 39
59 49 44
61 35 31
58 34 31
55 42 39
60 57 50
46 42 36
66 58 52
36 22 21
49 36 33
51 34 34
59 55 50
53 39 38
66 51 43
44 29 29
60 40 39
53 41 35
67 47 45
50 42 40
45 28 23
65 34 34
52 31 27
67 43 39
59 38 36
52 31 30
54 34 31
60 41 36
48 41 39
53 38 32
53 41 39
47 27 18
51 43 35
74 33 29
44 35 34
49 41 38
42 25 24
58 27 27
50 38 34
50 43 37
131 51 45
37 42 29
52 37 35
68 46 46
58 36 33
45 30 30
70 58 58
64 55 52
76 68 66
59 52 50
38 29 28
45 39 39
61 18 18
59 13 13
34 9 8
68 14 14
45 10 10
40 10 9
44 12 11
64 16 15
35 8 8
41 11 10
62 19 16
60 15 15
57 14 14
54 14 14
46 12 11
53 14 13
78 20 19
66 16 16
56 14 14
61 15 15
48 11 11
62 16 16
60 16 15
60 15 15
57 12 12
52 12 11
73 20 19
31 8 8
66 17 16
70 17 17
34 9 8
51 13 13
64 17 15
51 12 12
64 18 17
68 18 17
49 15 13
56 14 14
55 14 13
46 12 12
71 18 17
54 15 14
48 12 12
47 13 12
51 11 10
47 14 12
51 13 13
44 12 11
36 9 9
109 27 26
72 20 19
55 15 14
91 22 21
52 13 13
45 12 12
48 14 12
48 13 13
53 13 13
50 13 13
50 13 13
47 12 12
49 14 13
61 20 16
55 15 14
36 11 10
48 13 13
53 15 14
66 15 15
43 11 10
62 18 17
27 8 7
55 15 14
0 0 0
0 0 0
0 0 0
0 0 0
0 0 0
0 0 0
0 0 0
0 0 0
0 0 0
0 0 0
0 0 0
0 0 0
0 0 0
0 0 0
0 0 0
0 0 0
0 0 0
0 0 0
0 0 0
0 0 0
0 0 0
0 0 0
0 0 0
0 0 0
0 0 0
0 0 0
0 0 0
0 0 0
22 42 24
19 35 20
29 37 21
14 27 15
25 45 25
14 23 12
19 34 19
18 33 18
26 46 26
22 38 21
20 43 21
28 54 29
21 38 21
30 57 32
30 52 29
32 56 32
20 35 20
26 51 28
29 52 30
26 46 26
21 39 19
33 62 35
21 35 20
26 48 28
24 49 27
25 46 24
19 37 21
19 34 19
23 42 23
21 36 20
24 55 25
32 60 34
21 44 23
15 23 12
26 45 26
28 51 28
32 63 35
29 53 30
34 65 37
19 36 20
28 52 29
13 19 9
28 49 28
30 59 33
19 35 19
21 41 22
29 51 29
22 41 22
29 45 25
33 62 35
24 45 26
25 48 25
34 53 29
26 50 27
32 62 35
18 33 19
24 47 26
30 57 32
36 66 37
22 42 24
23 38 20
24 46 24
20 35 19
44 84 47
25 44 24
22 42 23
25 39 20
20 28 14
19 36 19
20 36 20
24 47 25
24 43 24
13 20 9
22 27 21
47 54 41
56 55 52
59 67 47
39 38 37
65 66 61
26 37 27
41 37 30
36 42 35
32 34 28
59 58 48
39 45 37
40 43 35
40 45 35
38 43 38
36 45 36
46 43 34
69 74 58
44 48 40
35 46 34
44 47 39
46 50 42
41 43 38
46 53 41
53 55 46
48 58 41
44 47 39
52 41 32
44 46 39
55 61 53
50 56 43
34 42 34
43 54 42
26 30 22
54 52 43
52 57 51
26 41 27
48 56 45
40 39 33
54 59 53
63 62 54
54 40 34
62 62 54
50 44 33
55 42 31
72 50 42
36 33 26
49 59 48
47 57 47
50 60 39
51 54 45
53 50 46
51 66 50
48 49 41
53 58 44
57 54 47
46 42 41
50 50 43
47 50 37
43 49 36
58 58 51
42 43 37
47 53 43
37 44 36
49 50 43
50 46 43
56 52 51
61 61 52
56 45 40
52 50 43
61 54 49
68 61 54
52 49 40
59 53 50
41 50 41
42 51 42
53 52 49
81 63 54
71 56 49
64 59 52
45 52 39
52 46 37
45 55 41
54 57 51
64 70 61
63 61 49
47 60 46
60 61 54
68 67 60
82 76 70
49 55 50
59 59 52
63 61 50
51 54 46
42 49 36
42 38 36
51 53 50
46 54 44
52 47 40
60 65 59
58 54 50
57 65 51
64 62 56
47 50 41
56 49 48
66 59 50
55 61 47
54 59 53
57 62 51
62 58 55
47 55 42
69 55 49
69 66 57
56 56 50
44 50 42
58 53 47
59 56 48
71 50 46
69 63 56
65 59 57
40 42 35
48 49 47
80 68 65
50 44 36
43 39 36
65 50 46
45 50 44
51 51 45
51 56 47
59 61 55
60 55 51
55 70 48
44 50 42
57 51 48
49 43 40
79 75 69
59 55 52
57 59 49
67 63 59
56 48 42
58 57 46
57 58 50
61 60 54
38 39 38
83 60 55
58 61 51
54 48 44
42 41 35
65 64 56
56 64 56
66 58 53
55 50 46
68 58 53
71 71 66
56 52 46
68 47 42
45 54 44
54 55 51
44 50 42
51 64 49
45 54 44
65 54 53
246 247 246
255 255 255
255 255 255
255 255 255
255 255 255
255 255 255
255 255 255
255 255 255
255 255 255
255 255 255
255 255 255
255 255 255
255 255 255
255 255 255
255 255 255
255 255 255
255 255 255
255 255 255
255 255 255
255 255 255
255 255 255
255 255 255
255 255 255
255 255 255
255 255 255
255 255 255
255 255 255
255 255 255
255 255 255
255 255 255
255 255 255
255 255 255
255 255 255
255 255 255
255 255 255
255 255 255
255 255 255
255 255 255
255 255 255
255 255 255
255 255 255
255 255 255
255 255 255
255 255 255
255 255 255
255 255 255
255 255 255
255 255 255
255 255 255
255 255 255
255 255 255
255 255 255
255 255 255
255 255 255
255 255 255
255 255 255
255 255 255
255 255 255
255 255 255
255 255 255
255 255 255
255 255 255
255 255 255
255 255 255
255 255 255
255 255 255
255 255 255
255 255 255
255 255 255
255 255 255
255 255 255
255 255 255
255 255 255
255 255 255
255 255 255
255 255 255
255 255 255
255 255 255
255 255 255
255 255 255
255 255 255
255 255 255
255 255 255
255 255 255
255 255 255
255 255 255
255 255 255
255 255 255
255 255 255
255 255 255
255 255 255
255 255 255
255 255 255
255 255 255
255 255 255
255 255 255
255 255 255
255 255 255
255 255 255
255 255 255
255 255 255
246 242 242
51 50 45
39 33 32
62 55 49
68 54 52
73 69 68
60 55 50
61 54 48
73 52 50
40 36 31
78 73 67
57 45 43
58 50 45
52 39 37
82 57 50
67 47 47
60 62 57
75 69 66
64 61 59
57 35 34
60 50 44
48 49 41
59 53 48
45 36 30
60 45 43
64 51 47
60 45 44
52 41 38
63 52 48
63 42 40
56 46 40
63 60 54
76 45 35
72 53 52
47 48 44
47 30 29
59 66 54
54 45 40
48 44 33
76 65 64
71 58 53
57 46 42
56 36 35
77 61 59
82 59 53
62 40 37
77 55 55
53 49 46
71 38 38
55 50 44
103 99 97
57 48 38
51 35 27
61 60 56
54 46 44
60 49 46
63 44 42
63 55 53
55 57 46
70 61 59
72 52 50
57 39 38
60 58 56
64 50 49
67 47 45
67 52 52
80 44 43
74 60 58
44 33 30
75 53 52
65 52 46
40 18 17
72 60 53
61 47 47
60 52 51
55 40 39
46 36 30
90 66 64
53 46 46
53 38 35
61 43 41
58 50 48
66 48 43
70 54 46
49 33 27
58 47 46
64 50 44
56 34 32
53 43 42
49 40 34
49 33 28
44 37 31
79 38 36
51 32 27
46 38 28
52 33 31
69 45 43
44 29 23
59 50 48
59 47 40
65 54 53
55 41 38
58 53 49
45 42 37
54 58 38
48 45 42
64 51 51
69 41 34
63 30 29
61 40 38
55 53 43
67 50 46
80 44 44
107 36 30
63 52 51
48 38 36
46 49 38
56 43 40
67 52 48
56 42 40
50 38 36
61 46 45
57 36 31
54 48 38
61 39 33
50 39 36
38 24 23
62 47 45
50 34 29
55 34 33
59 46 43
41 21 20
53 25 25
52 44 43
59 44 39
39 23 23
65 33 29
56 50 41
57 42 40
51 50 43
45 39 37
39 20 18
61 39 39
73 39 38
47 31 25
50 48 45
66 33 33
53 38 35
45 19 19
52 34 29
58 31 30
63 57 55
40 27 23
62 51 48
78 67 67
52 36 36
65 41 41
61 37 36
51 41 41
44 43 37
46 37 28
68 62 57
46 25 20
49 27 18
42 11 11
37 11 9
28 6 5
51 13 12
50 14 12
53 13 13
57 12 10
58 14 13
69 19 19
54 12 12
66 16 16
43 12 11
46 12 11
58 16 14
50 11 11
55 13 12
62 15 14
46 11 11
54 14 14
54 15 14
48 12 12
44 9 8
58 16 15
58 16 15
51 12 12
45 11 10
72 19 19
64 15 15
62 17 16
52 13 12
50 13 12
67 16 16
62 16 16
57 15 15
56 16 15
54 15 14
57 15 14
55 14 14
29 8 7
37 11 10
54 14 13
85 23 23
53 13 12
58 15 14
44 13 11
57 14 14
71 15 15
53 14 14
48 10 10
64 18 17
63 17 17
55 15 15
47 13 13
73 20 20
65 17 16
73 20 19
60 14 13
53 13 13
59 15 14
57 14 13
55 13 13
59 16 15
38 10 9
54 14 13
49 14 13
64 19 17
44 11 11
38 14 10
41 12 11
47 12 12
40 11 10
43 11 11
12 4 2
0 0 0
0 0 0
0 0 0
0 0 0
0 0 0
0 0 0
0 0 0
0 0 0
0 0 0
0 0 0
0 0 0
0 0 0
0 0 0
0 0 0
0 0 0
0 0 0
0 0 0
0 0 0
0 0 0
0 0 0
0 0 0
0 0 0
0 0 0
0 0 0
0 0 0
0 0 0
0 0 0
20 39 21
20 36 19
25 44 25
34 60 34
29 54 31
23 42 24
17 33 19
21 41 23
18 33 19
23 40 23
24 45 25
21 40 23
23 44 24
19 39 22
32 49 28
22 41 21
31 58 33
27 46 26
12 21 11
25 46 26
30 53 29
27 44 25
33 53 28
26 47 26
21 39 22
22 48 23
29 52 29
25 43 22
27 54 29
35 57 32
25 43 24
32 60 34
30 51 28
29 53 30
32 64 35
25 37 20
22 40 21
29 59 31
20 34 19
20 36 19
31 59 32
26 51 28
26 44 25
27 50 28
20 42 20
29 54 31
31 66 32
28 55 30
32 62 35
23 38 21
29 53 30
22 43 24
22 40 22
23 46 24
35 67 38
27 52 29
17 31 17
24 42 22
22 40 22
41 53 28
27 48 27
21 39 22
27 44 25
27 46 25
34 67 38
26 51 26
24 43 24
27 46 25
22 41 22
25 48 26
22 46 23
22 37 20
17 31 16
14 28 14
44 42 36
38 42 37
38 43 34
39 44 33
42 49 38
42 39 31
51 48 42
50 42 37
48 53 47
34 46 33
42 48 38
63 77 61
76 62 58
25 36 25
58 59 55
38 42 37
62 68 61
60 39 31
57 59 52
42 41 34
50 51 46
38 47 31
50 58 44
54 38 25
47 47 43
56 56 50
47 54 40
59 61 55
26 33 25
51 45 37
43 43 30
53 60 48
58 55 48
50 57 47
52 49 40
43 44 40
39 49 38
54 57 48
55 59 51
42 43 35
51 48 39
35 36 33
56 53 47
56 74 54
60 57 52
50 53 46
44 41 38
63 76 62
37 40 31
32 41 29
42 50 38
62 56 53
58 56 50
57 56 45
50 53 41
65 58 44
62 59 48
61 57 48
56 53 44
52 69 52
47 44 40
86 89 80
50 52 47
49 56 36
34 41 33
59 59 46
51 53 50
47 47 44
50 46 35
41 43 29
59 66 54
51 58 51
67 59 52
56 46 37
31 35 29
41 49 36
59 62 56
47 51 40
51 73 52
57 63 51
60 62 52
52 52 44
54 59 51
49 49 42
60 64 54
62 49 42
55 66 50
50 53 46
62 72 59
47 56 47
56 62 52
62 63 56
51 50 42
60 59 51
61 60 52
70 66 57
60 57 51
52 66 45
56 47 42
53 59 48
61 53 48
47 44 36
89 62 56
53 49 41
52 57 49
60 58 53
56 55 48
73 53 50
52 49 44
79 64 59
67 70 57
67 174 73
67 67 58
50 49 39
57 55 48
51 55 47
64 55 50
57 58 53
58 55 48
51 52 44
71 49 43
60 62 55
71 66 64
70 68 62
67 54 49
62 58 56
75 72 66
59 49 45
78 65 58
54 56 51
57 52 47
63 70 57
81 69 64
69 73 66
69 68 61
61 58 49
61 66 58
61 43 42
49 50 44
70 70 53
70 64 57
48 51 42
57 58 51
56 60 47
55 55 50
64 64 57
65 65 57
37 46 32
66 55 49
63 58 55
57 58 48
68 64 56
55 40 37
67 63 58
56 58 49
69 62 57
72 67 63
47 45 39
85 53 51
78 69 65
65 62 57
72 48 44
255 255 255
255 255 255
255 255 255
255 255 255
255 255 255
255 255 255
255 255 255
255 255 255
255 255 255
255 255 255
255 255 255
255 255 255
255 255 255
255 255 255
255 255 255
255 255 255
255 255 255
255 255 255
255 255 255
255 255 255
255 255 255
255 255 255
255 255 255
255 255 255
255 255 255
255 255 255
255 255 255
255 255 255
255 255 255
255 255 255
255 255 255
255 255 255
255 255 255
255 255 255
255 255 255
255 255 255
255 255 255
255 255 255
255 255 255
255 255 255
255 255 255
255 255 255
255 255 255
255 255 255
255 255 255
255 255 255
255 255 255
255 255 255
255 255 255
255 255 255
255 255 255
255 255 255
255 255 255
255 255 255
255 255 255
255 255 255
255 255 255
255 255 255
255 255 255
255 255 255
255 255 255
255 255 255
255 255 255
255 255 255
255 255 255
255 255 255
255 255 255
255 255 255
255 255 255
255 255 255
255 255 255
255 255 255
255 255 255
255 255 255
255 255 255
255 255 255
255 255 255
255 255 255
255 255 255
255 255 255
255 255 255
255 255 255
255 255 255
255 255 255
255 255 255
255 255 255
255 255 255
255 255 255
255 255 255
255 255 255
255 255 255
255 255 255
255 255 255
255 255 255
255 255 255
255 255 255
255 255 255
255 255 255
255 255 255
255 255 255
116 43 41
47 36 34
68 57 52
79 59 57
69 58 54
64 54 51
66 49 47
55 48 42
61 59 53
59 52 48
70 63 56
63 53 47
52 47 46
84 41 38
65 54 51
78 78 72
68 52 47
56 70 54
83 60 49
71 62 59
66 53 53
59 45 44
116 62 60
71 61 54
61 47 45
62 49 42
56 45 38
58 39 35
70 61 58
57 53 45
63 47 42
70 50 46
75 63 63
70 62 53
80 75 71
67 56 51
66 51 50
52 50 43
62 52 50
68 60 59
50 47 36
61 45 41
72 55 52
48 43 39
62 45 43
68 48 46
32 22 18
69 45 41
44 41 36
65 57 52
74 64 62
50 27 25
52 48 47
60 38 35
67 44 44
43 39 29
59 48 44
58 41 34
57 36 31
57 46 42
61 45 42
71 48 45
53 40 39
54 42 39
77 52 50
75 56 56
72 79 66
58 54 48
57 54 43
61 47 42
57 46 44
48 44 35
69 61 59
64 43 41
65 56 51
60 50 45
64 39 39
80 71 66
74 61 56
64 59 53
51 26 25
60 42 42
85 70 66
65 56 53
54 38 31
59 48 41
66 44 41
74 49 45
168 50 37
49 39 37
57 40 33
56 45 40
63 59 45
59 48 43
72 52 49
41 39 28
63 48 47
77 53 51
66 44 44
77 24 24
50 36 35
63 30 29
55 37 34
63 44 43
56 36 34
45 29 26
64 43 39
62 47 45
190 28 26
55 40 39
61 41 40
65 39 37
57 42 42
72 43 42
65 53 50
116 46 44
59 45 44
62 36 35
52 29 21
66 46 45
67 58 55
59 46 46
50 28 28
68 56 56
39 34 24
52 36 34
75 55 51
55 36 35
52 33 32
55 20 18
64 59 43
48 34 34
113 68 66
49 49 36
54 43 41
54 36 27
62 40 36
58 49 44
47 31 31
54 37 37
61 46 45
87 58 54
54 43 42
43 35 35
45 34 27
54 37 33
48 35 34
45 26 26
56 40 38
62 58 51
43 30 30
41 19 17
54 37 33
51 27 26
59 53 44
31 13 13
47 22 22
62 39 35
32 28 24
59 43 42
37 32 29
63 43 42
48 31 31
32 8 7
50 17 12
81 20 18
48 12 11
59 16 16
60 14 13
64 11 11
53 13 12
57 15 14
65 22 17
55 13 13
38 11 9
44 12 11
75 21 20
47 12 11
74 20 20
48 14 13
55 12 12
77 18 17
78 18 17
62 16 16
55 15 14
56 15 13
63 17 16
62 16 16
55 13 12
58 15 15
59 15 15
84 23 23
65 18 17
42 11 10
60 15 14
69 18 17
72 16 15
67 17 17
54 14 13
47 13 12
54 14 14
45 12 12
48 13 12
66 16 16
59 16 15
61 15 15
57 16 15
55 12 11
65 18 17
61 16 15
68 16 16
72 18 18
54 14 13
52 14 14
48 12 11
56 18 15
63 18 17
57 16 15
65 17 16
51 13 12
41 11 10
43 12 11
54 14 14
54 14 14
60 16 16
54 15 14
77 22 21
38 11 10
60 16 16
47 12 12
38 10 10
56 15 14
40 11 10
63 18 17
65 18 17
53 14 14
16 3 2
0 0 0
0 0 0
0 0 0
0 0 0
0 0 0
0 0 0
0 0 0
0 0 0
0 0 0
0 0 0
0 0 0
0 0 0
0 0 0
0 0 0
0 0 0
0 0 0
0 0 0
0 0 0
0 0 0
0 0 0
0 0 0
0 0 0
0 0 0
0 0 0
0 0 0
0 0 0
0 0 0
10 5 3
27 49 28
22 42 24
24 44 25
23 42 23
19 31 17
30 54 31
26 45 26
22 30 17
25 47 26
25 45 25
17 33 19
28 51 28
28 51 29
27 45 26
19 36 20
23 46 25
18 27 15
24 47 26
28 49 28
26 49 27
28 49 28
23 41 23
23 49 25
24 47 26
25 44 25
30 56 31
26 51 28
23 40 22
22 40 22
27 50 28
32 60 34
28 53 30
28 52 27
29 54 30
19 33 18
29 49 28
26 51 28
25 35 19
19 45 19
27 52 27
25 45 25
22 45 24
24 42 23
28 53 29
22 42 24
24 43 24
25 50 27
23 43 23
20 32 18
24 48 26
20 37 20
24 42 23
20 37 21
32 60 33
35 64 36
23 47 24
35 51 25
21 42 23
24 45 25
23 40 22
19 38 21
19 35 17
23 42 23
20 38 19
23 46 24
20 36 19
20 37 19
21 32 17
25 37 20
27 46 25
23 42 23
30 56 31
21 36 19
20 29 15
38 42 32
22 27 19
46 41 34
50 37 32
73 64 60
59 52 43
52 52 46
52 45 40
41 48 39
34 31 21
20 33 20
55 60 52
41 42 32
41 49 37
57 55 49
45 47 38
43 49 44
53 51 42
58 60 52
48 55 44
42 47 38
42 49 42
42 44 36
49 53 44
46 57 42
37 39 28
58 63 56
50 55 40
48 51 40
52 53 44
31 35 25
63 68 59
35 42 36
39 42 36
52 57 51
50 52 47
58 58 51
58 63 55
54 59 50
33 42 31
57 57 47
56 62 55
74 58 51
34 42 32
44 56 44
41 51 40
38 44 35
23 35 22
52 59 51
46 53 45
60 64 56
45 48 42
43 51 39
53 61 49
50 53 47
62 67 54
44 48 40
46 65 48
56 56 51
59 58 54
44 52 44
45 45 39
53 50 43
46 53 41
51 48 40
37 45 37
46 55 41
67 72 59
53 57 49
70 64 58
62 64 58
60 62 53
53 55 46
53 52 47
49 47 38
57 51 43
65 68 58
46 50 46
45 46 39
53 54 45
55 54 46
63 65 60
65 66 59
54 50 45
50 46 39
44 42 31
62 64 58
66 64 57
145 72 63
64 52 47
54 53 43
58 64 55
161 162 159
64 57 50
49 52 45
54 53 48
61 53 46
57 63 54
52 48 41
52 48 40
61 68 56
68 70 66
42 45 37
50 50 45
80 53 48
50 56 47
60 60 53
57 76 58
62 62 56
59 59 52
55 43 37
66 62 50
49 60 43
66 64 58
59 60 54
48 49 45
61 66 58
77 69 64
39 44 36
51 49 40
41 46 36
55 58 50
59 58 54
58 61 51
39 50 38
68 58 55
72 59 52
46 48 35
52 49 42
55 59 51
67 63 58
64 65 59
70 67 63
73 64 61
80 83 76
63 60 55
50 49 43
74 52 48
43 47 38
66 54 51
45 41 35
62 59 52
53 54 47
91 63 57
68 50 44
58 57 55
77 70 63
57 55 51
41 51 39
72 41 38
60 47 41
81 73 69
64 67 61
56 58 50
50 57 49
48 50 42
65 66 59
59 56 49
66 61 55
48 52 45
62 59 56
255 255 255
255 255 255
255 255 255
255 255 255
255 255 255
255 255 255
255 255 255
255 255 255
255 255 255
255 255 255
255 255 255
255 255 255
255 255 255
255 255 255
255 255 255
255 255 255
255 255 255
255 255 255
255 255 255
255 255 255
255 255 255
255 255 255
255 255 255
255 255 255
255 255 255
255 255 255
255 255 255
255 255 255
255 255 255
255 255 255
255 255 255
255 255 255
255 255 255
255 255 255
255 255 255
255 255 255
255 255 255
255 255 255
255 255 255
255 255 255
255 255 255
255 255 255
255 255 255
255 255 255
255 255 255
255 255 255
255 255 255
255 255 255
255 255 255
255 255 255
255 255 255
255 255 255
255 255 255
255 255 255
255 255 255
255 255 255
255 255 255
255 255 255
255 255 255
255 255 255
255 255 255
255 255 255
255 255 255
255 255 255
255 255 255
255 255 255
255 255 255
255 255 255
255 255 255
255 255 255
255 255 255
255 255 255
255 255 255
255 255 255
255 255 255
255 255 255
255 255 255
255 255 255
255 255 255
255 255 255
255 255 255
255 255 255
255 255 255
255 255 255
255 255 255
255 255 255
255 255 255
255 255 255
255 255 255
255 255 255
255 255 255
255 255 255
255 255 255
255 255 255
255 255 255
255 255 255
255 255 255
255 255 255
255 255 255
255 255 255
63 47 43
78 71 70
63 59 55
78 70 65
77 72 70
72 63 54
55 36 33
55 47 43
61 56 55
47 40 37
59 49 46
84 61 58
79 73 72
58 49 44
70 58 56
51 40 38
79 47 39
67 63 55
85 60 57
75 105 69
53 47 44
64 49 39
53 49 46
71 48 47
55 46 45
50 53 44
61 47 39
64 53 51
51 51 44
54 42 33
61 55 44
46 32 30
50 38 36
41 29 26
53 49 49
56 35 28
40 32 29
61 53 49
58 60 50
60 45 43
64 52 45
55 31 28
53 42 35
59 49 47
58 35 33
54 42 38
50 43 37
64 55 53
96 54 49
41 36 34
63 50 48
73 63 60
74 49 46
71 50 49
68 51 48
65 48 44
39 33 25
42 44 38
62 55 54
66 59 53
74 53 50
44 36 29
49 34 32
55 51 44
68 57 50
61 54 48
74 56 56
60 48 44
46 33 32
65 42 39
59 48 45
50 47 37
62 34 27
36 22 21
66 48 43
61 63 51
73 53 50
78 68 67
54 37 33
58 51 46
52 48 39
68 58 50
67 36 33
65 40 36
70 54 53
66 41 39
57 43 41
69 57 48
61 48 44
61 31 29
60 44 40
56 41 38
56 42 37
59 39 39
58 46 46
60 49 43
49 42 39
56 71 45
52 50 41
58 47 43
64 56 52
83 66 66
53 40 38
56 32 29
59 55 49
47 37 32
64 44 44
53 34 33
54 37 37
85 74 68
73 62 62
66 54 53
48 39 34
47 34 30
47 39 26
65 43 43
63 43 43
52 28 27
56 44 41
68 42 42
72 60 59
59 36 36
75 66 66
62 54 45
52 41 40
60 42 39
51 39 38
51 37 32
69 49 47
50 39 39
44 33 30
59 46 41
58 41 41
78 33 33
61 49 43
75 38 38
62 38 37
56 51 47
57 46 44
67 57 56
84 51 48
58 49 42
49 38 37
47 25 25
59 35 34
57 45 39
69 58 55
46 49 36
58 32 31
58 42 41
55 28 22
50 38 36
46 36 34
56 37 37
53 32 32
66 56 55
35 29 29
71 61 60
69 52 51
51 33 31
53 40 35
54 22 22
43 12 11
49 11 10
50 12 12
46 12 11
62 14 13
52 13 12
66 7 7
43 12 11
46 12 12
46 13 12
54 14 12
72 15 14
57 13 12
87 22 22
58 15 14
66 18 17
48 11 10
48 9 9
70 19 18
66 15 15
72 19 18
61 16 15
60 15 14
68 17 16
55 15 14
105 28 28
66 15 15
60 17 16
68 19 18
57 15 13
73 19 18
64 17 17
55 14 13
55 15 14
55 14 13
78 16 15
61 15 15
59 15 15
75 20 20
61 14 13
70 19 18
51 14 14
52 15 14
54 14 13
70 14 14
66 17 17
51 14 14
51 14 13
57 16 14
73 16 16
51 13 13
53 13 12
71 18 17
60 16 15
72 19 19
48 12 12
49 14 13
46 12 12
64 17 17
53 14 13
53 16 14
59 16 15
51 14 13
52 14 13
35 9 7
51 13 12
47 19 13
45 11 11
49 12 12
50 14 13
59 16 16
70 20 19
62 17 16
56 15 15
27 7 7
0 0 0
0 0 0
0 0 0
0 0 0
0 0 0
0 0 0
0 0 0
0 0 0
0 0 0
0 0 0
0 0 0
0 0 0
0 0 0
0 0 0
0 0 0
0 0 0
0 0 0
0 0 0
0 0 0
0 0 0
0 0 0
0 0 0
0 0 0
0 0 0
0 0 0
0 0 0
0 0 0
15 23 13
23 37 21
25 44 25
30 53 30
18 28 15
19 34 19
23 41 23
25 47 26
30 50 29
26 50 28
19 37 21
22 40 22
20 38 21
24 45 25
19 37 20
30 47 27
30 54 30
29 50 28
32 63 35
21 38 22
29 55 31
24 49 26
16 31 16
23 38 22
25 49 27
20 33 18
26 49 28
20 36 20
28 56 31
26 53 29
22 44 24
23 43 24
18 32 17
20 36 20
27 48 27
29 53 30
23 37 20
22 40 21
31 56 31
22 42 22
29 54 31
32 61 34
26 46 25
33 62 35
21 42 23
29 53 29
25 47 26
28 50 28
21 37 20
28 54 30
26 50 28
14 27 14
31 58 32
17 33 17
27 50 27
17 32 17
29 45 24
13 27 14
25 47 27
24 48 25
25 47 25
23 48 24
20 36 19
26 41 23
29 53 30
24 42 23
16 28 12
27 52 29
22 38 20
28 56 29
30 53 27
21 42 22
16 34 18
18 30 16
20 39 18
13 17 9
21 27 20
38 48 35
60 59 54
42 47 30
38 44 34
63 57 51
47 41 32
43 41 38
44 43 33
32 36 22
36 39 35
43 49 40
43 43 35
47 49 44
34 31 24
50 51 45
75 71 65
52 51 44
56 52 45
42 51 42
67 62 53
76 55 42
38 45 37
59 59 55
37 47 37
49 54 48
52 48 43
47 41 38
51 48 42
38 51 39
48 50 35
34 42 30
45 44 37
45 50 43
24 40 25
53 58 53
54 51 44
46 45 38
61 65 57
84 65 46
46 58 46
42 43 40
55 49 41
53 56 50
78 78 72
67 53 50
42 39 33
29 32 24
53 45 35
45 36 32
55 44 38
34 41 32
53 60 52
56 57 50
69 80 69
45 46 41
57 55 52
49 53 48
53 58 50
44 43 34
53 60 50
51 53 46
54 61 46
49 52 45
43 46 40
49 50 37
56 58 49
46 48 43
55 68 56
60 61 52
43 51 43
44 26 22
58 63 53
50 41 34
57 57 52
49 53 45
40 55 37
39 40 33
61 57 51
39 44 34
46 57 47
56 59 48
56 54 42
53 60 53
93 70 64
44 51 43
54 53 51
43 42 34
57 55 49
76 59 55
48 52 43
68 62 54
75 67 63
61 56 46
40 52 34
51 55 42
56 52 48
56 50 43
63 58 52
75 66 63
61 57 50
68 69 68
61 73 61
74 81 61
51 46 41
66 59 53
50 48 41
67 59 57
59 55 48
37 40 33
65 64 60
56 45 36
69 60 54
67 67 63
43 49 40
55 57 52
65 72 63
72 74 67
67 58 53
72 63 55
48 51 44
57 62 48
46 45 37
55 60 47
63 50 45
56 64 56
65 69 62
59 60 56
72 75 65
44 54 44
67 65 60
44 45 39
62 58 53
62 60 53
46 42 38
66 69 55
48 46 41
64 52 47
65 64 55
60 60 54
56 51 48
40 51 36
57 65 57
46 61 47
58 67 58
47 53 47
61 59 56
67 59 54
64 64 58
66 63 60
48 49 41
53 54 48
74 62 58
74 65 61
72 70 62
69 60 56
45 41 36
63 50 44
61 44 35
58 59 53
255 255 255
255 255 255
255 255 255
255 255 255
255 255 255
255 255 255
255 255 255
255 255 255
255 255 255
255 255 255
255 255 255
255 255 255
255 255 255
255 255 255
255 255 255
255 255 255
255 255 255
255 255 255
255 255 255
255 255 255
255 255 255
255 255 255
255 255 255
255 255 255
255 255 255
255 255 255
255 255 255
255 255 255
255 255 255
255 255 255
255 255 255
255 255 255
255 255 255
255 255 255
255 255 255
255 255 255
255 255 255
255 255 255
255 255 255
255 255 255
255 255 255
255 255 255
255 255 255
255 255 255
255 255 255
255 255 255
255 255 255
255 255 255
255 255 255
255 255 255
255 255 255
255 255 255
255 255 255
255 255 255
255 255 255
255 255 255
255 255 255
255 255 255
255 255 255
255 255 255
255 255 255
255 255 255
255 255 255
255 255 255
255 255 255
255 255 255
255 255 255
255 255 255
255 255 255
255 255 255
255 255 255
255 255 255
255 255 255
255 255 255
255 255 255
255 255 255
255 255 255
255 255 255
255 255 255
255 255 255
255 255 255
255 255 255
255 255 255
255 255 255
255 255 255
255 255 255
255 255 255
255 255 255
255 255 255
255 255 255
255 255 255
255 255 255
255 255 255
255 255 255
255 255 255
255 255 255
255 255 255
255 255 255
255 255 255
255 255 255
62 47 43
56 47 41
81 55 51
61 57 49
79 54 51
46 40 31
64 63 53
69 65 57
65 46 42
108 62 60
63 62 56
58 47 45
59 47 43
63 48 44
72 57 53
55 48 45
74 55 55
83 67 62
78 67 64
66 53 50
71 52 52
61 50 43
58 46 44
71 56 52
40 33 31
68 58 57
58 44 41
50 52 40
63 45 42
54 52 44
62 58 55
60 51 47
74 63 61
63 69 54
74 58 55
90 55 55
70 60 51
68 52 50
61 44 42
51 38 33
64 48 45
52 57 48
62 47 42
49 35 32
53 45 44
63 46 44
48 40 38
52 42 39
59 52 46
63 54 51
60 43 41
76 53 47
59 49 40
65 51 47
92 88 86
69 49 48
55 44 43
52 26 25
75 55 50
62 50 47
62 57 53
61 37 33
72 56 52
61 38 34
57 58 55
53 38 33
59 45 39
69 52 52
60 46 46
68 56 54
67 54 53
59 33 32
67 42 38
57 54 44
59 58 46
44 39 34
52 33 30
67 47 40
62 64 55
62 53 51
77 70 68
61 50 47
53 38 38
57 41 37
65 47 40
55 45 41
58 38 36
49 36 36
99 90 89
93 85 79
53 48 45
54 41 35
65 65 52
54 45 41
70 43 39
67 51 49
57 36 27
55 42 36
63 44 43
60 48 45
68 57 55
55 48 47
50 42 37
58 49 47
53 35 33
99 39 38
81 69 69
63 53 53
79 62 60
65 26 26
60 36 27
71 54 51
58 43 42
59 36 32
71 60 57
55 37 36
54 38 38
65 54 54
56 34 34
61 48 47
51 41 30
96 35 34
61 45 43
64 45 44
77 55 55
57 44 44
82 68 65
53 42 39
59 39 36
70 61 59
55 40 36
47 37 35
48 30 30
50 30 27
54 35 35
78 34 34
76 32 28
60 37 37
75 61 55
54 62 49
58 48 45
56 42 37
51 35 32
51 34 30
58 31 26
64 43 37
58 46 43
53 38 38
74 53 50
38 30 25
32 26 22
41 37 32
91 59 58
44 25 24
54 46 46
49 56 42
49 39 37
30 23 16
50 32 31
41 31 26
44 22 22
58 14 13
50 12 12
62 16 15
56 15 14
47 12 10
54 13 13
39 9 9
52 14 13
64 17 16
66 16 15
57 13 12
51 13 12
66 17 17
82 22 22
61 16 15
41 9 7
47 12 11
43 10 10
68 17 16
67 15 15
61 16 16
46 11 11
54 14 13
50 13 12
75 19 18
70 19 19
56 14 14
89 24 23
72 19 18
72 18 17
61 16 15
47 13 12
60 17 16
60 16 14
76 13 12
63 16 14
72 19 19
45 12 10
60 16 16
59 14 14
68 19 18
59 15 14
78 21 21
62 14 13
67 17 16
54 15 14
69 17 17
52 13 12
56 14 14
62 17 16
78 22 21
34 8 8
55 14 14
73 19 18
53 15 14
55 15 14
114 28 28
54 14 13
64 17 17
63 17 16
60 16 16
59 16 16
45 11 10
79 21 20
71 16 16
66 16 16
35 8 8
34 9 9
62 16 16
71 18 18
62 15 14
50 14 13
54 14 14
76 19 18
72 20 19
7 2 1
0 0 0
0 0 0
0 0 0
0 0 0
0 0 0
0 0 0
0 0 0
0 0 0
0 0 0
0 0 0
0 0 0
0 0 0
0 0 0
0 0 0
0 0 0
0 0 0
0 0 0
0 0 0
0 0 0
0 0 0
0 0 0
0 0 0
0 0 0
0 0 0
0 0 0
0 0 0
0 0 0
13 25 14
22 45 25
32 54 31
23 46 23
23 43 23
18 28 16
25 40 23
23 41 23
25 40 20
19 42 21
21 41 22
24 45 25
29 51 29
26 50 29
19 37 20
29 51 29
27 51 28
34 66 37
17 32 18
23 45 25
24 46 27
26 47 26
26 51 28
15 25 14
28 53 30
26 47 27
24 45 25
25 50 27
25 42 23
20 38 20
19 38 20
30 53 29
36 70 39
26 47 26
32 56 30
23 45 24
19 35 19
24 40 21
19 34 18
18 33 19
32 57 32
25 46 26
29 52 29
24 44 25
22 40 22
29 59 32
19 38 19
26 48 25
27 50 28
26 49 27
32 65 34
23 45 24
23 42 24
29 56 31
28 54 29
28 52 29
28 48 27
34 60 32
26 52 28
23 39 21
32 59 33
31 56 32
25 47 25
23 47 26
23 41 22
30 37 21
20 35 19
27 49 27
34 62 36
24 47 26
21 40 21
16 28 15
22 36 19
16 30 17
27 50 27
22 39 20
24 40 21
25 40 23
46 43 38
53 66 53
50 31 24
51 54 48
55 60 54
50 44 39
35 49 35
51 50 47
40 48 39
58 50 43
61 59 53
45 53 42
38 32 24
45 43 35
49 49 37
46 43 36
50 41 35
52 48 43
53 66 50
77 78 76
51 56 46
55 55 50
49 44 38
53 48 41
52 55 47
50 40 34
48 52 42
57 54 48
60 56 51
45 49 38
21 37 23
47 51 42
52 48 36
49 53 47
56 63 52
50 56 43
48 54 46
30 38 26
64 58 51
66 70 62
42 39 31
50 49 37
74 61 52
48 42 30
59 52 45
50 58 49
65 69 60
50 50 45
47 33 24
60 68 60
67 62 53
46 51 45
51 53 44
44 49 39
51 61 49
56 62 48
31 37 30
58 57 48
62 66 59
36 42 35
47 52 35
64 67 53
37 48 34
44 46 34
43 51 43
46 49 38
45 52 45
58 58 51
67 72 64
46 49 43
54 57 50
49 59 49
63 62 54
50 54 47
47 52 41
55 47 40
47 44 35
50 43 39
76 60 55
54 53 44
36 43 30
54 49 44
59 57 43
67 68 63
51 52 47
42 50 40
53 60 46
53 56 50
51 59 43
60 56 47
79 77 72
58 58 49
71 71 66
60 56 47
59 59 53
50 58 48
51 54 46
55 47 43
56 52 44
53 55 45
53 50 45
67 67 58
63 65 59
53 54 50
57 53 49
62 70 61
66 69 64
52 56 46
80 49 41
55 60 49
51 49 42
59 60 53
48 48 43
81 81 64
56 58 50
40 41 38
53 50 43
42 45 38
54 46 38
59 56 49
51 58 50
70 66 61
77 62 58
81 60 57
60 52 43
48 49 43
65 62 58
49 54 46
64 51 47
50 49 41
55 59 51
56 66 52
54 44 39
50 53 46
45 42 36
74 64 60
66 70 61
52 45 39
58 54 51
57 51 43
65 46 42
57 59 50
61 58 53
56 62 52
82 77 72
72 58 51
40 46 37
67 76 64
38 42 31
48 48 38
59 56 51
43 44 42
63 60 54
59 58 51
76 62 58
58 51 46
65 62 58
54 50 47
255 255 255
255 255 255
255 255 255
255 255 255
255 255 255
255 255 255
255 255 255
255 255 255
255 255 255
255 255 255
255 255 255
255 255 255
255 255 255
255 255 255
255 255 255
255 255 255
255 255 255
255 255 255
255 255 255
255 255 255
255 255 255
255 255 255
255 255 255
255 255 255
255 255 255
255 255 255
255 255 255
255 255 255
255 255 255
255 255 255
255 255 255
255 255 255
255 255 255
255 255 255
255 255 255
255 255 255
255 255 255
255 255 255
255 255 255
255 255 255
255 255 255
255 255 255
255 255 255
255 255 255
255 255 255
255 255 255
255 255 255
255 255 255
255 255 255
255 255 255
255 255 255
255 255 255
255 255 255
255 255 255
255 255 255
255 255 255
255 255 255
255 255 255
255 255 255
255 255 255
255 255 255
255 255 255
255 255 255
255 255 255
255 255 255
255 255 255
255 255 255
255 255 255
255 255 255
255 255 255
255 255 255
255 255 255
255 255 255
255 255 255
255 255 255
255 255 255
255 255 255
255 255 255
255 255 255
255 255 255
255 255 255
255 255 255
255 255 255
255 255 255
255 255 255
255 255 255
255 255 255
255 255 255
255 255 255
255 255 255
255 255 255
255 255 255
255 255 255
255 255 255
255 255 255
255 255 255
255 255 255
255 255 255
255 255 255
255 255 255
57 49 42
52 43 39
54 50 47
45 38 32
48 45 42
70 67 56
85 61 60
106 66 61
75 60 59
61 50 47
44 41 36
74 57 55
66 53 49
51 36 32
54 51 43
67 63 60
60 50 49
60 50 47
62 51 43
69 62 51
60 50 46
68 55 52
56 39 36
66 50 48
68 48 40
39 40 34
71 52 47
48 37 24
77 56 49
57 41 40
60 52 47
66 50 40
64 52 49
53 47 42
47 42 38
49 46 38
59 32 31
76 61 56
67 52 49
56 44 43
53 38 33
55 32 31
70 57 55
56 48 46
51 35 35
52 37 36
68 55 51
68 57 57
59 58 54
77 44 36
63 57 52
58 49 44
60 46 45
62 47 43
62 45 43
65 57 52
67 55 49
70 52 49
55 40 40
71 65 64
53 44 38
57 50 45
63 48 45
59 49 42
51 47 43
56 28 27
56 44 39
51 41 40
72 53 50
63 38 37
55 22 22
56 41 39
57 49 45
74 63 60
80 53 45
63 47 46
54 40 37
77 54 52
62 46 46
56 47 40
62 50 48
62 50 43
59 53 52
69 59 50
65 51 49
67 53 40
63 40 35
59 52 47
49 37 34
52 48 46
69 62 60
52 42 34
52 42 38
61 45 43
61 37 28
66 52 52
49 33 28
61 45 42
58 53 47
62 44 43
68 51 48
53 48 39
42 37 37
59 44 44
66 48 44
68 63 59
51 35 33
53 46 40
53 52 40
51 42 35
68 46 43
46 31 31
55 39 37
54 41 39
62 45 39
60 48 45
59 27 25
42 29 29
69 44 40
75 63 58
56 38 36
63 49 41
59 35 32
61 48 47
64 46 44
37 24 21
54 39 38
67 47 45
63 42 37
55 36 34
46 34 29
55 45 33
54 51 43
56 37 36
52 29 23
65 47 37
54 39 38
69 58 58
55 43 42
69 36 29
43 33 27
54 38 31
45 41 33
55 48 48
69 56 55
60 38 37
53 39 37
53 25 22
69 46 46
41 27 27
48 37 36
42 14 11
56 50 43
35 25 25
55 41 38
48 39 38
75 59 58
67 54 54
80 54 54
54 25 22
62 15 14
42 13 11
43 9 8
51 11 11
55 14 14
50 12 12
54 14 13
40 10 9
76 20 19
59 16 15
65 15 14
48 12 11
40 10 10
54 15 14
49 11 11
59 15 15
68 18 17
55 13 13
63 17 16
81 20 19
58 16 15
64 16 15
73 18 17
51 13 12
61 16 16
59 16 14
60 15 15
49 13 12
43 10 9
64 17 17
71 18 17
63 16 16
57 14 13
49 13 12
67 15 15
45 14 12
60 16 15
61 14 13
49 13 12
50 14 13
97 21 21
58 16 16
69 18 17
54 16 15
63 17 16
58 15 14
96 21 21
49 14 13
65 16 15
73 16 16
82 23 22
66 18 17
65 17 17
71 19 19
77 19 19
49 14 13
56 15 14
67 18 18
79 20 20
61 16 16
48 13 13
55 14 14
102 29 28
56 14 14
47 12 11
60 14 14
48 12 12
61 17 16
50 14 13
38 11 10
43 12 11
54 13 12
133 21 21
52 15 13
58 15 15
57 15 15
27 8 7
0 0 0
0 0 0
0 0 0
0 0 0
0 0 0
0 0 0
0 0 0
0 0 0
0 0 0
0 0 0
0 0 0
0 0 0
0 0 0
0 0 0
0 0 0
0 0 0
0 0 0
0 0 0
0 0 0
0 0 0
0 0 0
0 0 0
0 0 0
0 0 0
0 0 0
0 0 0
0 0 0
8 12 7
23 46 26
25 44 24
15 21 11
24 48 26
23 39 22
22 39 22
25 43 24
28 56 30
21 41 22
22 28 16
14 20 11
23 46 25
25 45 26
32 62 35
26 47 27
32 67 33
27 50 28
29 58 32
28 49 28
12 18 10
27 47 27
22 43 23
25 43 24
31 57 32
27 55 30
24 46 26
25 43 24
25 48 26
25 41 23
29 40 22
27 49 28
23 46 24
25 47 26
22 34 19
24 38 21
27 48 27
22 40 23
28 50 29
20 38 21
24 45 25
30 48 26
30 48 27
26 52 29
26 48 27
19 26 14
28 50 29
29 49 25
22 37 20
28 51 29
33 62 35
30 56 32
27 55 30
32 63 34
27 52 29
22 41 23
17 35 17
17 33 16
27 51 28
28 51 28
29 54 27
18 29 16
24 50 25
24 38 20
22 41 23
30 56 32
27 51 28
22 51 25
21 32 17
21 36 19
23 43 23
14 30 15
19 39 19
27 41 23
17 32 16
22 42 23
15 31 16
25 47 26
38 43 33
34 35 32
43 47 43
49 43 39
43 40 34
53 53 50
60 68 57
56 60 55
50 39 31
42 48 41
69 68 64
25 31 24
71 60 54
55 46 37
44 47 40
59 44 36
42 47 38
27 27 22
47 45 37
40 42 36
51 56 45
53 54 46
60 57 50
49 55 46
35 49 35
36 39 30
52 54 48
49 46 40
46 44 38
57 57 53
48 53 42
55 60 52
44 54 39
39 48 31
59 63 54
28 34 28
44 42 35
60 57 48
48 43 40
64 60 52
64 50 43
48 48 41
49 57 49
49 53 46
57 60 49
63 56 50
53 54 46
55 48 39
53 59 53
44 52 44
49 54 45
59 56 48
53 57 51
44 52 42
52 57 49
51 52 39
40 51 37
73 66 60
61 63 59
41 40 32
56 71 56
89 92 86
57 57 51
41 55 41
61 65 59
65 72 62
45 49 41
66 56 49
61 55 52
50 58 49
57 50 47
89 81 76
54 56 50
51 55 46
56 51 43
63 59 53
44 49 33
43 52 39
92 91 86
61 63 52
50 60 49
69 58 50
93 64 54
50 53 44
75 63 52
57 59 52
70 61 59
48 50 42
31 39 31
71 68 64
62 69 56
61 52 44
63 68 57
59 59 52
51 52 45
51 54 43
78 93 73
48 52 45
59 55 46
56 65 54
64 49 42
62 60 56
46 51 41
59 57 48
50 56 46
65 71 62
49 56 47
66 65 59
34 46 33
51 44 34
75 80 70
50 44 40
55 44 38
64 59 51
57 48 39
46 53 42
50 49 43
43 41 35
74 71 63
60 56 50
52 50 44
63 58 50
68 65 62
50 52 42
41 42 37
81 75 67
48 52 40
76 79 70
69 56 54
76 76 70
65 48 39
59 54 50
73 59 54
53 53 49
64 61 51
97 90 85
62 61 51
51 52 45
55 48 39
54 59 50
48 47 44
56 56 45
53 59 50
45 38 36
54 50 48
59 55 48
64 49 46
52 53 47
78 60 54
54 47 40
57 50 45
69 62 57
56 57 53
61 58 55
59 45 42
51 51 44
62 63 55
100 57 54
53 57 50
255 255 255
255 255 255
255 255 255
255 255 255
255 255 255
255 255 255
255 255 255
255 255 255
255 255 255
255 255 255
255 255 255
255 255 255
255 255 255
255 255 255
255 255 255
255 255 255
255 255 255
255 255 255
255 255 255
255 255 255
255 255 255
255 255 255
255 255 255
255 255 255
255 255 255
255 255 255
255 255 255
255 255 255
255 255 255
255 255 255
255 255 255
255 255 255
255 255 255
255 255 255
255 255 255
255 255 255
255 255 255
255 255 255
255 255 255
255 255 255
255 255 255
255 255 255
255 255 255
255 255 255
255 255 255
255 255 255
255 255 255
255 255 255
255 255 255
255 255 255
255 255 255
255 255 255
255 255 255
255 255 255
255 255 255
255 255 255
255 255 255
255 255 255
255 255 255
255 255 255
255 255 255
255 255 255
255 255 255
255 255 255
255 255 255
255 255 255
255 255 255
255 255 255
255 255 255
255 255 255
255 255 255
255 255 255
255 255 255
255 255 255
255 255 255
255 255 255
255 255 255
255 255 255
255 255 255
255 255 255
255 255 255
255 255 255
255 255 255
255 255 255
255 255 255
255 255 255
255 255 255
255 255 255
255 255 255
255 255 255
255 255 255
255 255 255
255 255 255
255 255 255
255 255 255
255 255 255
255 255 255
255 255 255
49 42 39
45 37 34
59 55 52
56 55 51
56 50 48
82 71 68
63 53 49
70 65 60
51 45 40
62 54 47
61 47 45
30 30 26
62 53 51
67 54 49
59 37 33
49 35 34
61 52 47
54 47 45
47 43 39
88 83 77
77 66 65
59 52 46
57 45 43
64 55 54
68 53 51
55 45 35
62 50 49
64 51 46
58 43 40
81 60 58
89 79 75
67 56 53
70 55 51
55 45 42
75 54 51
63 49 47
85 65 60
55 45 43
93 85 84
53 41 36
57 45 39
75 67 64
59 38 37
54 41 36
77 63 58
55 45 38
56 47 42
60 60 51
45 37 35
55 48 37
72 35 34
57 42 40
108 102 100
57 44 41
56 43 43
70 50 46
64 47 43
63 49 48
49 33 32
51 54 37
68 50 48
59 40 38
88 58 58
52 37 37
53 46 41
75 76 65
55 51 44
70 57 55
42 34 34
66 49 46
59 58 45
75 66 64
72 59 57
69 51 44
52 25 24
54 41 39
49 41 35
62 54 51
57 48 45
57 30 28
62 65 48
66 56 55
70 51 50
52 42 42
64 40 38
54 43 39
62 48 40
61 44 39
73 39 37
75 36 32
69 52 49
61 51 49
60 46 41
64 52 51
65 48 42
45 38 34
54 41 37
62 49 49
65 71 50
60 53 47
36 28 23
65 53 52
58 36 35
51 39 36
47 33 32
70 58 55
46 31 26
47 35 34
76 51 47
61 35 32
47 30 27
52 38 37
52 31 30
97 90 87
56 44 39
64 43 37
41 27 19
61 38 33
56 36 36
54 35 34
57 41 38
61 43 43
60 43 39
57 34 32
70 39 35
74 58 57
41 32 29
76 49 49
71 57 56
67 58 57
59 50 46
61 32 32
62 48 47
49 33 32
55 47 42
60 40 40
57 39 32
97 30 30
59 44 41
45 29 22
53 26 26
167 165 165
102 92 92
52 29 29
56 50 49
48 41 37
93 80 80
50 40 40
67 64 59
92 82 79
46 36 32
41 38 31
66 55 52
65 54 49
49 32 32
42 29 28
45 39 36
66 43 43
44 38 30
52 18 17
57 11 10
62 10 9
52 15 12
41 11 10
41 10 9
73 19 19
76 21 20
49 14 12
47 10 9
55 11 10
50 11 11
70 17 17
97 17 17
53 13 12
59 14 13
60 16 16
50 11 10
53 14 13
66 13 12
54 17 14
56 14 13
56 15 14
55 14 13
74 18 17
67 18 15
70 19 18
64 17 16
79 18 18
58 15 15
87 22 22
71 18 18
86 22 19
60 16 16
65 18 17
60 17 16
45 11 10
59 17 16
69 18 18
58 14 14
57 13 13
62 15 15
60 18 16
53 13 13
42 12 11
53 13 13
70 19 18
71 19 18
69 17 16
54 16 14
71 20 19
57 13 13
62 14 14
70 19 18
61 17 17
65 16 14
48 12 11
56 15 14
68 17 17
73 17 16
56 16 15
51 12 11
68 19 18
54 15 14
56 13 13
32 6 6
55 16 15
62 15 14
60 17 16
56 15 15
55 15 14
49 13 12
56 14 14
23 6 5
37 11 9
71 19 19
48 13 12
22 4 3
38 9 9
0 0 0
0 0 0
0 0 0
0 0 0
0 0 0
0 0 0
0 0 0
0 0 0
0 0 0
0 0 0
0 0 0
0 0 0
0 0 0
0 0 0
0 0 0
0 0 0
0 0 0
0 0 0
0 0 0
0 0 0
0 0 0
0 0 0
0 0 0
0 0 0
0 0 0
0 0 0
0 0 0
10 19 10
18 34 18
26 47 27
20 29 16
21 38 21
28 56 29
21 41 22
26 37 21
14 27 14
29 54 31
31 56 29
24 43 24
22 42 23
26 41 23
20 41 22
20 36 20
14 20 11
18 32 18
22 44 24
29 53 30
24 46 25
15 30 15
25 48 27
23 40 23
29 53 30
31 67 33
27 53 30
26 47 27
26 49 27
52 56 31
28 54 31
25 47 26
27 52 28
26 45 25
27 49 28
24 36 20
22 38 21
18 24 13
27 50 28
23 36 20
20 42 21
25 45 25
20 34 19
26 47 26
26 53 29
26 50 28
21 42 23
17 32 17
20 34 19
23 41 22
33 50 28
26 48 26
21 37 19
17 26 14
29 60 32
29 56 31
26 53 26
21 40 21
31 57 32
27 48 26
25 49 27
24 44 24
31 54 31
20 36 20
31 60 33
27 63 29
30 51 29
24 43 24
43 79 45
28 36 19
19 42 20
22 42 23
19 31 16
28 54 30
20 25 13
29 56 32
18 33 17
20 40 21
28 51 27
41 43 31
59 50 42
31 33 22
38 53 37
41 48 38
35 34 29
27 27 19
50 52 47
46 30 22
49 46 35
53 50 47
38 61 35
47 51 37
53 46 35
57 59 51
58 53 48
54 51 44
54 63 51
35 44 36
41 50 41
56 58 51
58 60 52
45 49 38
43 55 43
48 53 38
81 84 55
44 46 37
49 46 38
32 39 28
53 48 46
56 62 52
46 42 36
47 57 47
61 56 51
48 59 43
50 53 44
40 43 34
60 61 56
44 46 42
48 45 37
41 45 37
35 44 30
53 63 54
61 59 51
48 56 46
34 46 34
58 55 43
59 49 43
63 50 44
45 47 41
49 50 43
40 37 26
54 60 50
50 51 44
45 50 41
52 53 41
44 44 36
66 76 63
65 66 65
61 65 55
53 55 46
61 49 40
43 45 34
61 56 45
68 62 57
51 57 50
48 54 46
58 60 53
59 60 49
50 49 41
50 55 47
255 93 87
65 62 55
40 37 30
52 61 52
53 53 46
59 55 46
50 51 42
54 56 47
62 68 55
58 59 50
41 49 38
54 51 47
51 56 50
67 60 56
74 66 62
56 62 52
61 59 48
53 54 44
51 55 48
41 53 42
51 55 46
61 70 59
67 57 53
52 50 44
54 51 45
51 55 50
61 66 55
51 52 46
65 69 61
55 58 51
56 52 50
38 41 35
52 56 48
55 59 49
66 72 65
63 53 49
74 76 69
42 48 41
60 59 54
69 70 59
44 49 43
59 61 54
60 61 54
51 48 39
57 44 37
71 64 60
67 75 60
60 58 54
54 63 49
59 56 51
56 56 50
71 72 65
54 47 44
62 57 50
66 53 45
71 76 69
57 65 52
69 70 64
49 52 43
66 67 61
55 56 51
59 60 51
64 57 54
61 54 49
65 60 54
68 58 54
62 57 54
46 52 43
45 53 45
49 55 46
68 67 58
58 58 52
60 63 58
65 68 64
46 51 46
57 61 53
56 56 46
65 63 53
65 52 47
55 57 51
69 61 57
55 52 51
68 55 47
78 75 68
55 57 47
52 52 47
63 54 48
255 255 255
255 255 255
255 255 255
255 255 255
255 255 255
255 255 255
255 255 255
255 255 255
255 255 255
255 255 255
255 255 255
255 255 255
255 255 255
255 255 255
255 255 255
255 255 255
255 255 255
255 255 255
255 255 255
255 255 255
255 255 255
255 255 255
255 255 255
255 255 255
255 255 255
255 255 255
255 255 255
255 255 255
255 255 255
255 255 255
255 255 255
255 255 255
255 255 255
255 255 255
255 255 255
255 255 255
255 255 255
255 255 255
255 255 255
255 255 255
255 255 255
255 255 255
255 255 255
255 255 255
255 255 255
255 255 255
255 255 255
255 255 255
255 255 255
255 255 255
255 255 255
255 255 255
255 255 255
255 255 255
255 255 255
255 255 255
255 255 255
255 255 255
255 255 255
255 255 255
255 255 255
255 255 255
255 255 255
255 255 255
255 255 255
255 255 255
255 255 255
255 255 255
255 255 255
255 255 255
255 255 255
255 255 255
255 255 255
255 255 255
255 255 255
255 255 255
255 255 255
255 255 255
255 255 255
255 255 255
255 255 255
255 255 255
255 255 255
255 255 255
255 255 255
255 255 255
255 255 255
255 255 255
255 255 255
255 255 255
255 255 255
255 255 255
255 255 255
255 255 255
255 255 255
255 255 255
255 255 255
255 255 255
69 64 61
63 57 56
45 41 36
61 51 47
68 62 56
70 44 44
62 48 46
67 61 55
53 35 28
53 40 36
62 57 47
64 56 50
55 50 48
67 54 52
68 64 62
72 68 62
59 54 51
55 52 47
66 56 46
52 43 38
54 38 35
58 52 50
51 41 41
55 46 43
69 50 47
67 50 49
59 52 48
48 41 38
61 49 42
53 44 43
68 43 40
90 60 52
70 52 48
64 47 42
67 51 48
66 60 58
60 46 40
66 58 56
60 53 44
81 65 63
59 49 44
54 38 34
73 51 49
62 60 58
57 48 46
81 61 60
69 44 44
61 33 33
64 52 50
60 35 32
76 61 61
60 34 34
58 51 40
57 50 49
67 56 56
56 48 47
60 37 32
68 60 52
54 45 44
58 34 32
52 52 41
55 34 34
57 44 39
64 47 45
72 63 45
74 67 58
46 38 35
54 39 34
64 42 35
64 35 32
61 52 49
68 58 52
51 41 35
91 49 45
57 45 40
48 43 40
72 56 51
60 40 37
63 48 48
44 46 39
68 46 46
65 52 51
58 47 44
73 45 42
55 41 40
89 50 49
80 52 51
63 50 48
72 37 32
74 57 56
55 43 39
61 50 46
67 47 47
42 30 27
57 37 35
58 50 49
65 45 39
68 54 49
50 37 37
50 40 38
53 37 37
71 47 43
59 31 30
57 38 32
64 46 45
83 68 62
64 39 38
59 39 39
68 44 42
67 66 60
52 41 35
50 30 29
49 38 34
43 31 25
59 41 37
67 46 42
56 43 40
56 38 32
102 46 38
101 43 37
53 46 37
61 53 50
82 59 56
49 39 31
51 31 31
51 40 36
71 50 49
64 52 49
65 41 37
44 34 30
41 30 27
33 38 30
83 51 48
55 54 44
53 28 27
47 42 38
45 36 28
64 42 39
63 44 43
51 37 36
50 38 35
42 23 22
65 63 58
54 26 25
49 33 27
69 63 57
45 34 34
81 32 32
55 41 32
48 35 35
51 34 27
57 50 49
55 37 33
56 41 38
51 28 27
52 53 50
49 41 40
40 25 24
35 7 7
86 24 23
44 11 10
56 13 12
50 10 10
50 13 12
54 14 13
52 11 11
54 14 13
59 16 15
51 11 11
63 15 15
48 11 10
54 14 13
69 18 18
71 15 14
48 12 11
61 16 16
55 13 13
65 19 17
62 16 16
54 14 14
85 18 17
55 15 14
57 16 15
75 19 19
66 17 16
55 16 15
70 18 18
58 14 13
58 16 15
65 16 15
62 16 16
65 18 17
59 16 16
61 16 15
58 15 15
44 11 10
52 13 12
70 18 18
59 16 16
61 15 15
73 19 19
75 21 20
74 18 17
53 15 14
69 16 16
72 18 18
69 18 18
64 15 15
66 18 17
38 12 10
61 17 16
59 16 16
41 11 11
60 16 15
66 18 17
65 15 14
72 16 16
56 12 12
56 15 15
50 13 12
68 19 18
67 18 18
70 19 18
63 17 16
65 15 15
66 16 16
38 11 10
64 17 17
68 20 18
61 16 16
51 11 10
49 13 12
69 19 19
73 19 18
61 16 16
55 14 14
33 8 8
33 7 7
0 0 0
0 0 0
0 0 0
0 0 0
0 0 0
0 0 0
0 0 0
0 0 0
0 0 0
0 0 0
0 0 0
0 0 0
0 0 0
0 0 0
0 0 0
0 0 0
0 0 0
0 0 0
0 0 0
0 0 0
0 0 0
0 0 0
0 0 0
0 0 0
0 0 0
0 0 0
0 0 0
14 25 14
23 41 23
21 41 23
22 45 24
21 39 22
23 39 22
22 42 24
24 36 19
25 46 26
22 43 23
23 40 23
32 54 31
20 38 19
25 48 26
20 39 22
21 38 21
28 53 30
26 49 28
19 38 21
28 50 27
25 46 26
34 65 36
26 42 24
26 46 26
26 47 26
28 31 16
24 48 26
21 40 22
28 52 29
26 44 25
24 44 23
23 43 22
27 46 26
20 37 20
23 41 23
29 53 30
28 49 28
26 51 28
30 54 31
27 51 28
19 36 20
37 63 36
25 45 25
23 45 25
25 38 21
20 34 19
26 51 28
24 42 23
31 56 31
25 45 23
26 50 28
23 39 22
27 52 26
23 41 21
28 51 29
23 43 23
29 56 32
22 38 21
27 47 26
24 40 22
30 56 31
31 61 34
22 43 23
27 51 29
25 45 25
23 42 23
23 43 22
20 38 20
19 33 18
23 43 23
20 40 20
21 41 23
22 44 24
26 39 22
22 39 22
23 44 24
24 40 21
18 32 17
17 32 16
29 63 30
21 31 19
39 49 39
62 51 43
57 58 52
21 21 12
54 44 38
43 43 32
43 42 37
48 50 40
52 48 44
35 44 32
61 60 48
37 36 29
56 57 50
50 55 47
41 48 41
67 71 66
37 48 36
57 54 50
52 53 45
36 34 27
47 52 45
40 45 39
41 49 37
43 56 44
54 55 47
42 46 39
46 46 41
54 57 53
50 54 48
51 49 42
54 56 47
44 46 41
65 55 43
78 61 50
47 59 46
47 58 46
74 50 43
43 48 35
51 58 46
46 37 29
65 75 60
55 58 51
42 55 42
60 60 52
43 36 30
61 60 54
50 40 34
45 42 32
56 65 54
43 48 38
47 60 48
67 59 53
65 54 45
33 41 31
39 42 38
47 54 45
38 48 36
46 58 44
59 61 50
53 54 46
52 55 41
61 57 49
46 56 45
53 54 44
75 72 65
52 56 47
55 47 44
51 37 35
53 53 46
53 62 53
37 42 36
48 56 46
65 64 57
50 52 44
49 48 40
47 50 43
65 51 42
48 53 48
51 53 45
42 47 41
44 46 39
64 59 56
43 49 40
40 46 33
46 43 36
55 52 47
60 57 53
57 55 48
46 48 38
47 67 49
61 61 53
55 60 53
81 90 81
49 57 48
46 45 38
57 64 52
56 59 51
54 46 44
53 55 49
60 69 51
55 69 55
41 54 42
46 49 43
65 67 57
50 60 49
57 55 50
75 79 71
46 58 43
75 71 65
61 59 53
57 56 51
67 62 58
63 72 60
44 47 40
57 56 49
63 52 48
77 65 58
49 50 41
52 56 49
61 50 44
43 46 39
53 56 47
44 44 35
49 50 42
58 59 54
55 48 43
65 68 55
63 61 54
60 62 47
63 63 55
62 62 56
107 63 55
58 46 42
68 66 63
69 64 56
69 64 57
70 67 64
70 62 56
53 49 41
69 68 63
78 62 58
70 71 64
61 65 53
66 69 64
69 73 66
79 84 68
51 52 46
62 62 56
64 66 59
56 54 50
62 65 56
65 62 59
48 49 45
51 44 40
62 65 57
49 54 47
255 255 255
255 255 255
255 255 255
255 255 255
255 255 255
255 255 255
255 255 255
255 255 255
255 255 255
255 255 255
255 255 255
255 255 255
255 255 255
255 255 255
255 255 255
255 255 255
255 255 255
255 255 255
255 255 255
255 255 255
255 255 255
255 255 255
255 255 255
255 255 255
255 255 255
255 255 255
255 255 255
255 255 255
255 255 255
255 255 255
255 255 255
255 255 255
255 255 255
255 255 255
255 255 255
255 255 255
255 255 255
255 255 255
255 255 255
255 255 255
255 255 255
255 255 255
255 255 255
255 255 255
255 255 255
255 255 255
255 255 255
255 255 255
255 255 255
255 255 255
255 255 255
255 255 255
255 255 255
255 255 255
255 255 255
255 255 255
255 255 255
255 255 255
255 255 255
255 255 255
255 255 255
255 255 255
255 255 255
255 255 255
255 255 255
255 255 255
255 255 255
255 255 255
255 255 255
255 255 255
255 255 255
255 255 255
255 255 255
255 255 255
255 255 255
255 255 255
255 255 255
255 255 255
255 255 255
255 255 255
255 255 255
255 255 255
255 255 255
255 255 255
255 255 255
255 255 255
255 255 255
255 255 255
255 255 255
255 255 255
255 255 255
255 255 255
255 255 255
255 255 255
255 255 255
255 255 255
255 255 255
255 255 255
58 44 39
66 55 53
59 59 54
54 48 42
54 45 41
68 58 56
65 62 49
52 31 30
59 47 45
75 72 58
57 50 42
75 65 62
75 65 60
61 46 45
63 52 49
50 41 39
50 38 35
59 50 48
66 63 57
55 51 49
61 54 50
61 43 38
63 54 46
37 46 32
78 75 72
63 52 50
50 40 39
57 53 47
46 45 39
65 57 53
61 51 50
68 44 42
51 39 38
106 42 41
74 69 61
80 66 64
53 37 32
58 51 48
56 50 45
55 54 45
62 34 33
90 82 78
61 42 42
72 56 45
57 47 47
67 51 48
65 46 43
73 63 61
56 44 40
60 43 37
47 50 43
67 59 56
62 53 48
64 49 44
66 51 47
46 42 33
140 109 108
55 47 43
59 43 39
55 47 43
64 60 55
89 82 81
70 57 52
85 80 72
59 65 53
51 29 29
58 40 40
75 57 54
54 53 50
57 38 35
45 34 28
60 48 47
67 57 52
56 38 38
44 27 26
57 35 33
67 45 44
71 58 52
55 45 45
66 60 56
75 57 57
65 50 49
57 31 30
63 49 44
65 42 37
61 51 41
71 49 46
71 54 51
62 35 34
59 38 35
64 44 43
55 40 37
61 31 31
65 56 49
68 45 44
67 54 42
78 51 51
63 38 33
68 49 48
69 63 59
53 39 34
78 59 58
60 50 37
46 38 34
83 59 56
72 62 58
92 81 81
71 52 52
84 78 75
51 41 39
62 49 47
53 43 43
67 42 41
75 53 47
58 45 40
58 38 36
60 50 47
54 38 30
57 40 33
46 39 34
55 30 29
64 39 39
61 39 37
70 71 66
75 61 61
52 40 40
51 30 30
57 33 27
55 48 44
47 32 29
62 47 39
61 43 43
59 40 36
82 45 41
58 66 43
61 41 41
54 37 34
62 44 39
75 62 60
50 45 43
51 40 39
50 23 22
72 57 52
65 55 46
57 41 37
53 41 41
40 28 24
64 38 35
49 51 42
47 40 34
56 41 40
39 35 35
50 34 31
29 12 11
40 27 26
40 35 32
60 43 35
60 32 32
47 12 11
45 11 11
49 13 13
48 9 7
42 11 10
51 12 11
73 16 16
60 16 15
55 15 14
54 10 10
51 12 12
47 13 11
60 16 15
41 9 8
53 15 14
59 15 14
62 17 17
56 13 12
73 18 17
55 14 14
83 11 10
66 17 16
88 22 22
62 17 16
59 16 15
45 13 11
61 15 14
59 16 15
42 11 10
55 11 11
65 16 16
54 14 13
83 22 22
54 14 13
66 16 16
69 18 17
75 20 19
59 14 14
62 17 17
63 16 16
63 15 15
80 19 18
60 17 16
75 16 15
62 14 14
41 11 10
52 13 12
55 14 14
53 14 14
68 18 18
60 16 14
71 16 15
81 22 21
86 20 19
52 13 12
67 18 18
68 17 17
42 11 11
48 13 12
79 22 21
55 14 12
82 22 21
64 17 16
41 11 10
59 16 16
114 16 14
40 10 10
57 14 14
38 10 10
53 14 14
50 13 13
59 14 14
83 18 17
59 16 15
59 16 16
52 12 12
57 15 15
129 16 16
53 13 12
38 8 8
0 0 0
0 0 0
0 0 0
0 0 0
0 0 0
0 0 0
0 0 0
0 0 0
0 0 0
0 0 0
0 0 0
0 0 0
0 0 0
0 0 0
0 0 0
0 0 0
0 0 0
0 0 0
0 0 0
0 0 0
0 0 0
0 0 0
0 0 0
0 0 0
0 0 0
0 0 0
0 0 0
15 28 16
25 40 23
20 36 18
19 31 18
27 50 28
21 38 22
20 29 17
25 49 28
21 38 22
30 56 32
25 35 20
15 20 10
23 39 21
30 55 31
29 48 27
34 64 36
26 48 27
21 39 22
28 52 29
29 54 30
19 30 17
28 54 31
21 41 22
26 48 27
24 35 19
21 38 20
31 58 33
19 30 16
21 35 20
35 66 37
28 49 27
30 56 32
30 58 33
25 41 23
25 44 24
23 42 24
27 44 24
34 64 36
13 20 9
20 42 23
25 49 26
25 46 26
25 51 28
30 59 32
36 72 40
28 55 29
36 70 39
28 51 28
26 48 26
24 40 23
19 39 21
26 45 25
27 48 27
26 48 27
22 38 20
26 48 28
33 52 29
35 61 35
30 50 28
21 42 22
25 48 27
20 36 20
29 62 31
14 22 11
23 48 25
21 40 21
28 55 30
31 48 27
23 41 22
24 43 23
30 53 30
25 46 26
17 34 17
22 37 20
24 36 19
22 23 12
22 35 18
23 37 21
19 35 19
20 42 21
29 51 28
49 53 47
48 46 35
50 46 42
40 42 32
61 51 49
50 61 50
51 46 39
38 50 39
40 58 42
49 65 49
43 47 36
48 49 46
48 54 46
45 51 40
44 49 40
42 51 38
60 58 48
45 50 42
59 61 50
42 43 33
36 41 34
46 50 43
38 41 35
62 63 57
51 53 46
50 52 42
44 53 44
56 54 42
49 47 40
33 39 27
56 60 54
56 58 51
54 55 50
50 41 32
40 45 30
44 48 38
46 43 36
51 56 45
37 50 35
77 76 71
51 58 51
61 67 49
62 51 39
43 52 41
57 66 52
35 46 34
64 66 58
73 75 67
60 65 57
28 37 28
75 78 67
68 69 62
58 61 54
50 50 44
41 54 39
75 71 65
40 46 35
56 55 45
54 55 47
60 54 48
68 67 55
51 48 38
53 48 39
54 63 54
41 43 31
48 49 40
54 53 44
59 48 43
51 43 39
37 51 38
49 49 43
52 62 51
53 41 37
43 50 44
31 42 30
56 58 53
59 58 53
43 47 41
69 57 53
58 56 50
66 62 56
58 71 51
48 53 41
53 62 51
57 50 43
41 47 40
70 73 63
77 58 50
52 52 48
56 56 47
69 71 64
67 68 58
53 61 52
57 62 54
58 62 58
59 58 54
54 61 51
69 74 67
75 78 71
52 53 47
62 58 52
64 67 56
62 59 54
59 55 45
45 41 34
67 59 54
59 62 58
49 48 38
58 63 57
42 43 36
58 63 57
52 48 44
69 75 64
52 54 46
55 52 50
51 51 42
65 59 53
48 51 43
53 65 51
72 64 51
58 61 53
72 73 64
79 75 69
69 60 55
64 60 57
61 62 53
62 61 54
53 53 50
66 58 50
53 59 50
70 60 56
50 53 47
50 45 42
61 50 49
65 70 62
45 46 42
65 65 59
74 70 65
50 53 44
56 59 50
43 53 43
71 65 64
50 47 41
69 68 62
70 64 56
60 61 52
50 51 48
87 52 47
65 51 48
60 63 53
73 77 70
59 55 50
57 59 54
65 59 56
65 72 58
71 65 61
255 255 255
255 255 255
255 255 255
255 255 255
255 255 255
255 255 255
255 255 255
255 255 255
255 255 255
255 255 255
255 255 255
255 255 255
255 255 255
255 255 255
255 255 255
255 255 255
255 255 255
255 255 255
255 255 255
255 255 255
255 255 255
255 255 255
255 255 255
255 255 255
255 255 255
255 255 255
255 255 255
255 255 255
255 255 255
255 255 255
255 255 255
255 255 255
255 255 255
255 255 255
255 255 255
255 255 255
255 255 255
255 255 255
255 255 255
255 255 255
255 255 255
255 255 255
255 255 255
255 255 255
255 255 255
255 255 255
255 255 255
255 255 255
255 255 255
255 255 255
255 255 255
255 255 255
255 255 255
255 255 255
255 255 255
255 255 255
255 255 255
255 255 255
255 255 255
255 255 255
255 255 255
255 255 255
255 255 255
255 255 255
255 255 255
255 255 255
255 255 255
255 255 255
255 255 255
255 255 255
255 255 255
255 255 255
255 255 255
255 255 255
255 255 255
255 255 255
255 255 255
255 255 255
255 255 255
255 255 255
255 255 255
255 255 255
255 255 255
255 255 255
255 255 255
255 255 255
255 255 255
255 255 255
255 255 255
255 255 255
255 255 255
255 255 255
255 255 255
255 255 255
255 255 255
255 255 255
255 255 255
255 255 255
60 45 45
75 59 57
54 47 39
63 48 47
66 52 49
63 55 52
58 49 47
57 50 48
75 66 60
72 63 59
75 56 52
62 46 45
69 57 55
65 56 52
88 73 68
60 45 40
55 50 44
54 49 45
58 45 43
48 37 36
80 72 69
63 48 45
48 29 27
64 49 47
53 36 34
44 48 37
64 51 46
72 55 52
57 41 38
56 51 48
69 57 46
72 55 51
69 60 56
66 58 56
79 62 56
63 56 56
75 61 59
64 39 36
64 62 56
58 45 43
43 22 22
75 61 58
60 48 43
64 53 51
52 57 48
244 244 242
61 52 50
58 54 50
61 36 32
68 50 48
67 63 55
48 30 26
71 47 47
60 56 55
65 50 50
54 48 40
63 49 48
66 40 39
58 41 36
69 58 54
54 33 32
54 42 40
46 33 32
53 42 35
59 36 35
69 60 56
57 45 44
55 43 41
60 57 50
49 33 32
54 48 44
69 51 48
69 50 49
64 45 45
62 51 46
65 49 44
44 38 31
78 67 64
67 48 48
54 47 42
45 33 30
65 53 51
60 51 46
84 68 67
49 33 32
65 52 46
56 38 29
55 42 41
65 41 30
83 49 43
63 50 49
70 52 52
60 43 43
67 46 40
53 50 45
73 58 58
67 53 50
85 50 48
88 75 74
49 29 27
59 44 44
49 34 33
63 45 40
50 37 37
49 31 31
64 53 47
60 48 45
57 44 41
65 49 47
61 39 39
57 36 36
59 41 38
59 38 37
65 51 47
66 47 45
58 41 41
52 42 38
75 56 56
56 38 37
59 42 40
35 29 29
56 46 37
60 51 42
51 37 33
68 50 48
60 32 32
61 44 44
58 43 42
63 44 42
56 40 40
52 44 41
70 58 56
208 38 36
70 37 37
64 43 42
57 42 39
54 41 40
58 44 43
94 50 47
58 48 46
63 47 37
55 39 38
50 25 24
53 41 37
81 17 15
68 57 50
50 44 39
96 51 43
66 53 53
38 38 31
54 35 33
53 46 41
57 52 49
56 32 29
49 41 41
39 41 34
43 21 21
39 10 9
51 11 10
63 14 14
54 13 13
56 14 13
67 16 16
62 18 16
63 16 15
51 17 13
68 17 17
64 13 13
47 11 10
62 17 16
49 13 12
62 17 17
56 16 14
61 17 16
50 10 10
63 15 15
54 14 13
44 12 11
51 13 12
54 14 13
64 16 15
69 19 18
76 21 20
68 18 17
76 20 19
70 18 17
61 17 16
63 17 16
85 22 22
51 13 12
64 16 15
57 13 13
49 14 13
62 16 16
48 12 12
69 18 17
65 16 15
49 15 13
73 19 18
45 13 12
90 21 20
73 19 19
54 15 14
156 43 42
65 17 17
44 13 12
57 16 15
58 16 15
61 17 16
50 13 13
48 13 12
71 21 19
49 13 13
68 18 18
66 13 12
52 14 13
74 20 19
61 16 15
55 14 13
49 14 13
62 16 16
55 12 12
46 13 12
61 17 16
66 15 14
45 11 11
50 12 12
43 13 11
69 19 18
53 14 13
47 12 11
58 16 15
62 17 16
58 16 15
41 12 10
67 18 18
39 10 9
37 10 10
0 0 0
0 0 0
0 0 0
0 0 0
0 0 0
0 0 0
0 0 0
0 0 0
0 0 0
0 0 0
0 0 0
0 0 0
0 0 0
0 0 0
0 0 0
0 0 0
0 0 0
0 0 0
0 0 0
0 0 0
0 0 0
0 0 0
0 0 0
0 0 0
0 0 0
0 0 0
0 0 0
26 50 28
20 40 21
23 42 23
23 41 22
42 83 47
22 42 23
26 50 27
22 35 20
31 55 31
32 56 32
31 57 33
26 48 28
30 55 30
31 54 30
26 47 27
24 44 24
27 49 28
26 47 26
23 43 24
23 39 22
17 31 17
29 52 29
37 51 29
23 43 23
26 51 28
23 42 23
24 44 24
31 60 34
33 65 35
25 47 26
26 48 27
41 72 40
26 44 24
21 38 21
22 39 22
21 40 22
25 44 24
31 58 33
23 43 24
32 55 31
31 55 31
31 58 33
30 51 29
18 31 16
20 36 20
22 37 21
21 36 19
29 51 28
33 65 36
33 61 34
34 60 34
19 38 21
28 53 29
28 52 29
23 44 24
32 52 29
19 35 19
29 55 31
32 56 31
27 48 27
24 46 26
20 33 18
33 48 27
30 54 30
27 54 29
23 50 25
32 56 31
32 55 29
21 38 20
20 34 18
24 43 23
22 48 24
25 43 23
15 26 10
26 49 24
40 57 33
26 33 18
26 55 28
21 39 21
17 32 17
23 41 23
21 39 21
41 41 32
46 42 35
61 54 52
44 52 43
75 54 48
38 35 32
42 39 32
22 28 19
53 45 38
66 60 54
53 50 42
35 34 23
62 59 55
58 60 54
42 43 36
34 42 33
52 59 52
56 64 49
48 53 42
53 58 51
58 59 51
58 61 53
59 59 54
35 39 33
44 39 31
61 70 49
57 57 45
55 61 51
47 52 42
62 67 57
60 58 52
57 60 49
51 56 49
45 52 45
45 45 39
56 55 44
42 42 32
43 43 38
40 50 41
77 58 53
61 57 49
56 65 57
51 57 49
35 50 33
51 51 47
42 52 41
98 174 105
38 40 32
49 52 40
53 45 40
33 44 33
63 70 60
45 51 46
55 56 48
43 48 43
44 49 37
53 46 39
63 49 41
64 62 54
72 73 65
47 54 46
58 56 52
54 68 53
41 49 39
53 53 45
55 56 44
28 33 27
57 58 52
59 59 52
69 73 63
61 46 42
88 88 83
65 59 49
52 59 46
43 49 41
42 47 41
59 63 57
40 44 38
48 50 40
60 62 47
55 59 50
48 54 47
76 62 57
53 54 49
60 64 56
44 44 42
65 71 59
62 65 52
55 57 50
53 51 42
56 50 43
46 55 39
55 55 52
63 52 42
56 53 46
51 42 35
55 37 34
56 46 43
60 54 50
59 62 53
59 58 52
52 47 40
77 64 63
53 51 44
72 64 58
106 45 36
59 55 47
60 66 59
61 56 47
56 67 52
56 59 52
57 59 51
69 65 60
64 57 51
51 53 45
75 77 70
69 66 60
61 59 50
56 49 46
56 55 51
50 61 51
72 62 54
54 58 46
58 61 54
51 50 45
48 54 48
54 50 44
63 57 51
50 52 47
52 58 51
55 58 50
61 64 55
62 60 54
85 55 54
64 67 62
50 52 47
71 55 48
61 59 53
70 68 60
55 54 50
63 58 52
85 88 78
64 63 55
48 47 38
48 48 43
65 62 55
69 61 55
67 56 51
58 60 53
61 65 57
69 67 63
51 59 50
53 48 46
71 65 59
68 69 61
77 81 77
255 255 255
255 255 255
255 255 255
255 255 255
255 255 255
255 255 255
255 255 255
255 255 255
255 255 255
255 255 255
255 255 255
255 255 255
255 255 255
255 255 255
255 255 255
255 255 255
255 255 255
255 255 255
255 255 255
255 255 255
255 255 255
255 255 255
255 255 255
255 255 255
255 255 255
255 255 255
255 255 255
255 255 255
255 255 255
255 255 255
255 255 255
255 255 255
255 255 255
255 255 255
255 255 255
255 255 255
255 255 255
255 255 255
255 255 255
255 255 255
255 255 255
255 255 255
255 255 255
255 255 255
255 255 255
255 255 255
255 255 255
255 255 255
255 255 255
255 255 255
255 255 255
255 255 255
255 255 255
255 255 255
255 255 255
255 255 255
255 255 255
255 255 255
255 255 255
255 255 255
255 255 255
255 255 255
255 255 255
255 255 255
255 255 255
255 255 255
255 255 255
255 255 255
255 255 255
255 255 255
255 255 255
255 255 255
255 255 255
255 255 255
255 255 255
255 255 255
255 255 255
255 255 255
255 255 255
255 255 255
255 255 255
255 255 255
255 255 255
255 255 255
255 255 255
255 255 255
255 255 255
255 255 255
255 255 255
255 255 255
255 255 255
255 255 255
255 255 255
255 255 255
255 255 255
255 255 255
85 75 75
53 44 43
66 58 54
64 50 46
59 50 48
62 59 52
70 51 45
56 45 43
58 53 51
68 52 49
69 58 55
101 91 90
46 54 44
83 65 61
82 59 59
65 54 50
70 64 57
64 46 44
53 46 42
80 169 73
48 43 37
70 69 59
62 57 48
60 53 45
63 59 54
64 54 50
81 76 74
69 49 46
62 49 47
63 39 36
63 49 45
80 66 63
57 48 44
54 48 42
68 64 57
60 56 53
83 74 69
75 33 29
57 37 36
70 48 45
68 55 53
55 42 42
71 67 55
65 50 44
70 58 55
69 47 43
60 43 41
63 48 47
66 47 47
54 44 38
62 53 45
132 61 61
115 50 50
55 49 45
52 52 44
61 38 34
56 44 43
59 50 40
108 69 67
58 41 40
65 51 50
59 38 37
80 62 61
63 60 52
55 48 42
49 32 30
44 38 27
81 65 60
62 49 46
83 62 62
92 58 56
77 58 52
50 36 31
87 72 61
72 45 42
52 38 34
65 74 58
66 57 50
47 36 33
71 62 58
140 33 29
57 40 40
53 37 33
45 28 26
65 50 46
77 52 49
55 55 52
49 38 37
50 43 41
39 19 18
58 40 37
63 62 52
68 38 37
66 51 49
81 69 67
72 40 38
67 47 41
51 41 40
67 49 45
52 33 27
78 61 59
62 57 51
61 59 55
53 44 37
41 34 27
129 118 117
65 44 44
68 62 57
66 50 42
55 38 37
57 49 48
111 100 99
55 39 35
56 49 36
64 47 45
52 42 41
61 40 40
54 41 35
59 45 44
59 41 35
65 38 38
62 50 48
58 49 45
56 40 37
41 38 35
43 29 25
67 45 44
46 36 31
70 63 59
58 42 39
74 43 42
68 44 41
89 103 85
63 34 31
63 40 37
44 29 25
59 59 44
48 41 31
58 40 34
53 46 44
68 33 29
46 37 34
50 38 33
54 33 28
60 42 37
46 38 35
63 44 38
67 51 49
61 43 37
52 45 39
64 48 45
83 71 69
75 24 22
54 40 37
100 43 38
61 59 55
64 31 27
49 12 12
65 15 15
53 13 12
40 10 8
45 9 8
71 20 19
36 9 8
60 16 16
56 14 13
52 11 11
80 13 12
36 10 8
57 14 13
53 13 12
62 16 15
47 13 12
64 15 15
60 16 15
54 14 13
72 18 18
66 15 15
44 12 11
47 12 11
64 17 16
73 19 19
67 18 17
67 17 17
72 20 19
62 16 16
77 20 20
64 17 16
82 22 22
56 16 15
61 17 16
56 14 13
57 15 15
108 29 29
72 17 17
57 15 15
62 16 15
68 17 16
54 14 14
48 13 12
61 11 10
66 18 17
55 15 14
66 19 18
79 21 20
57 15 15
74 19 19
76 21 20
77 21 20
54 13 12
61 18 17
60 16 16
58 15 15
67 17 17
60 16 16
63 17 17
54 15 14
67 17 17
63 11 11
69 18 17
57 16 15
60 15 14
49 12 12
35 10 9
51 15 14
54 14 14
64 17 17
51 14 13
52 14 14
57 15 14
38 11 10
59 17 16
63 17 16
58 15 15
59 16 15
52 15 14
33 10 9
58 16 14
46 12 12
0 0 0
0 0 0
0 0 0
0 0 0
0 0 0
0 0 0
0 0 0
0 0 0
0 0 0
0 0 0
0 0 0
0 0 0
0 0 0
0 0 0
0 0 0
0 0 0
0 0 0
0 0 0
0 0 0
0 0 0
0 0 0
0 0 0
0 0 0
0 0 0
0 0 0
0 0 0
0 0 0
18 34 19
30 55 31
17 30 17
18 29 16
28 52 30
27 49 27
36 68 37
24 47 27
25 47 27
28 48 28
30 58 32
31 58 33
19 35 19
24 47 26
25 48 27
22 38 22
24 49 25
22 42 24
32 59 34
25 42 23
30 54 30
28 51 29
30 58 33
21 41 23
34 67 38
32 63 35
25 45 26
24 46 25
31 58 32
32 51 29
27 44 25
28 49 28
29 53 30
20 32 18
21 41 23
23 43 24
29 51 29
28 51 29
29 56 31
32 62 36
31 61 33
22 40 22
27 65 30
32 54 31
31 59 32
19 32 18
24 57 26
23 43 24
23 48 26
34 66 37
27 49 27
20 39 21
28 53 30
29 52 28
26 49 27
27 45 25
30 55 30
29 53 30
35 65 36
27 48 28
28 55 29
24 46 25
28 49 28
25 39 21
24 45 23
23 38 21
23 42 23
25 39 21
27 46 26
26 40 22
29 58 31
22 40 22
23 36 20
24 43 23
22 41 23
22 42 22
21 40 21
17 35 18
21 37 21
23 36 19
34 64 36
20 36 17
21 37 20
35 47 35
69 62 52
29 32 28
53 47 42
58 52 47
55 50 41
47 34 30
61 59 53
49 53 49
43 53 41
66 48 39
44 49 40
50 58 42
30 37 28
43 42 32
60 62 50
45 57 45
66 55 46
69 52 44
36 37 35
48 47 41
59 53 51
50 89 44
47 57 48
48 51 38
42 37 31
58 58 52
32 42 32
56 62 56
52 49 40
70 49 44
56 61 53
42 46 38
53 55 46
54 50 40
62 52 48
52 54 46
43 40 35
66 65 53
58 59 49
54 55 48
73 51 42
59 44 39
34 38 32
51 54 47
24 40 24
65 57 45
56 56 47
73 70 66
68 57 54
52 57 50
53 54 42
50 41 37
56 59 52
37 40 30
54 56 50
57 57 51
49 50 40
50 52 43
57 60 54
51 51 43
56 68 47
56 56 49
32 41 31
62 51 48
52 58 49
59 51 46
52 63 51
46 46 39
49 55 48
53 58 46
55 66 55
61 56 49
52 53 49
51 56 46
52 52 44
55 63 50
57 62 53
43 48 41
62 65 57
66 66 54
55 60 53
44 51 43
130 131 129
48 42 34
53 53 45
70 76 58
47 50 40
55 65 49
59 46 36
43 47 42
46 43 35
38 51 39
56 54 48
59 62 56
62 53 51
49 54 46
51 53 45
46 55 42
60 61 54
59 67 58
59 46 40
73 66 61
50 57 50
47 48 43
65 67 63
51 48 41
59 59 51
56 56 50
67 67 62
58 56 54
46 45 40
65 67 55
57 58 49
65 63 54
59 72 54
60 64 57
63 68 62
46 43 39
48 56 49
61 64 58
70 63 59
64 58 51
45 46 40
66 60 54
76 67 62
61 58 52
40 53 36
56 66 55
77 66 58
66 54 47
61 61 55
48 52 45
68 61 53
60 52 49
60 52 45
52 47 44
52 54 46
50 47 39
72 62 58
75 69 67
54 62 53
64 59 51
61 51 48
68 43 41
86 78 74
50 50 40
60 57 53
68 60 53
74 65 61
59 54 54
49 53 44
67 69 60
54 57 50
58 61 54
255 255 255
255 255 255
255 255 255
255 255 255
255 255 255
255 255 255
255 255 255
255 255 255
255 255 255
255 255 255
255 255 255
255 255 255
255 255 255
255 255 255
255 255 255
255 255 255
255 255 255
255 255 255
255 255 255
255 255 255
255 255 255
255 255 255
255 255 255
255 255 255
255 255 255
255 255 255
255 255 255
255 255 255
255 255 255
255 255 255
255 255 255
255 255 255
255 255 255
255 255 255
255 255 255
255 255 255
255 255 255
255 255 255
255 255 255
255 255 255
255 255 255
255 255 255
255 255 255
255 255 255
255 255 255
255 255 255
255 255 255
255 255 255
255 255 255
255 255 255
255 255 255
255 255 255
255 255 255
255 255 255
255 255 255
255 255 255
255 255 255
255 255 255
255 255 255
255 255 255
255 255 255
255 255 255
255 255 255
255 255 255
255 255 255
255 255 255
255 255 255
255 255 255
255 255 255
255 255 255
255 255 255
255 255 255
255 255 255
255 255 255
255 255 255
255 255 255
255 255 255
255 255 255
255 255 255
255 255 255
255 255 255
255 255 255
255 255 255
255 255 255
255 255 255
255 255 255
255 255 255
255 255 255
255 255 255
255 255 255
255 255 255
255 255 255
255 255 255
255 255 255
255 255 255
255 255 255
55 44 42
59 52 50
62 54 50
72 67 63
53 45 41
62 57 54
66 54 53
53 49 44
54 46 44
50 45 41
64 61 55
65 62 58
59 66 57
74 43 39
95 55 44
74 62 60
74 51 45
75 85 67
64 63 55
60 44 42
69 62 58
55 36 33
62 41 35
64 59 56
80 77 74
59 50 42
79 61 59
51 52 40
74 56 55
62 55 52
54 39 31
66 54 52
78 65 63
75 64 64
40 40 30
62 52 48
53 49 45
67 42 42
53 48 41
75 56 50
66 61 56
50 42 36
66 57 53
79 70 69
77 58 50
66 51 47
67 64 61
76 69 69
52 50 48
60 54 48
66 52 44
55 45 45
44 28 24
62 60 54
64 43 38
63 55 52
70 50 43
65 51 51
63 48 46
63 52 48
86 88 69
65 48 40
50 41 37
49 45 40
66 45 44
68 49 48
64 44 44
47 39 37
57 48 43
58 47 46
62 50 48
59 46 42
40 37 29
67 44 40
71 50 43
74 63 60
98 84 82
51 31 31
64 50 48
67 46 44
99 93 84
56 42 42
65 55 51
56 37 36
58 47 43
60 52 46
80 64 60
69 53 52
63 50 44
69 59 58
41 33 27
61 47 46
68 46 46
69 49 46
54 34 28
76 49 45
66 51 47
45 34 34
50 42 41
73 59 49
71 53 49
55 40 36
64 59 56
70 61 59
72 41 41
59 40 39
81 62 59
70 49 47
115 54 53
73 41 40
61 43 39
52 31 29
77 53 50
69 59 54
48 27 25
69 56 49
52 28 28
55 43 40
73 53 50
59 46 44
47 33 32
74 54 53
94 82 81
76 38 36
67 42 42
75 67 60
45 33 31
41 29 28
60 45 43
69 61 59
41 20 20
56 47 45
56 39 38
70 51 51
50 38 34
58 44 44
56 32 32
57 36 36
60 54 48
77 47 45
49 41 38
47 31 28
70 45 42
51 35 35
55 48 46
52 46 41
53 42 41
55 42 42
89 51 50
50 32 31
89 30 30
51 37 31
48 35 34
49 41 39
46 42 33
39 17 16
44 9 8
53 12 12
66 13 12
52 12 11
90 21 20
50 13 12
45 10 9
62 13 13
65 18 16
67 17 17
67 14 13
70 21 17
70 19 18
61 15 15
65 18 17
48 12 12
68 18 18
63 15 15
63 17 16
73 15 14
59 14 14
58 16 15
47 11 10
46 12 12
63 17 16
59 16 15
57 14 13
131 16 15
62 15 15
52 16 13
77 21 20
66 17 17
62 14 12
48 13 12
59 15 15
63 15 15
52 13 13
58 16 15
83 22 21
62 15 14
47 12 12
57 15 14
77 20 20
67 18 18
67 17 17
49 13 12
67 18 17
46 12 12
68 23 19
71 19 18
73 19 18
61 15 14
66 17 17
97 19 18
68 17 17
69 18 18
65 18 17
70 17 16
56 15 15
79 22 22
74 20 20
58 16 16
48 13 13
68 19 18
54 15 15
78 19 19
79 20 19
30 8 7
75 19 18
85 22 22
53 14 14
49 14 13
78 21 20
85 16 15
63 16 15
56 16 15
52 13 12
49 14 13
79 25 20
34 10 8
47 13 13
47 13 12
28 8 7
0 0 0
0 0 0
0 0 0
0 0 0
0 0 0
0 0 0
0 0 0
0 0 0
0 0 0
0 0 0
0 0 0
0 0 0
0 0 0
0 0 0
0 0 0
0 0 0
0 0 0
0 0 0
0 0 0
0 0 0
0 0 0
0 0 0
0 0 0
0 0 0
0 0 0
0 0 0
0 0 0
17 34 19
28 51 29
15 26 14
28 53 31
23 42 24
16 34 17
21 38 21
28 52 29
28 40 22
20 39 21
21 35 19
21 41 21
21 36 20
20 37 21
22 43 24
28 45 25
29 51 29
15 28 16
29 40 23
30 55 31
26 50 28
27 52 29
26 44 25
27 53 30
24 41 23
29 51 29
29 53 29
24 45 25
25 46 26
23 47 26
26 51 26
25 46 25
29 56 30
21 39 22
25 45 25
29 56 32
21 33 18
37 69 39
21 41 23
27 50 28
23 41 23
29 51 29
37 68 39
26 42 23
28 62 29
27 54 30
30 59 33
30 56 31
33 62 35
26 54 29
31 56 32
26 47 26
27 50 28
52 98 56
30 57 32
28 67 30
20 36 20
29 57 31
23 41 23
27 48 27
34 62 35
31 59 34
31 58 33
26 46 25
27 52 28
23 39 22
20 35 20
24 46 25
26 48 26
19 31 18
26 54 28
23 43 23
23 47 24
19 35 19
25 46 25
21 39 20
22 39 21
25 38 18
24 45 24
17 31 17
21 35 19
17 26 14
22 43 22
23 35 20
24 42 25
61 38 28
46 47 36
39 45 36
49 50 44
41 51 41
37 50 37
38 39 28
38 47 38
56 48 44
53 41 36
51 52 48
54 57 51
47 44 35
81 79 74
48 46 41
41 44 34
49 40 33
53 47 34
48 47 37
51 54 47
45 51 42
54 38 32
42 45 38
33 36 30
45 41 37
45 52 46
42 44 41
55 52 37
60 57 52
57 54 43
55 45 35
34 29 25
50 54 45
60 50 45
42 46 39
62 57 51
61 72 57
61 58 46
40 42 34
41 44 36
42 56 38
48 51 43
56 59 49
48 47 40
41 48 38
41 45 38
53 61 52
42 49 36
53 56 51
47 55 44
40 44 35
49 59 48
50 57 50
52 54 46
44 42 35
48 48 42
63 57 49
53 57 49
54 53 47
46 46 38
54 51 40
50 47 39
63 54 44
42 51 38
57 61 53
70 67 57
40 47 37
61 55 50
62 61 52
60 45 39
60 61 53
55 61 51
61 59 54
55 64 55
61 61 55
55 56 49
52 59 45
42 47 35
45 52 45
63 57 51
41 47 38
64 71 59
58 79 51
59 62 54
66 65 53
72 66 56
53 54 45
57 59 48
58 63 51
56 64 54
56 59 51
65 68 60
64 54 48
71 59 51
61 49 47
62 62 55
60 52 45
50 62 50
55 60 51
60 53 47
50 51 44
65 71 57
66 68 59
69 59 53
53 60 49
80 68 66
73 58 58
60 64 53
44 47 43
53 55 48
63 59 55
42 48 30
51 49 44
60 60 56
60 63 55
65 72 65
62 66 57
52 52 48
64 61 55
51 49 45
49 51 44
48 56 44
58 60 52
71 54 51
42 43 38
68 63 59
88 62 54
76 72 68
60 54 45
76 60 54
62 62 51
70 52 44
56 54 47
62 58 55
59 56 51
55 62 52
67 82 64
75 73 68
57 48 42
57 61 54
58 63 56
56 53 49
51 55 46
59 57 51
67 50 48
52 55 44
58 60 50
70 70 64
53 53 46
51 56 46
63 57 52
75 60 57
63 69 61
255 255 255
255 255 255
255 255 255
255 255 255
255 255 255
255 255 255
255 255 255
255 255 255
255 255 255
255 255 255
255 255 255
255 255 255
255 255 255
255 255 255
255 255 255
255 255 255
255 255 255
255 255 255
255 255 255
255 255 255
255 255 255
255 255 255
255 255 255
255 255 255
255 255 255
255 255 255
255 255 255
255 255 255
255 255 255
255 255 255
255 255 255
255 255 255
255 255 255
255 255 255
255 255 255
255 255 255
255 255 255
255 255 255
255 255 255
255 255 255
255 255 255
255 255 255
255 255 255
255 255 255
255 255 255
255 255 255
255 255 255
255 255 255
255 255 255
255 255 255
255 255 255
255 255 255
255 255 255
255 255 255
255 255 255
255 255 255
255 255 255
255 255 255
255 255 255
255 255 255
255 255 255
255 255 255
255 255 255
255 255 255
255 255 255
255 255 255
255 255 255
255 255 255
255 255 255
255 255 255
255 255 255
255 255 255
255 255 255
255 255 255
255 255 255
255 255 255
255 255 255
255 255 255
255 255 255
255 255 255
255 255 255
255 255 255
255 255 255
255 255 255
255 255 255
255 255 255
255 255 255
255 255 255
255 255 255
255 255 255
255 255 255
255 255 255
255 255 255
255 255 255
255 255 255
255 255 255
70 58 54
51 39 38
74 51 45
83 58 56
66 65 55
69 48 44
55 39 38
61 44 42
107 105 103
61 48 47
69 48 44
57 46 41
61 52 50
81 63 58
219 81 76
63 56 51
69 57 47
71 60 53
62 50 46
70 68 54
61 45 40
69 56 54
63 57 52
71 72 58
60 53 50
65 57 54
59 55 50
64 58 55
63 57 48
65 62 53
42 38 32
45 30 29
78 58 54
67 53 50
65 53 50
63 49 48
52 47 40
66 57 49
77 53 49
55 52 50
75 64 59
54 43 40
64 54 54
55 51 43
53 44 43
74 52 50
60 51 50
56 46 45
66 59 53
50 37 33
54 31 31
57 45 43
50 41 39
58 51 44
74 58 58
65 43 43
64 55 44
66 42 37
61 49 44
79 59 56
77 54 54
81 73 71
68 49 47
76 58 53
80 79 60
60 42 39
52 39 33
60 52 49
70 56 55
50 43 42
63 50 49
43 40 37
64 45 44
59 43 39
65 44 44
66 52 45
51 35 33
86 41 40
64 47 47
47 38 32
62 56 45
65 48 45
64 49 48
61 41 36
72 55 55
67 44 42
36 18 18
46 33 33
66 56 55
102 90 88
51 38 34
72 63 57
45 23 22
54 50 48
52 39 38
36 39 30
70 44 40
42 30 25
85 47 43
63 47 45
70 54 48
71 42 38
54 31 28
59 34 32
61 51 48
82 74 72
60 37 37
55 46 41
65 44 41
68 44 42
43 34 32
78 44 42
64 56 50
103 100 95
68 48 45
67 56 48
163 160 159
63 48 44
69 49 48
53 35 35
58 51 41
46 31 29
62 53 52
54 39 38
72 50 47
64 52 46
64 46 42
60 37 37
73 55 53
41 30 28
59 41 40
47 37 34
61 50 45
61 43 38
52 33 33
51 38 36
66 49 45
61 43 35
53 49 38
54 38 38
47 39 38
47 40 37
46 33 29
53 42 41
51 36 28
49 33 27
55 36 35
40 26 25
55 17 17
57 53 53
51 38 38
49 33 33
54 32 32
54 45 44
39 19 16
48 13 12
39 10 9
59 14 14
38 10 9
70 19 19
34 9 7
58 16 15
74 13 12
54 15 14
52 13 12
58 15 14
49 13 12
52 14 13
56 16 14
53 14 14
58 16 15
64 17 16
62 16 16
84 20 19
68 16 15
68 15 15
68 18 17
68 18 17
64 17 16
54 14 14
74 20 20
41 10 8
43 9 9
67 18 17
58 14 14
61 14 14
60 16 16
66 18 17
72 18 18
70 19 17
64 16 15
61 16 15
46 12 11
72 19 19
63 17 16
46 13 12
70 18 17
44 12 11
44 11 11
61 16 16
56 13 11
54 16 14
62 17 16
80 21 20
60 16 16
59 16 16
41 12 11
59 14 14
46 13 12
67 15 15
61 16 16
51 15 13
53 14 14
58 13 13
72 20 19
92 24 24
43 12 11
64 17 17
66 16 16
50 13 12
73 20 18
58 16 15
44 11 11
62 17 16
51 13 13
46 9 8
77 21 21
53 13 13
48 14 13
38 11 10
49 10 10
73 19 19
62 15 15
54 15 15
48 13 13
75 20 20
70 19 19
51 15 13
47 12 12
0 0 0
0 0 0
0 0 0
0 0 0
0 0 0
0 0 0
0 0 0
0 0 0
0 0 0
0 0 0
0 0 0
0 0 0
0 0 0
0 0 0
0 0 0
0 0 0
0 0 0
0 0 0
0 0 0
0 0 0
0 0 0
0 0 0
0 0 0
0 0 0
0 0 0
0 0 0
0 0 0
13 25 14
20 37 21
15 25 14
16 30 16
22 41 24
29 61 33
19 31 17
23 41 23
14 22 11
20 38 21
22 39 21
32 59 32
26 46 26
27 43 24
28 56 31
22 46 24
27 48 27
21 37 21
23 37 20
28 52 30
31 56 32
31 60 32
31 56 32
23 45 25
25 47 26
19 35 20
24 45 25
31 61 30
26 52 28
33 59 33
28 55 29
22 41 22
25 50 27
30 57 32
27 47 25
28 50 29
24 42 23
25 48 27
29 67 32
41 80 45
31 57 32
25 46 26
17 23 11
27 49 28
27 53 30
33 60 34
22 37 20
30 58 32
26 39 22
26 50 28
30 56 32
28 52 29
29 56 31
43 82 47
25 44 25
46 88 51
26 46 26
29 51 28
22 42 23
28 47 26
23 42 22
24 46 26
26 52 28
25 50 27
24 46 25
23 46 24
29 50 28
28 57 31
25 49 27
22 40 22
25 46 26
29 53 30
23 45 24
27 51 28
23 42 23
33 62 35
26 48 27
30 53 28
23 45 24
28 43 23
20 40 20
35 67 37
19 31 17
20 32 17
18 36 19
79 33 27
52 51 45
70 69 64
43 42 38
56 60 53
44 52 44
51 44 32
52 55 50
45 43 39
59 67 55
23 32 23
52 59 49
44 47 43
60 58 43
45 47 37
38 42 37
37 49 34
45 43 36
52 58 47
32 38 26
40 44 39
35 38 29
56 56 48
56 73 51
62 47 39
54 46 40
69 62 56
47 42 32
68 46 43
52 66 53
47 61 47
40 48 40
37 53 37
44 51 35
36 45 34
52 47 38
60 64 56
35 38 33
52 51 44
48 45 39
51 52 46
72 75 62
48 59 46
43 56 43
56 53 50
57 58 48
44 49 41
39 39 31
50 52 45
66 61 54
40 44 38
51 51 44
51 48 46
38 40 35
71 52 45
53 47 38
63 56 47
60 55 50
47 57 42
50 53 46
51 58 50
67 76 58
60 53 46
41 49 39
70 55 46
54 72 54
49 44 40
70 59 49
53 49 45
54 56 46
58 66 52
53 59 47
91 52 48
57 43 36
50 49 43
61 59 51
52 57 48
54 54 46
51 63 51
51 43 40
56 50 47
78 53 44
59 50 46
97 159 102
47 55 45
60 59 51
39 42 34
74 68 65
44 44 40
57 58 48
60 56 46
63 62 55
88 82 74
68 70 60
59 55 49
51 48 42
62 52 47
40 40 35
68 72 64
55 48 37
44 44 37
65 58 52
66 69 62
59 59 54
59 57 50
70 66 63
59 58 53
47 57 46
67 65 57
67 62 57
70 62 56
50 48 38
40 47 37
57 54 49
75 82 71
61 50 40
63 63 59
56 65 56
72 63 52
66 62 58
65 59 49
57 59 52
69 58 41
51 51 43
44 38 34
60 59 52
62 60 50
73 73 63
72 74 68
71 47 44
70 55 48
59 62 55
70 66 61
67 61 57
50 44 40
57 61 53
61 58 56
60 66 53
81 87 79
40 27 23
55 58 51
59 58 51
54 52 49
65 66 58
58 56 50
72 66 61
52 53 46
63 62 49
72 69 66
65 62 59
75 69 66
63 67 58
50 49 45
125 126 121
189 190 186
203 202 200
191 190 188
197 197 195
201 201 199
201 201 200
195 190 188
197 195 194
206 207 204
192 193 191
201 201 199
193 197 193
190 189 188
199 193 192
202 203 201
210 200 199
190 188 186
195 189 189
187 187 186
190 186 185
203 202 201
196 194 193
201 199 198
200 197 195
211 205 203
207 199 196
211 210 208
197 193 192
204 203 201
202 201 200
204 204 202
199 197 196
207 198 198
197 195 194
193 190 188
210 210 208
187 187 186
200 200 199
205 204 202
195 193 192
199 195 194
201 198 196
208 206 205
205 204 203
199 198 197
201 202 200
204 200 199
195 195 194
201 197 194
194 193 192
193 191 190
191 192 188
199 197 196
190 188 187
200 197 196
200 200 198
196 192 191
193 192 190
195 192 191
195 193 192
204 203 203
204 202 200
199 196 195
197 196 195
212 210 209
198 198 196
200 196 195
194 191 190
211 207 206
199 198 197
195 193 191
207 206 204
211 206 205
197 191 190
193 186 186
197 197 195
200 196 195
196 195 194
197 196 194
192 184 184
195 194 191
197 196 195
195 193 192
201 198 197
191 188 188
201 201 200
202 197 196
197 191 189
198 198 197
198 197 196
197 192 191
191 189 188
204 199 197
195 192 191
123 125 122
63 41 38
70 67 64
49 51 42
71 56 53
57 44 37
71 51 47
53 54 46
60 55 52
91 82 76
51 53 45
121 116 114
59 47 47
62 52 51
72 45 42
65 68 54
60 53 49
51 52 46
66 50 49
63 46 43
76 57 56
64 60 59
75 71 69
69 58 55
52 39 31
79 68 65
57 51 44
62 56 49
51 39 35
52 43 43
89 66 58
66 51 50
64 47 40
74 74 64
230 60 55
70 54 52
58 51 46
61 45 42
73 48 41
82 58 54
81 73 71
57 43 40
62 53 49
82 54 50
54 41 39
65 55 50
78 66 65
67 52 49
66 57 52
82 46 45
68 47 47
51 35 34
61 59 52
52 40 31
50 31 31
56 43 42
52 41 39
50 49 45
56 40 35
67 45 42
62 57 52
52 41 33
48 41 30
63 45 43
61 36 35
59 56 47
72 63 59
52 31 30
62 50 48
58 49 44
61 43 41
67 53 45
70 76 46
55 44 38
42 36 28
60 46 40
55 42 38
47 47 43
59 42 41
66 42 37
69 39 38
99 47 45
65 52 51
55 56 51
67 50 46
71 44 37
73 58 54
57 41 40
64 42 36
83 74 70
64 50 42
46 37 32
78 43 40
74 58 57
73 43 40
78 67 64
64 42 41
57 43 41
71 58 58
62 37 36
61 48 42
55 40 34
62 51 49
78 44 42
51 37 34
55 48 42
131 123 123
65 38 32
68 50 44
55 42 42
66 51 48
97 56 55
64 35 33
43 36 32
74 62 57
59 39 36
56 50 49
89 73 72
52 30 29
54 38 33
47 31 29
74 63 58
65 51 48
60 47 47
51 37 35
52 39 29
66 42 39
92 34 32
85 19 19
117 112 111
60 58 48
58 40 37
70 61 58
43 31 31
53 55 45
62 39 38
61 50 50
50 33 31
54 36 36
64 47 47
62 44 43
45 30 28
73 54 53
54 41 41
52 43 39
56 45 40
56 45 38
82 40 38
54 40 35
59 40 40
46 35 35
49 35 35
57 49 49
34 29 28
67 13 12
44 9 8
60 14 14
40 11 10
41 8 7
36 10 8
58 12 11
44 10 9
58 13 11
36 9 7
65 17 17
50 13 12
61 16 15
71 19 18
33 9 8
73 19 18
58 14 14
56 15 14
66 17 17
58 16 15
57 14 14
84 22 22
63 17 16
60 16 15
50 14 13
66 16 14
67 17 16
60 17 16
78 20 20
66 17 17
72 18 18
71 17 17
58 16 15
64 16 16
51 13 13
78 21 21
74 20 19
79 20 20
59 17 16
55 14 14
64 17 17
67 18 18
58 15 14
42 11 10
52 13 12
67 19 18
60 18 16
51 14 14
66 19 18
69 18 17
54 15 14
56 15 14
83 20 20
63 17 16
46 13 11
84 23 23
53 13 12
70 18 18
54 14 14
57 15 14
60 16 16
70 18 18
67 18 18
56 14 13
62 17 16
73 19 19
46 13 12
54 14 13
59 15 15
58 15 15
54 13 13
54 15 15
51 15 13
53 14 14
48 13 12
59 16 16
66 18 18
60 16 16
76 19 19
58 16 16
63 17 16
46 12 12
57 15 15
36 10 9
63 17 16
36 10 9
0 0 0
0 0 0
0 0 0
0 0 0
0 0 0
0 0 0
0 0 0
0 0 0
0 0 0
0 0 0
0 0 0
0 0 0
0 0 0
0 0 0
0 0 0
0 0 0
0 0 0
0 0 0
0 0 0
0 0 0
0 0 0
0 0 0
0 0 0
0 0 0
0 0 0
0 0 0
0 0 0
11 18 10
26 47 27
25 47 27
26 49 27
20 37 21
28 53 29
18 27 15
21 31 16
19 33 18
30 51 29
23 41 23
23 41 23
27 50 28
24 41 23
29 47 26
26 44 25
27 54 30
25 47 27
37 70 40
27 49 27
29 53 30
25 42 24
25 42 22
18 31 16
21 39 22
26 52 28
26 53 29
26 45 25
19 33 18
31 57 32
21 35 20
26 52 28
32 62 35
27 50 27
28 55 31
24 40 22
34 55 30
25 47 25
28 54 29
24 45 25
29 55 31
25 51 27
38 71 40
28 56 30
29 54 30
33 56 32
29 55 31
21 37 19
29 52 30
30 55 31
42 78 45
33 62 35
28 52 29
26 49 27
51 99 56
27 53 29
28 43 24
23 47 26
29 56 31
21 41 21
24 30 16
34 61 34
29 52 29
26 44 24
27 47 27
33 60 34
45 88 50
26 47 27
14 28 14
26 52 27
31 83 36
27 54 29
27 44 24
30 49 27
28 56 31
26 48 26
24 43 23
25 44 25
23 40 22
27 50 28
20 37 20
28 50 28
19 35 19
13 26 12
34 64 36
22 43 23
25 49 26
65 37 32
55 55 47
51 48 42
57 50 46
37 44 37
28 40 29
102 90 86
35 46 35
45 40 31
47 42 36
32 32 26
49 55 49
47 44 37
52 56 50
39 43 36
39 44 36
35 42 33
42 47 39
45 45 36
55 48 43
50 50 45
59 59 48
59 63 55
49 44 33
155 66 56
44 53 40
49 49 44
51 47 39
47 62 48
33 38 28
61 53 46
45 46 40
67 56 44
61 74 58
53 74 50
57 54 46
44 48 40
50 41 38
46 52 46
55 56 48
57 56 50
61 53 47
50 52 46
56 59 52
58 60 49
57 55 48
53 65 47
46 54 44
57 53 44
60 63 56
56 60 49
47 54 46
47 43 34
69 72 64
60 49 41
51 41 36
51 50 44
59 54 41
56 58 52
55 62 50
55 49 46
57 54 50
59 56 48
103 70 61
59 54 47
52 46 43
49 59 44
47 45 39
41 47 40
39 47 38
52 41 38
37 45 38
78 65 55
55 61 54
58 57 52
69 69 58
61 57 52
55 62 54
78 64 62
66 61 51
86 81 75
62 56 49
40 42 35
70 54 46
75 79 71
54 48 44
53 58 51
68 87 64
69 118 64
46 50 45
69 68 60
59 59 53
55 55 48
65 70 63
66 67 62
55 66 53
60 63 59
61 58 51
44 49 41
54 49 45
67 61 54
55 53 46
48 54 46
50 43 37
67 69 62
49 42 35
56 53 48
54 55 47
57 57 48
62 54 49
76 61 56
72 60 56
53 56 51
62 60 56
57 53 50
54 52 45
65 58 54
51 59 52
61 61 57
55 47 40
50 69 52
53 53 47
77 73 64
68 58 53
58 57 54
60 64 57
51 39 38
54 53 45
63 65 59
50 55 43
56 51 47
67 54 49
106 97 95
61 58 54
59 54 41
67 67 56
53 57 45
57 57 47
74 72 65
53 55 43
68 74 66
65 55 52
66 71 59
61 57 53
66 65 63
57 61 56
59 56 55
64 70 62
55 51 49
65 50 47
65 62 58
46 42 36
62 69 59
64 58 53
65 58 54
69 69 63
51 40 35
75 70 66
69 56 54
79 58 52
51 48 45
54 59 51
74 71 65
73 70 59
63 38 37
52 53 47
64 53 50
56 46 44
59 55 51
72 65 59
59 62 58
70 53 46
51 50 46
71 72 66
65 61 59
66 81 60
66 68 56
71 66 61
78 80 75
56 55 51
77 66 60
57 52 48
67 66 63
53 47 44
61 59 56
57 56 51
62 58 55
60 46 44
67 65 57
71 61 58
65 61 57
72 64 59
61 58 56
66 71 63
47 40 36
131 64 63
60 55 51
64 54 53
70 64 62
58 37 32
66 64 63
60 57 54
66 54 54
76 65 62
75 74 64
64 63 60
73 56 54
54 54 51
66 57 46
61 55 53
68 61 59
70 63 58
54 48 43
59 61 53
64 56 54
72 65 55
64 61 51
63 55 54
63 43 38
72 69 62
66 51 51
66 60 57
60 60 52
51 41 41
64 43 41
40 39 35
57 49 46
59 50 47
58 52 50
72 66 63
78 51 49
81 62 61
59 59 51
41 31 30
59 55 50
47 44 38
58 48 47
66 62 59
63 50 45
61 51 39
72 67 62
60 65 48
83 76 73
80 70 64
68 52 51
74 69 63
63 57 51
72 73 65
67 53 47
57 44 41
66 62 53
64 55 52
57 54 48
71 58 54
76 75 69
67 58 57
57 51 49
58 50 48
54 46 44
44 38 34
59 51 48
60 58 52
51 36 34
60 51 48
67 52 50
78 56 51
71 44 42
63 47 43
70 58 57
62 59 53
61 58 54
68 53 48
61 54 50
87 63 59
66 55 53
57 43 42
46 38 32
59 55 51
51 29 28
65 51 46
66 55 46
63 52 50
75 59 56
63 51 46
61 52 50
51 33 33
56 39 39
71 62 59
69 51 48
72 48 48
60 45 45
57 46 45
75 82 68
74 65 56
64 44 38
59 44 41
96 89 85
68 49 47
62 39 35
50 38 35
73 44 37
49 37 37
78 72 69
88 59 55
66 46 45
97 89 88
81 66 63
55 40 33
57 47 37
51 46 36
63 48 48
66 52 48
64 39 39
60 39 39
58 33 33
75 67 59
57 36 34
53 34 28
76 44 40
65 43 41
55 52 44
63 41 39
62 43 37
63 50 45
79 67 66
76 55 54
44 28 28
56 45 45
63 53 49
64 46 42
62 57 51
57 47 42
58 30 28
61 47 45
72 39 34
59 46 39
98 91 87
43 26 24
76 48 45
71 53 46
70 39 39
64 44 43
57 51 49
56 42 38
53 36 35
46 27 26
75 56 52
64 49 45
66 51 45
71 54 47
87 56 54
73 70 64
49 41 33
47 38 36
63 54 50
54 43 42
68 55 50
46 31 31
52 40 36
59 41 38
67 46 46
92 54 52
57 42 41
49 24 23
61 44 41
52 38 38
54 37 35
60 49 47
59 39 39
68 59 59
57 46 45
53 38 31
67 42 38
57 42 42
52 28 26
54 44 39
71 64 58
48 37 34
70 51 51
51 45 43
69 65 56
79 47 46
68 62 61
59 42 41
65 47 45
62 55 49
56 39 39
53 47 40
46 35 34
55 43 43
105 61 44
52 41 37
41 32 32
45 35 30
59 49 48
63 46 46
63 40 38
52 39 38
62 36 35
47 23 20
71 17 16
82 21 20
46 10 9
61 16 16
58 14 13
50 12 12
56 15 15
50 14 12
65 15 14
63 17 16
55 15 13
43 12 11
77 20 19
87 23 23
53 14 13
62 15 14
82 22 21
47 13 12
55 14 14
46 15 11
58 14 13
46 12 11
62 17 16
57 14 14
56 15 14
70 18 18
72 19 18
78 16 16
115 31 31
56 11 10
52 12 11
51 12 12
55 13 13
59 16 15
66 18 17
75 20 19
55 14 12
45 11 10
55 14 14
76 20 20
85 23 23
82 22 22
79 20 20
107 29 29
69 18 17
73 20 19
70 18 18
55 15 14
57 16 15
58 16 15
77 22 20
56 16 14
77 21 20
47 13 12
60 15 14
61 16 16
72 20 19
68 16 15
56 15 13
60 16 15
86 24 23
62 16 16
58 14 13
63 17 17
74 20 19
71 19 19
65 17 17
56 16 15
49 13 12
66 18 17
72 20 19
31 8 8
66 18 17
62 14 13
60 17 16
56 13 13
68 18 17
23 5 4
78 21 21
27 6 4
49 14 13
67 18 18
71 16 16
64 17 16
55 13 13
60 16 16
0 0 0
0 0 0
0 0 0
0 0 0
0 0 0
0 0 0
0 0 0
0 0 0
0 0 0
0 0 0
0 0 0
0 0 0
0 0 0
0 0 0
0 0 0
0 0 0
0 0 0
0 0 0
0 0 0
0 0 0
0 0 0
0 0 0
0 0 0
0 0 0
0 0 0
0 0 0
0 0 0
19 35 20
24 43 24
29 47 26
27 48 27
31 48 28
28 58 30
27 53 30
30 58 33
26 52 27
29 53 29
25 41 21
15 31 15
27 52 29
26 45 26
27 52 29
25 48 27
19 33 18
71 137 79
38 59 33
29 56 31
29 58 31
31 56 32
26 47 27
16 27 15
26 48 27
25 45 26
27 40 23
28 56 30
29 55 30
39 74 42
19 34 19
24 44 25
31 58 33
22 38 21
30 56 31
29 54 31
28 54 30
30 57 32
27 51 28
31 59 34
34 62 35
19 30 16
19 33 18
29 58 31
23 44 24
23 43 25
27 53 30
30 56 32
32 59 33
26 50 27
25 54 27
31 56 32
25 46 25
29 52 29
25 46 25
32 68 35
42 58 33
25 41 22
28 60 29
17 35 18
25 47 25
23 41 23
31 55 31
23 43 23
27 56 29
19 35 19
26 45 22
37 67 37
27 52 29
22 40 21
27 51 29
25 46 25
30 56 31
22 43 23
25 45 23
23 46 25
26 47 26
30 56 32
27 47 26
30 62 33
26 52 28
24 47 25
18 33 18
18 28 14
17 33 17
15 31 14
15 26 12
29 37 27
61 58 55
49 45 41
45 44 38
50 54 50
62 49 39
77 43 38
68 56 48
62 66 55
23 22 22
52 49 43
51 48 39
50 40 34
47 53 40
38 46 37
74 70 63
52 43 36
53 49 43
50 59 49
45 41 33
52 57 49
39 50 40
38 46 38
75 62 53
32 41 28
57 65 50
42 48 41
54 67 53
69 68 62
60 63 55
55 52 46
45 45 38
30 36 30
51 60 47
41 49 39
56 54 50
53 67 53
49 55 49
65 56 48
39 45 34
53 59 50
65 65 56
42 49 41
51 58 51
44 46 39
38 46 39
49 45 37
50 60 44
35 44 34
39 47 36
56 56 48
53 75 55
39 46 39
75 61 47
56 65 53
64 66 58
57 62 52
61 58 53
55 61 54
30 36 26
52 64 52
52 60 47
59 58 50
54 61 51
53 57 49
60 63 57
61 64 58
57 49 46
49 53 42
51 51 43
47 48 37
46 46 40
62 56 49
59 75 59
65 61 54
55 59 51
60 67 55
73 67 63
62 56 52
35 39 27
41 44 40
60 45 39
81 74 67
69 74 66
58 56 47
49 57 44
51 51 48
58 57 50
46 43 38
60 64 55
46 54 46
42 44 41
60 55 50
94 58 51
52 54 50
58 67 53
67 54 46
57 51 46
58 45 36
57 53 45
50 55 49
64 63 57
56 59 48
46 48 40
58 54 46
51 50 43
64 56 52
73 62 55
64 57 53
71 73 63
54 52 45
56 57 50
128 128 126
53 62 53
70 60 53
52 52 41
48 49 48
59 56 53
69 59 51
63 58 55
63 48 47
64 64 51
64 63 55
69 53 50
54 61 53
61 58 55
51 43 39
56 58 53
69 51 48
61 50 45
71 58 58
59 58 52
66 62 54
66 57 52
57 54 44
57 50 42
66 64 53
67 59 55
58 52 44
49 44 41
62 66 58
75 64 59
67 59 57
75 75 71
70 75 67
60 58 54
81 72 69
64 63 56
79 68 59
53 57 50
255 63 56
50 55 45
71 67 65
58 56 51
73 68 60
74 63 55
77 74 67
59 53 49
69 63 59
52 46 39
71 60 53
64 45 41
71 54 49
60 54 49
64 66 59
71 61 57
75 69 59
51 58 49
64 57 55
60 51 44
54 49 44
68 67 62
50 43 40
61 53 53
67 66 64
66 67 61
62 58 54
48 44 39
83 59 55
73 64 57
54 43 43
50 50 44
61 60 55
55 49 47
65 59 54
66 53 51
66 62 52
72 54 52
63 63 53
61 69 57
63 57 56
65 68 57
63 55 51
57 58 49
50 44 39
58 72 58
54 51 49
49 53 46
66 57 55
71 74 66
71 58 53
57 49 46
69 108 64
55 46 44
63 58 50
63 54 51
67 56 51
67 65 61
62 64 48
57 48 47
79 74 71
69 63 62
67 59 58
65 63 59
62 54 51
69 53 53
87 90 83
64 59 56
52 51 46
66 64 59
60 51 50
59 50 47
60 59 54
59 58 56
63 58 54
67 66 61
64 57 54
84 56 50
63 57 56
65 57 51
68 55 53
68 59 57
100 100 97
40 52 30
63 54 47
87 65 61
62 51 39
59 48 44
67 64 61
57 50 49
60 47 43
69 57 56
55 51 39
68 64 60
65 57 55
55 37 36
75 81 70
79 56 54
68 58 58
65 62 57
75 70 65
67 61 53
66 47 45
67 62 58
78 59 57
68 58 54
60 54 50
71 67 66
52 37 26
55 50 48
50 45 41
55 57 51
72 55 54
72 51 49
62 57 54
62 44 40
72 47 44
58 54 46
62 51 50
57 51 46
59 47 45
64 54 49
56 41 39
68 46 45
74 47 47
68 47 42
55 42 36
54 45 42
65 59 55
75 59 53
61 50 47
71 64 62
67 57 54
67 58 51
61 42 37
60 50 47
61 65 56
95 53 51
55 56 49
61 53 49
58 43 42
57 43 39
57 45 42
56 53 45
59 53 48
67 54 47
80 50 42
58 37 31
55 53 49
86 65 64
39 25 23
56 47 38
46 38 33
51 36 35
92 80 77
66 64 55
67 43 41
68 52 52
55 49 47
59 54 51
56 44 39
65 52 48
60 41 37
61 45 44
66 55 50
52 35 26
85 66 59
62 50 48
78 60 58
48 40 39
59 53 44
63 46 46
59 38 38
56 36 33
70 47 44
70 44 41
45 35 26
68 61 57
47 41 40
56 31 31
65 39 37
60 46 41
51 50 45
75 32 30
57 41 41
72 54 49
45 33 29
99 91 89
68 53 53
59 50 40
63 43 41
59 51 49
89 53 50
50 39 39
63 54 51
78 42 41
54 37 37
69 41 37
86 77 76
58 38 33
65 45 38
68 50 48
77 61 61
38 30 27
75 61 58
53 34 31
53 40 38
60 40 40
75 81 53
44 39 35
61 43 39
49 39 34
58 40 40
64 45 42
42 32 30
66 41 41
98 70 68
58 40 39
47 32 26
40 23 21
53 36 29
75 39 38
66 34 31
57 43 41
49 42 40
62 46 41
72 34 33
46 36 36
61 45 43
96 38 37
99 41 41
63 46 44
48 33 33
35 22 22
44 31 26
62 33 30
60 52 48
40 25 22
40 31 30
69 63 62
55 31 26
56 43 33
53 35 35
46 32 31
51 33 27
61 54 54
45 34 34
44 57 36
55 19 18
45 10 9
52 13 12
59 11 10
61 17 15
52 14 13
44 12 11
54 13 13
52 13 11
63 15 15
42 10 9
63 21 17
52 13 12
49 13 12
54 12 11
60 18 16
65 17 17
61 16 15
73 15 14
50 14 13
54 14 13
61 20 16
61 16 15
51 11 10
62 16 16
65 17 16
51 13 13
78 21 21
52 12 12
57 14 14
63 16 16
67 16 15
64 14 13
64 17 16
73 18 18
72 19 19
89 20 19
76 20 19
63 15 14
59 15 14
64 16 16
115 22 22
59 14 13
47 13 12
59 16 15
58 16 15
57 15 14
53 14 13
79 21 21
59 14 13
65 17 16
62 15 15
78 17 17
64 17 16
68 17 16
74 20 19
50 14 13
65 18 17
55 13 13
68 17 16
59 15 14
84 23 22
62 16 16
59 14 14
54 13 12
80 22 21
52 12 12
48 12 12
53 15 14
63 17 16
27 8 6
49 13 13
69 15 15
71 17 17
54 14 13
63 14 13
56 14 14
62 16 16
45 12 12
59 17 16
61 17 16
87 16 15
60 16 15
56 13 13
45 12 11
47 13 12
56 14 14
35 10 9
0 0 0
0 0 0
0 0 0
0 0 0
0 0 0
0 0 0
0 0 0
0 0 0
0 0 0
0 0 0
0 0 0
0 0 0
0 0 0
0 0 0
0 0 0
0 0 0
0 0 0
0 0 0
0 0 0
0 0 0
0 0 0
0 0 0
0 0 0
0 0 0
0 0 0
0 0 0
0 0 0
21 36 18
22 40 22
44 46 26
20 35 19
25 42 24
25 48 28
22 42 24
31 53 30
14 24 13
26 49 28
25 44 24
27 49 28
21 36 20
19 37 19
24 46 25
27 50 29
19 34 19
19 35 20
30 54 30
28 52 29
28 51 28
27 49 27
24 50 26
24 47 24
25 48 25
21 37 21
24 42 23
22 37 18
17 34 18
26 47 27
33 63 36
25 49 26
25 51 26
31 61 34
26 52 28
35 67 38
29 52 30
30 62 33
25 48 27
35 63 36
28 54 31
25 50 28
29 55 31
27 53 29
28 53 29
26 62 28
24 46 25
29 56 32
22 41 22
27 50 29
27 52 29
31 72 32
28 49 28
29 53 30
23 42 23
24 45 26
26 47 27
32 59 33
22 37 20
28 53 28
24 45 26
30 52 29
24 46 26
31 55 28
24 42 24
29 49 28
31 59 33
25 47 26
22 42 23
24 47 23
24 43 24
27 45 25
26 36 20
29 50 27
24 48 27
21 39 20
24 39 21
21 40 22
22 35 19
17 33 17
25 47 26
20 40 21
26 48 26
24 43 23
25 44 24
19 34 19
28 60 29
24 33 18
18 29 16
44 46 40
38 39 35
49 49 45
37 42 35
73 48 41
38 53 39
48 41 36
37 47 37
52 53 47
43 32 25
50 55 50
56 49 42
28 41 28
52 53 44
36 50 38
56 57 46
39 36 29
36 46 37
40 50 37
56 54 50
61 51 42
41 58 42
46 42 34
54 49 45
39 47 39
48 48 40
56 53 43
56 61 51
52 57 44
37 53 39
52 48 44
42 36 31
51 54 47
61 52 47
61 57 48
59 62 52
61 44 40
58 64 54
74 80 73
50 52 46
47 57 46
84 86 82
68 70 59
35 43 33
49 56 45
50 57 44
53 49 43
72 66 58
51 54 46
64 61 49
47 49 37
54 58 53
56 69 53
50 52 44
44 57 44
51 66 50
58 78 55
68 68 61
55 54 49
45 38 30
58 52 46
52 55 49
68 64 62
69 70 64
69 58 48
55 65 55
63 54 51
61 65 58
57 60 52
54 53 48
47 46 38
43 49 39
64 60 51
74 65 54
55 56 50
65 62 56
50 57 49
63 60 55
65 66 56
59 57 54
45 41 32
55 54 49
59 58 52
67 57 54
54 54 48
65 66 60
57 56 49
50 52 49
65 65 59
75 47 41
47 47 44
55 46 44
60 62 57
62 70 55
52 54 45
60 52 48
50 48 44
67 71 58
71 61 54
58 54 46
60 53 46
76 65 56
68 71 66
60 59 54
61 57 47
72 64 56
56 62 49
63 53 49
64 60 54
69 65 57
56 60 53
51 50 43
39 38 31
48 57 49
59 56 51
92 55 49
54 52 47
60 54 48
51 48 45
62 61 53
78 58 52
53 50 46
66 52 50
64 57 51
58 55 47
62 61 54
51 57 50
61 58 52
67 66 61
49 48 44
67 72 67
57 52 45
51 51 45
59 55 51
58 58 49
52 55 49
49 48 44
46 56 45
79 73 69
55 60 52
72 39 36
46 55 44
61 55 48
48 54 45
73 78 71
57 62 56
73 70 63
62 60 53
75 70 68
55 58 49
63 65 61
63 60 53
58 64 55
66 58 50
76 71 69
77 75 71
67 58 52
71 65 61
54 52 46
62 61 54
38 35 31
52 49 45
48 43 40
55 51 46
76 68 65
47 48 44
79 58 53
61 53 49
75 65 61
54 51 47
51 53 44
63 57 53
55 50 43
78 72 68
60 64 54
65 61 60
54 54 49
73 62 58
49 55 47
95 81 79
52 52 51
51 53 47
54 51 46
59 50 45
75 63 61
64 53 52
42 45 36
77 65 62
62 57 55
74 66 63
64 63 58
43 50 40
60 60 53
56 44 41
65 55 51
68 56 52
65 62 54
89 86 83
87 68 61
70 70 68
74 71 67
69 67 62
70 63 59
58 56 52
62 50 48
79 67 63
54 51 48
71 61 57
79 191 79
45 48 37
69 66 61
51 47 40
60 45 40
58 53 51
66 53 46
57 45 45
69 66 61
60 60 54
69 69 61
62 57 52
47 57 41
69 50 48
53 40 40
64 60 57
76 81 70
83 73 71
51 51 43
59 58 46
64 56 52
44 40 37
68 66 64
58 54 50
61 48 46
59 42 40
62 47 44
52 40 37
77 59 58
68 59 56
69 67 60
74 69 64
39 35 31
49 41 35
59 57 52
64 57 52
56 52 48
72 60 57
79 71 66
72 65 59
76 66 60
61 35 31
72 67 63
65 55 53
86 73 73
53 44 42
70 57 56
63 49 47
81 65 62
68 56 49
63 44 43
56 56 53
51 50 40
68 54 47
58 46 44
45 43 41
51 51 45
63 44 43
126 52 47
66 60 55
52 43 41
51 46 44
57 44 42
52 48 41
71 55 52
54 46 42
51 46 44
64 52 49
51 44 42
85 63 57
77 61 60
52 44 41
52 40 39
62 49 44
65 52 48
66 51 46
72 68 57
52 46 41
54 41 36
66 62 57
59 41 38
61 45 42
49 40 31
50 44 38
63 52 46
58 53 45
65 51 46
61 43 42
57 45 45
50 37 33
47 40 33
63 40 38
63 48 45
69 54 50
63 68 51
75 58 56
75 56 53
55 41 39
54 46 44
63 56 52
84 22 22
60 31 29
69 45 43
61 53 47
62 56 52
57 48 45
70 48 47
68 52 47
81 61 60
51 46 40
80 68 63
60 40 39
95 71 71
87 62 60
59 44 41
88 79 76
50 43 36
73 40 39
71 56 50
61 51 48
66 54 52
53 44 41
65 48 46
79 55 49
54 40 35
85 81 78
65 51 50
83 59 57
89 63 59
82 56 53
95 80 76
62 51 41
68 56 56
64 49 47
56 42 41
56 44 40
59 41 39
51 37 21
72 72 49
55 46 41
82 69 68
59 45 40
66 63 50
68 51 44
78 54 51
55 53 46
42 31 27
53 28 22
66 55 53
66 51 49
71 46 44
56 30 30
61 42 34
61 30 28
62 47 45
64 47 45
63 37 37
110 56 53
91 66 65
63 65 52
98 43 39
54 40 38
61 37 34
55 31 28
49 38 34
43 31 27
71 57 53
71 67 64
71 45 45
54 29 29
43 30 29
57 43 42
50 44 35
55 29 28
52 41 39
67 48 47
51 48 45
53 38 34
61 41 38
52 39 38
53 37 33
49 30 29
50 46 38
56 36 35
51 42 42
53 40 37
42 39 35
41 17 17
42 11 10
43 11 10
56 10 10
65 16 15
61 16 15
55 13 12
83 22 22
70 14 13
65 17 17
56 14 13
40 11 9
62 17 16
56 15 14
50 15 12
49 13 12
40 13 10
58 16 15
82 21 21
64 18 17
65 19 17
74 18 18
66 16 15
83 16 16
58 14 13
80 22 21
67 16 16
53 13 12
47 12 12
61 13 13
60 15 15
68 17 17
89 21 21
56 15 15
59 14 14
59 17 15
78 17 16
71 20 19
80 18 18
74 21 19
74 20 20
67 17 17
71 24 18
60 17 16
76 21 20
66 17 17
63 17 16
62 16 16
61 16 15
55 14 14
70 19 18
91 24 23
69 18 18
43 13 11
60 15 15
59 15 15
69 18 18
77 18 18
72 19 19
55 14 13
50 15 14
75 21 20
69 18 18
53 16 14
67 17 17
66 18 17
73 18 18
65 18 18
103 14 13
72 19 19
52 16 14
73 20 20
65 18 18
79 21 21
54 14 13
30 8 8
65 18 17
61 17 17
52 14 14
49 13 13
64 18 17
62 17 16
38 11 10
77 21 20
86 24 24
46 12 11
34 11 8
44 11 11
78 21 21
0 0 0
0 0 0
0 0 0
0 0 0
0 0 0
0 0 0
0 0 0
0 0 0
0 0 0
0 0 0
0 0 0
0 0 0
0 0 0
0 0 0
0 0 0
0 0 0
0 0 0
0 0 0
0 0 0
0 0 0
0 0 0
0 0 0
0 0 0
0 0 0
0 0 0
0 0 0
0 0 0
22 40 23
26 48 27
20 46 22
23 44 24
44 87 48
25 48 27
24 42 24
26 49 28
28 53 30
26 47 27
27 41 23
29 54 30
21 37 21
19 39 20
30 56 32
20 40 22
21 39 22
31 58 33
30 56 32
26 48 27
25 40 22
34 65 37
31 61 34
27 47 26
34 57 31
27 49 26
25 49 27
24 50 25
26 43 24
59 114 65
35 64 36
26 50 26
31 62 34
28 50 29
25 47 26
15 28 14
23 45 24
32 62 35
29 53 30
32 65 34
26 54 27
30 56 31
31 55 31
26 50 28
25 43 24
26 47 26
29 55 31
33 57 31
25 49 27
26 45 24
26 49 27
32 58 31
27 49 28
29 51 27
27 56 30
31 58 31
37 70 40
31 53 28
30 55 31
30 57 31
32 60 34
28 51 29
32 60 33
29 55 31
25 45 24
32 48 28
30 54 30
24 51 24
32 55 31
27 55 29
30 58 32
29 50 27
21 40 22
34 63 36
28 55 30
23 49 23
25 45 25
26 45 25
33 64 36
26 45 25
22 42 21
20 36 20
23 45 25
21 34 18
28 52 29
24 44 24
21 41 21
20 32 17
21 39 19
36 40 33
50 43 39
51 49 44
54 41 30
54 45 40
36 44 36
32 39 27
37 44 38
53 44 39
41 45 36
77 75 67
42 43 39
47 57 45
59 67 56
51 62 51
57 61 52
78 60 53
41 40 36
51 51 47
31 41 28
58 53 47
52 48 43
48 46 39
45 53 43
50 54 47
62 65 61
42 44 37
53 52 49
41 47 38
36 40 34
40 47 37
31 38 27
49 52 48
36 41 36
49 61 50
41 49 41
47 55 46
49 55 41
53 56 50
51 51 44
67 63 55
63 58 53
48 55 43
54 53 40
48 55 46
48 56 46
68 67 61
55 48 40
51 49 44
53 54 46
82 77 71
61 56 51
59 59 46
50 58 49
42 37 24
70 46 41
58 66 58
56 55 51
56 65 55
59 52 45
66 64 56
55 61 55
55 52 50
58 71 53
58 56 51
40 47 39
49 50 45
61 65 57
66 54 47
59 60 46
55 55 44
74 57 52
69 74 63
41 48 38
47 46 40
56 61 52
61 53 41
62 58 51
56 62 55
44 58 42
48 64 47
63 68 59
57 59 51
69 69 60
78 60 50
37 46 36
60 61 56
54 59 52
60 62 58
58 57 50
72 62 53
72 70 61
52 58 51
63 62 56
55 41 38
71 71 63
67 72 61
56 61 55
60 62 56
62 56 49
55 56 50
70 71 63
66 71 62
66 68 59
62 64 49
58 63 54
51 73 49
55 53 45
62 50 45
64 64 57
64 60 56
56 58 54
64 72 60
73 67 65
52 52 48
60 58 50
73 65 63
48 51 42
50 56 47
76 75 69
52 55 47
74 80 69
60 57 52
70 74 68
59 54 51
53 59 49
74 77 68
61 61 51
77 62 53
69 62 53
82 76 73
60 65 57
70 53 51
70 70 52
67 69 64
56 48 44
51 55 46
60 75 61
49 53 44
95 82 74
58 57 52
53 54 47
70 83 67
72 74 63
55 57 54
79 61 55
62 55 48
58 51 49
69 62 54
63 59 59
59 45 41
48 40 37
62 74 59
62 64 57
77 73 70
67 58 50
72 71 67
56 54 44
72 72 65
63 49 44
59 67 49
78 73 69
53 52 48
89 72 66
73 67 61
60 54 50
62 61 46
58 62 49
98 67 64
61 54 49
64 49 44
53 57 51
57 51 47
71 53 52
64 61 50
56 66 55
46 44 40
61 58 51
56 45 40
62 48 46
57 54 49
76 60 56
64 74 61
57 57 50
54 56 52
54 55 50
66 65 62
67 62 58
50 49 46
57 52 49
55 49 45
73 48 44
66 54 49
48 51 42
59 55 50
56 53 49
76 64 56
77 48 43
67 66 62
55 57 48
53 50 47
66 67 60
62 64 55
67 67 55
54 54 44
66 60 52
60 51 46
63 54 51
89 73 67
66 49 46
60 52 46
76 78 67
59 54 51
60 61 55
90 93 87
71 56 53
64 49 46
60 55 45
58 58 51
37 41 34
71 56 55
60 53 49
59 54 50
64 59 55
68 49 47
82 65 65
67 71 65
66 47 44
46 43 33
79 71 61
57 44 41
54 54 48
71 58 55
57 37 35
65 55 48
87 83 79
73 72 64
51 47 43
64 51 47
67 44 38
75 57 54
63 50 50
65 64 61
56 51 51
57 49 49
61 60 53
61 55 49
60 56 52
62 49 43
61 57 53
63 50 48
52 38 38
53 42 41
74 64 59
47 46 41
58 48 43
73 59 58
68 55 54
67 53 52
58 45 44
66 60 54
68 66 59
50 39 38
59 55 48
47 48 40
57 37 34
54 39 37
91 52 45
95 89 87
60 49 46
81 62 58
54 45 38
63 53 51
80 71 69
58 49 47
61 57 48
54 43 41
55 38 35
74 52 51
68 53 48
65 49 45
53 43 40
54 47 47
68 41 38
60 55 54
55 51 45
73 58 47
54 50 46
78 58 55
52 33 33
72 53 48
64 52 50
86 74 68
74 53 50
70 61 55
65 49 45
55 34 33
54 45 41
54 49 46
78 71 70
56 47 41
57 43 39
96 54 51
67 56 55
57 42 42
73 48 45
64 51 46
79 76 58
68 60 58
72 53 51
159 71 71
76 74 69
72 57 52
71 65 63
69 65 63
57 45 43
57 40 39
58 44 43
50 42 36
60 60 52
52 39 33
66 50 48
56 47 43
56 44 40
68 65 57
46 28 26
102 47 45
63 48 43
55 40 35
63 55 54
55 32 31
66 67 52
44 28 27
82 60 60
48 40 39
70 50 48
65 51 45
52 30 30
60 36 36
53 48 46
72 44 44
50 42 37
66 38 38
39 30 30
55 39 38
63 41 36
68 49 47
63 36 35
75 37 34
67 54 45
56 39 36
70 37 35
55 42 40
54 51 38
60 27 23
61 54 52
52 42 42
73 43 41
59 45 43
72 60 59
67 54 49
51 33 32
68 41 40
47 32 31
58 47 44
52 37 35
60 41 34
65 38 38
53 35 35
73 59 53
55 35 33
47 31 29
58 48 44
52 47 26
57 39 39
65 35 35
64 47 41
100 41 41
44 16 16
65 49 47
58 48 40
88 77 77
58 47 47
55 33 32
40 29 29
63 43 42
46 20 19
79 46 44
57 40 37
48 35 34
55 44 41
62 54 54
80 70 68
55 41 40
40 23 22
64 15 15
48 11 11
49 13 12
55 15 13
51 13 13
41 11 10
41 10 10
31 8 7
55 12 11
69 18 17
55 14 13
57 14 14
58 13 13
72 18 18
53 14 13
68 17 16
72 16 16
70 17 16
63 16 16
95 15 15
79 22 21
49 11 11
51 14 14
69 18 18
60 15 15
71 18 18
62 17 15
51 14 13
76 17 17
61 17 16
63 16 16
72 19 18
63 17 17
71 18 18
79 20 19
73 19 19
59 16 15
76 20 19
79 21 21
61 18 16
50 13 12
56 14 14
78 21 21
51 11 10
53 14 14
66 18 17
70 19 19
68 18 17
89 21 21
90 23 23
80 16 16
64 16 16
66 18 17
74 20 19
61 16 16
60 14 14
63 17 16
90 18 18
59 17 15
74 18 17
69 18 17
52 14 13
64 17 16
70 15 14
63 18 17
61 17 17
68 18 18
76 19 18
52 13 13
63 15 15
65 17 17
71 19 19
57 15 15
52 14 13
40 13 11
41 12 11
53 15 14
69 20 18
60 14 14
75 20 20
64 18 17
30 9 8
57 15 13
45 9 8
90 18 18
45 10 10
59 17 16
51 13 13
34 9 8
0 0 0
0 0 0
0 0 0
0 0 0
0 0 0
0 0 0
0 0 0
0 0 0
0 0 0
0 0 0
0 0 0
0 0 0
0 0 0
0 0 0
0 0 0
0 0 0
0 0 0
0 0 0
0 0 0
0 0 0
0 0 0
0 0 0
0 0 0
0 0 0
0 0 0
0 0 0
0 0 0
15 25 14
28 55 30
25 50 28
29 44 25
24 46 26
22 41 24
19 36 19
26 48 27
23 44 25
30 56 32
23 44 24
28 53 29
19 33 19
26 50 29
26 48 27
30 58 32
34 62 35
23 44 25
26 53 28
27 60 29
25 47 26
30 56 32
27 52 28
29 46 26
23 39 22
26 49 27
28 50 28
27 55 28
28 50 28
37 66 38
24 44 24
22 48 24
30 58 32
25 46 26
42 79 45
31 59 34
23 46 25
28 50 28
26 53 26
44 88 48
29 59 33
26 51 28
21 37 20
36 66 38
32 54 31
22 34 19
30 60 32
32 61 35
27 52 29
33 57 32
28 54 29
29 55 30
28 54 30
24 46 26
26 53 28
30 53 30
26 51 28
24 45 26
27 50 28
37 72 41
28 54 30
27 48 26
29 54 31
35 66 37
29 56 31
23 47 25
31 54 31
27 50 27
28 53 28
19 35 20
26 48 27
24 44 24
24 44 23
34 63 33
29 50 28
26 47 25
29 71 32
21 37 20
27 43 22
26 43 25
25 45 25
30 54 30
25 47 27
32 62 35
23 41 22
19 35 20
19 29 16
21 43 23
26 43 24
15 30 15
34 39 31
60 54 52
40 44 39
36 45 31
45 52 44
61 53 50
44 53 44
53 51 45
79 52 47
63 69 52
46 53 46
42 43 35
41 42 32
61 61 55
38 40 36
36 40 34
53 58 51
55 55 46
54 56 50
61 49 42
66 79 60
31 36 23
34 43 34
54 55 48
49 49 44
49 51 44
59 52 46
52 55 44
57 59 45
42 52 40
42 54 37
43 54 42
44 41 29
48 54 44
54 48 45
71 49 42
49 53 44
64 71 59
55 59 50
68 64 59
66 83 67
51 60 51
39 47 36
39 46 39
51 50 38
70 61 52
59 51 47
47 51 43
38 46 38
37 34 27
41 55 41
43 46 36
53 57 47
80 76 69
46 54 47
47 57 47
63 54 46
78 69 64
54 65 54
62 58 47
63 65 59
73 70 65
47 51 43
48 50 44
48 48 38
57 61 53
56 59 55
48 51 47
67 82 66
64 54 47
49 49 42
63 54 49
44 47 37
46 56 45
51 51 45
66 71 60
75 63 59
58 61 51
40 47 35
58 50 41
56 56 48
68 71 59
54 56 47
89 66 60
50 60 50
66 59 52
62 61 52
47 52 43
58 49 45
56 44 38
52 49 43
52 50 45
65 59 55
51 53 50
59 50 47
57 50 45
49 54 47
50 49 43
65 64 54
82 75 64
59 59 50
51 52 43
59 59 49
46 47 40
73 73 69
53 56 48
66 67 55
60 64 59
81 65 63
64 67 59
69 53 47
60 63 55
58 48 44
59 59 52
54 50 44
69 60 57
57 57 49
60 54 52
53 60 49
66 64 58
69 66 62
50 55 49
42 44 38
67 64 57
73 63 57
56 64 50
72 44 43
66 57 53
85 73 65
55 51 47
58 56 53
58 43 37
44 43 35
62 60 52
49 54 47
67 70 64
48 43 38
53 48 43
66 61 58
70 65 60
54 54 48
58 59 50
62 51 48
70 65 60
57 60 56
63 57 55
70 45 44
79 81 75
65 70 64
55 54 50
45 43 37
72 65 61
77 72 66
82 63 58
73 65 57
65 55 49
57 57 52
64 55 54
46 45 43
64 61 54
63 67 56
70 68 63
45 45 38
64 65 59
70 59 58
56 48 41
68 62 55
65 55 49
81 53 45
63 47 46
57 52 45
57 61 54
60 59 52
59 54 47
71 67 61
68 60 52
79 74 72
64 56 55
47 59 48
58 53 45
80 53 52
58 64 55
55 67 44
73 67 63
61 54 51
66 62 60
52 47 44
54 54 48
87 75 72
47 46 37
65 64 57
66 55 51
77 63 61
68 72 64
64 49 48
78 66 61
54 50 47
61 57 52
45 42 37
77 66 65
67 66 53
71 72 62
53 43 40
74 53 48
56 53 48
73 63 59
54 57 49
36 31 28
56 46 46
44 46 40
61 56 50
75 58 55
56 49 43
72 62 58
63 59 55
60 54 49
77 69 61
41 40 37
62 54 52
54 45 45
66 65 61
60 49 47
85 62 60
74 69 65
70 62 60
60 59 56
63 62 59
66 63 62
47 33 29
66 62 57
78 56 50
83 51 49
71 66 63
56 52 47
50 47 43
74 53 51
63 57 55
62 61 55
65 48 46
44 46 39
71 51 41
59 48 41
61 59 52
70 54 50
48 49 44
67 60 54
56 58 53
66 57 53
67 56 55
75 59 57
67 61 58
54 50 45
63 62 48
67 54 45
64 44 41
61 55 52
65 55 50
54 46 46
69 60 58
72 71 59
64 52 50
56 49 46
101 86 83
60 49 48
57 51 47
67 58 57
89 90 86
53 41 39
59 48 47
63 41 41
76 65 64
68 57 53
68 61 56
85 46 42
84 67 66
49 42 41
72 62 58
70 56 51
61 59 56
62 61 57
101 62 57
68 51 48
64 46 45
95 144 87
62 51 50
59 48 42
66 66 63
58 60 52
53 36 33
69 58 54
47 43 39
72 45 44
78 72 69
57 39 39
72 55 53
72 52 50
86 77 74
61 57 53
59 54 48
54 51 40
48 44 41
49 35 32
68 49 46
70 67 58
76 58 51
57 25 20
57 48 46
65 45 41
63 46 42
58 45 37
62 57 52
65 49 44
88 64 55
57 47 43
59 44 39
54 31 30
73 76 61
48 48 38
72 46 40
64 50 49
58 42 38
49 31 30
67 51 48
57 41 40
81 59 57
62 49 43
70 46 44
51 34 34
63 36 35
74 37 35
64 41 39
56 49 45
49 37 37
56 41 39
88 64 63
70 55 51
61 47 45
68 64 51
62 43 38
56 36 34
51 26 26
67 42 42
54 41 36
68 56 53
49 43 38
72 38 38
52 34 32
58 50 48
58 46 41
47 31 31
88 69 68
65 49 43
66 52 51
57 46 45
53 48 47
60 45 43
68 55 54
63 54 45
66 36 30
54 38 38
53 32 31
70 55 50
76 70 69
54 41 37
63 42 42
55 36 31
63 52 52
65 55 55
46 32 30
59 35 35
36 21 20
62 43 43
51 35 34
53 43 42
65 43 43
60 37 37
63 49 47
67 60 58
63 40 38
41 22 16
61 53 50
87 72 72
47 44 37
60 41 33
45 29 25
45 38 38
41 33 30
51 36 35
31 23 20
63 61 58
38 35 31
40 30 26
31 17 15
42 10 10
51 10 9
39 9 6
49 12 11
42 10 9
82 20 20
47 12 11
52 15 14
65 17 17
53 13 11
75 19 18
44 11 10
73 20 19
56 15 15
62 17 16
76 21 20
57 15 15
47 12 11
52 13 12
63 18 16
65 17 16
72 18 17
69 17 17
63 16 16
72 14 14
74 19 19
76 20 19
70 19 18
68 18 17
48 13 12
81 22 21
73 17 17
49 14 13
73 19 19
63 17 16
73 19 19
73 19 19
77 19 19
77 22 21
65 19 18
62 16 16
98 22 21
76 21 20
70 19 18
52 14 13
49 12 11
57 13 13
47 12 11
67 17 17
45 14 12
77 19 19
70 18 18
62 16 16
73 18 18
52 13 13
78 21 21
58 14 13
67 20 17
51 14 13
47 11 10
66 18 17
54 15 15
71 19 19
64 16 15
60 16 16
49 13 13
61 15 14
68 18 18
64 15 15
88 24 24
68 19 18
56 15 14
59 16 15
71 20 19
62 16 16
77 21 21
52 15 14
63 18 17
59 16 16
70 20 19
64 17 16
84 22 22
51 14 13
53 15 14
61 16 15
43 12 11
72 19 18
50 11 11
44 12 11
20 6 5
0 0 0
0 0 0
0 0 0
0 0 0
0 0 0
0 0 0
0 0 0
0 0 0
0 0 0
0 0 0
0 0 0
0 0 0
0 0 0
0 0 0
0 0 0
0 0 0
0 0 0
0 0 0
0 0 0
0 0 0
0 0 0
0 0 0
0 0 0
0 0 0
0 0 0
0 0 0
0 0 0
16 29 16
20 39 22
29 54 30
21 34 19
25 47 26
29 52 29
27 51 29
29 55 31
24 46 25
24 39 21
26 48 27
19 34 20
24 48 25
20 34 19
33 60 34
22 43 24
22 42 22
18 36 19
24 46 26
28 52 30
24 44 23
23 40 22
19 39 20
25 44 24
32 62 33
28 56 31
34 65 37
31 58 32
23 40 23
26 51 29
28 51 28
23 41 22
31 58 33
30 52 29
32 62 34
29 51 29
24 45 25
29 52 30
31 56 32
29 55 32
33 59 33
26 51 29
28 54 30
21 39 21
32 60 34
29 52 29
26 47 26
27 49 27
26 49 28
24 44 25
33 66 34
25 49 27
24 44 24
24 35 19
31 64 30
29 63 30
31 61 34
27 52 29
25 47 25
33 60 32
24 51 27
27 52 28
33 61 35
31 58 32
24 42 23
32 59 33
31 57 33
26 45 24
26 43 23
27 48 27
29 53 30
30 49 27
24 45 24
27 51 29
26 45 25
25 47 26
20 35 19
28 54 29
22 45 25
22 40 21
31 37 20
26 59 28
26 52 27
26 46 25
21 41 21
22 32 17
26 35 19
32 46 24
20 37 19
20 39 21
16 25 13
27 36 26
46 42 37
50 57 43
44 37 32
42 47 40
57 57 49
42 45 40
63 45 38
34 39 32
31 38 31
52 51 44
53 47 38
42 37 27
46 49 41
56 59 54
35 48 35
53 49 42
33 41 30
51 54 41
51 60 46
56 54 48
74 71 62
51 57 44
48 54 47
75 76 70
51 53 44
43 39 34
61 64 53
34 40 31
71 67 56
56 55 46
46 56 45
53 59 51
38 42 35
43 52 41
43 43 35
43 41 37
68 60 55
47 49 43
59 61 54
40 45 37
44 47 37
49 46 39
45 47 42
53 50 43
57 55 47
48 51 46
52 57 45
45 52 44
53 54 46
43 48 38
61 58 55
47 49 38
48 43 36
55 55 50
53 57 50
51 52 46
71 58 54
72 52 43
62 60 52
62 80 61
61 61 55
57 58 52
69 72 64
45 44 35
50 51 43
74 59 55
74 67 59
59 53 48
53 57 48
63 62 56
58 47 39
45 48 38
75 76 70
55 58 54
54 54 49
68 68 63
56 44 40
46 48 41
46 48 39
55 58 51
65 70 60
35 27 21
65 65 57
52 55 47
53 69 54
50 54 48
67 68 60
57 55 51
35 44 30
60 59 50
61 63 54
65 65 61
59 57 53
68 69 64
65 65 61
63 59 51
48 56 43
51 49 42
54 52 46
57 58 52
55 54 50
57 58 50
59 66 53
64 46 42
61 57 52
57 58 52
61 73 54
68 64 60
71 55 51
71 64 56
59 69 59
59 58 51
54 61 53
61 50 46
59 56 48
51 61 48
48 52 46
62 52 48
61 65 56
65 69 62
64 63 54
80 73 67
60 69 59
65 65 60
56 61 52
93 66 60
73 63 59
66 60 56
68 68 63
78 75 72
74 66 60
60 48 43
56 45 42
55 57 49
73 57 53
70 55 52
75 65 60
67 58 52
57 56 51
57 62 51
69 63 59
47 50 42
48 46 41
59 53 44
62 61 57
61 61 57
65 60 54
57 63 53
69 75 68
73 47 42
64 63 57
60 49 48
55 65 54
59 53 48
69 64 58
57 54 50
60 63 58
58 60 52
73 54 51
81 86 71
104 61 55
59 58 53
56 52 45
64 63 58
79 70 62
57 57 53
52 50 43
73 58 55
57 53 47
53 45 43
51 53 47
48 48 44
59 57 52
64 54 48
46 44 40
57 57 52
59 55 53
64 53 48
56 62 55
69 65 60
52 44 38
64 50 48
63 59 53
79 48 47
60 60 55
60 55 52
75 63 60
66 56 51
61 52 49
61 53 52
47 42 37
72 56 54
73 73 71
47 50 45
76 63 59
57 55 50
65 50 46
68 52 48
65 57 52
67 55 50
71 60 57
67 49 45
57 60 49
57 53 51
52 53 50
54 47 44
75 54 50
66 56 52
72 64 60
159 58 51
57 42 34
65 51 46
63 64 57
59 48 45
67 58 54
47 39 36
57 51 45
53 41 40
59 34 34
64 47 44
65 53 47
43 37 35
48 49 44
56 56 48
64 50 47
59 50 44
58 56 52
52 52 42
61 62 57
61 47 46
54 55 47
67 57 57
61 60 52
67 65 60
67 44 43
65 55 48
68 58 54
56 50 45
71 63 59
75 64 62
57 40 32
74 63 56
50 43 41
57 45 44
66 41 37
56 47 40
56 49 47
52 46 43
51 56 49
62 52 48
54 43 40
58 42 41
47 42 35
91 73 72
70 49 48
58 50 45
66 45 44
54 47 44
56 40 36
57 49 38
66 55 54
63 50 47
78 65 63
56 41 36
71 57 52
57 44 39
59 30 29
79 50 46
51 50 45
73 64 61
48 48 39
47 40 40
74 57 52
65 53 46
65 54 49
65 61 52
79 64 61
64 60 56
85 69 65
76 43 40
65 41 39
69 51 46
73 56 54
51 41 40
64 48 48
76 64 49
66 51 51
69 53 52
70 54 54
62 62 53
81 50 44
66 44 44
60 49 43
59 46 43
64 48 47
112 111 110
96 99 94
77 48 45
72 54 54
46 34 31
61 50 50
52 41 35
62 61 57
60 51 49
49 39 38
66 50 47
73 63 57
73 73 65
72 53 43
51 36 33
64 43 42
64 56 56
61 48 48
66 48 43
52 46 44
60 52 50
59 52 44
67 59 59
51 47 45
57 53 44
64 41 41
59 45 41
75 56 56
64 47 47
78 50 47
70 58 56
63 52 52
78 66 65
87 82 81
67 42 41
59 44 42
70 43 43
56 50 45
73 47 47
55 44 39
60 37 33
87 57 53
57 30 27
57 43 38
67 38 37
180 62 60
49 34 30
60 45 45
57 45 42
66 54 54
52 42 39
61 42 39
62 43 38
68 40 39
44 41 39
68 39 39
63 44 43
79 71 70
61 49 47
63 51 45
56 44 43
62 46 43
55 47 46
67 49 46
59 32 30
66 41 39
64 52 50
57 42 39
50 32 32
87 31 24
58 37 34
76 49 43
56 43 42
55 37 37
62 53 49
56 47 46
56 45 38
62 40 31
89 82 81
61 49 45
43 31 27
56 33 33
42 35 29
64 45 43
47 40 37
56 54 50
55 38 37
42 30 29
69 60 55
61 62 49
51 26 25
58 38 36
58 52 51
49 38 29
88 20 20
55 11 10
53 14 13
43 10 9
52 13 13
51 11 9
47 12 11
55 15 14
44 9 8
59 16 16
53 15 13
52 13 13
56 15 13
69 15 15
55 19 15
51 13 13
90 23 22
45 12 11
68 18 17
40 10 10
48 11 10
65 17 16
74 23 20
104 20 20
62 16 15
64 16 16
62 15 14
60 16 15
77 20 19
66 18 17
61 17 16
63 17 17
59 16 15
69 16 16
65 17 16
77 21 21
73 20 19
66 19 17
82 22 22
65 16 15
68 18 18
70 19 18
70 19 19
63 16 16
64 18 16
57 13 13
79 18 18
77 21 20
66 18 18
79 22 22
94 18 17
114 26 25
93 25 25
65 17 16
61 16 16
68 18 17
75 19 18
59 16 16
55 14 14
88 24 24
69 19 18
60 16 15
77 22 20
69 18 18
74 20 19
71 20 19
49 13 12
62 15 14
59 15 14
44 11 11
76 21 21
71 18 17
72 19 18
59 13 13
80 16 15
67 17 16
157 19 18
54 16 14
96 24 24
68 16 16
69 19 18
48 12 12
61 16 16
100 16 16
34 9 9
43 13 11
58 14 14
72 16 15
40 11 10
58 15 15
63 17 17
42 11 11
0 0 0
0 0 0
0 0 0
0 0 0
0 0 0
0 0 0
0 0 0
0 0 0
0 0 0
0 0 0
0 0 0
0 0 0
0 0 0
0 0 0
0 0 0
0 0 0
0 0 0
0 0 0
0 0 0
0 0 0
0 0 0
0 0 0
0 0 0
0 0 0
0 0 0
0 0 0
0 0 0
19 35 20
32 59 34
17 32 18
26 47 27
21 42 23
24 42 24
32 57 33
23 40 23
28 54 30
25 44 23
25 42 24
22 43 25
26 49 27
27 54 30
21 34 18
32 58 33
26 55 25
24 46 26
27 52 30
20 38 21
30 59 33
24 45 25
26 51 28
82 157 91
25 43 22
37 69 39
28 56 31
26 49 28
27 52 29
23 39 22
31 60 33
26 52 29
22 40 22
32 50 28
23 45 24
23 41 23
26 46 26
27 51 28
19 36 18
19 35 19
28 49 27
26 49 28
33 64 36
31 61 33
30 59 30
25 43 25
41 77 44
24 42 23
30 62 32
29 59 31
35 67 38
36 68 38
27 50 28
16 34 16
27 52 29
32 59 34
30 58 31
30 52 29
28 44 25
32 59 33
31 61 34
27 49 28
30 55 32
28 53 30
25 46 25
34 63 36
25 48 26
29 53 30
30 55 31
24 42 22
29 52 29
28 53 30
37 72 40
23 52 25
25 51 27
20 36 19
26 45 24
26 47 26
27 43 24
32 53 29
19 36 20
17 31 16
21 42 23
18 30 15
23 46 25
24 47 25
22 45 23
23 43 24
16 31 17
24 47 25
20 38 21
20 34 17
30 41 29
44 48 42
47 51 45
55 64 48
45 43 37
42 37 31
53 47 42
48 60 42
34 36 24
39 46 36
51 52 47
52 48 39
26 35 26
51 53 47
49 51 42
48 51 45
51 54 48
43 42 36
55 52 49
44 56 44
45 55 41
51 53 47
43 47 40
55 59 54
56 61 45
33 45 32
46 70 46
63 65 56
53 55 46
69 68 62
45 54 45
57 53 44
39 51 38
53 51 42
54 49 38
44 51 44
53 48 39
65 56 46
52 59 50
58 59 53
65 63 56
47 45 39
70 53 46
57 45 38
67 64 59
55 56 45
58 56 52
44 47 38
60 57 47
45 51 37
56 53 44
56 57 54
48 58 47
52 57 48
72 76 64
67 67 58
69 65 55
52 53 48
54 48 38
41 53 41
59 56 49
57 65 46
52 51 41
66 59 51
61 60 56
70 81 69
72 63 59
64 72 62
42 45 36
72 54 49
84 78 72
56 64 55
52 61 51
53 64 51
66 58 46
55 56 50
55 57 47
54 55 48
55 63 53
66 65 59
59 47 41
58 52 47
60 69 58
57 55 48
54 59 49
56 54 46
45 51 44
71 51 46
57 52 46
49 48 43
57 62 52
63 67 59
56 60 52
58 62 56
50 45 40
66 61 54
70 72 61
55 54 50
63 52 47
72 60 51
45 43 38
48 45 41
60 51 48
66 65 60
54 56 49
65 60 51
58 68 58
89 87 82
45 54 45
79 71 63
49 48 40
84 67 57
54 58 51
76 79 72
63 62 57
78 72 64
49 56 49
60 54 47
54 49 41
56 58 54
54 49 41
92 78 74
70 56 52
60 56 50
62 59 54
57 59 53
54 58 47
49 45 43
81 73 69
65 61 55
57 50 47
67 71 61
76 64 55
52 51 45
71 64 61
71 74 70
60 55 51
77 75 73
65 59 56
66 50 47
64 61 53
48 48 39
58 64 57
74 71 62
86 69 60
60 56 51
56 49 46
54 57 48
84 65 62
59 54 52
54 52 45
65 59 56
60 62 57
67 66 62
65 58 56
60 53 46
65 57 54
55 51 49
61 65 57
63 58 56
68 57 57
68 56 54
59 44 39
62 55 51
73 72 63
58 59 54
45 47 41
70 64 58
58 53 50
63 63 59
68 67 62
78 72 71
58 45 44
89 70 62
88 64 55
61 51 50
59 51 50
58 59 51
45 43 38
56 54 47
59 53 49
77 79 71
49 44 41
64 52 47
62 51 45
62 58 54
62 52 44
74 66 62
69 73 63
75 62 60
80 79 73
69 66 62
74 53 48
54 54 48
67 59 55
57 54 44
68 52 47
72 59 55
52 54 49
64 61 56
67 52 48
76 70 66
65 60 58
69 58 57
72 68 60
66 70 60
60 56 51
63 46 44
57 51 45
60 61 49
53 45 41
54 53 46
93 64 54
64 55 49
62 50 47
54 62 53
64 61 57
65 57 50
57 48 44
65 61 56
55 54 49
58 59 56
59 55 49
62 65 60
67 61 59
55 53 44
74 79 68
72 52 50
54 51 47
154 149 148
64 64 60
55 56 50
64 55 51
50 49 45
58 46 39
75 59 57
66 53 51
81 67 64
62 63 52
64 23 19
83 72 69
57 49 42
69 63 57
61 49 42
56 50 40
60 56 49
74 71 67
53 47 44
57 48 43
74 56 54
67 57 51
70 56 53
73 52 49
81 74 73
66 64 57
56 50 48
77 56 54
54 52 41
69 66 64
69 59 49
82 67 64
58 34 33
54 42 39
71 63 59
63 56 56
64 58 55
59 41 40
58 55 47
67 51 49
71 52 52
69 55 51
74 47 43
61 52 49
58 52 46
71 62 58
79 72 65
74 64 54
66 49 45
80 61 60
56 35 31
56 49 41
65 50 47
70 62 56
59 47 43
52 45 43
59 45 44
73 62 60
68 60 55
55 47 43
56 48 44
62 46 37
65 50 46
88 61 55
78 44 42
59 44 42
51 41 40
57 49 39
66 53 49
55 42 40
57 44 43
57 46 44
55 41 41
69 50 49
67 48 46
81 59 57
54 35 33
53 41 40
65 42 37
62 60 53
65 47 40
80 42 36
55 32 32
69 58 56
53 43 40
50 38 35
60 48 46
79 57 56
49 38 38
67 44 42
53 42 41
77 53 50
55 41 38
65 49 45
62 44 42
56 42 41
44 36 34
85 62 60
84 71 69
64 60 56
96 91 91
71 47 44
81 54 53
124 60 58
59 45 42
58 40 39
67 39 36
122 112 111
62 51 49
64 38 37
68 54 50
67 57 55
78 58 53
75 71 61
62 55 48
55 41 41
59 39 37
64 50 50
51 44 41
52 40 40
54 48 43
64 53 52
56 45 39
56 33 33
59 48 43
57 38 31
58 28 27
59 51 49
55 46 42
72 58 55
64 48 42
79 63 63
48 42 40
59 44 43
61 50 48
42 25 24
60 25 25
62 44 44
60 50 44
61 39 36
66 44 43
60 54 47
54 37 37
79 40 35
66 57 57
44 17 17
55 49 46
55 48 46
65 54 54
60 43 39
70 62 62
57 42 39
50 32 32
74 56 50
51 41 38
47 41 37
40 31 30
48 35 34
40 29 23
51 25 25
58 14 13
39 10 9
43 11 10
43 10 10
50 11 11
63 16 15
48 13 11
58 11 10
52 14 13
52 13 13
59 16 15
56 15 14
53 13 12
56 15 14
62 16 15
70 19 18
48 12 11
56 16 14
55 13 13
65 18 16
64 16 16
78 18 18
67 19 18
100 23 23
82 22 22
83 20 19
58 16 15
73 19 18
67 17 17
51 13 12
70 19 18
70 18 18
64 17 16
73 19 18
59 15 14
79 18 18
58 16 15
70 17 17
46 13 12
68 19 18
59 15 14
76 20 20
68 18 17
74 19 18
62 17 17
58 14 13
75 21 20
70 17 16
73 19 19
65 18 17
75 21 20
53 14 14
72 20 19
91 24 24
49 12 11
45 12 12
62 16 16
53 16 14
65 18 17
63 17 17
56 13 13
70 20 19
68 19 18
72 16 16
86 23 23
57 14 14
96 17 17
62 16 16
70 17 16
60 16 16
67 18 17
73 19 19
76 20 19
79 21 21
68 18 18
72 18 17
55 15 15
54 13 13
57 15 15
61 17 16
67 18 18
59 15 15
65 18 17
63 17 16
55 17 15
45 12 12
65 18 18
54 15 15
52 14 14
49 14 13
46 10 10
22 6 6
0 0 0
0 0 0
0 0 0
0 0 0
0 0 0
0 0 0
0 0 0
0 0 0
0 0 0
0 0 0
0 0 0
0 0 0
0 0 0
0 0 0
0 0 0
0 0 0
0 0 0
0 0 0
0 0 0
0 0 0
0 0 0
0 0 0
0 0 0
0 0 0
0 0 0
0 0 0
0 0 0
17 35 19
39 68 39
21 40 22
23 42 24
17 36 19
23 43 24
36 66 37
20 35 19
25 49 28
32 61 34
32 60 34
24 36 21
26 51 29
29 55 31
28 51 29
29 48 27
24 46 26
31 72 32
23 35 19
26 48 27
31 60 33
26 47 26
22 40 22
26 48 27
17 31 17
34 63 35
28 49 26
23 39 22
25 49 27
32 59 33
39 75 42
26 50 28
29 53 30
28 44 24
32 60 33
25 46 25
30 72 33
27 41 23
24 43 23
33 68 36
32 61 34
25 46 26
21 36 21
34 63 36
35 67 38
32 58 33
28 53 30
28 50 28
31 58 33
32 60 34
27 50 28
32 58 33
32 61 34
30 57 32
31 57 31
25 47 23
37 70 39
31 61 34
25 41 22
34 53 29
31 62 33
33 60 34
29 58 33
21 37 20
31 59 33
32 63 35
34 68 38
27 39 21
29 56 30
34 67 38
24 42 23
22 45 25
29 56 31
28 51 29
26 53 29
36 64 36
22 40 22
22 41 23
25 40 21
23 41 22
21 40 22
22 41 23
26 49 27
22 44 24
26 53 28
21 40 21
24 43 23
23 36 18
24 43 24
19 34 17
15 26 14
19 34 19
20 34 18
33 30 23
43 40 35
50 54 46
39 41 39
48 54 47
39 47 37
45 43 39
38 42 32
31 37 30
32 48 32
54 37 30
54 51 45
37 38 31
47 42 36
32 50 31
54 49 47
44 43 34
53 48 38
52 60 51
67 65 54
54 54 46
46 44 38
48 48 41
41 43 35
62 52 43
53 61 52
57 51 46
42 46 39
55 59 50
47 53 41
47 58 47
49 52 46
55 58 52
57 43 42
63 61 53
33 42 28
49 46 40
48 47 38
56 53 47
44 42 36
46 48 39
55 61 54
58 62 52
65 67 62
45 54 42
92 67 59
64 71 64
62 76 57
72 76 67
63 64 53
57 61 56
58 57 53
53 45 41
79 81 73
50 54 49
47 50 42
53 50 41
71 73 64
63 57 54
41 50 41
56 58 49
57 67 47
63 58 52
52 52 45
55 53 42
59 52 47
71 70 58
69 70 63
39 44 35
54 54 49
67 57 52
55 63 53
48 52 47
65 70 64
51 53 49
61 59 54
57 59 52
59 59 53
67 66 54
59 58 51
54 50 47
59 64 55
56 61 53
53 55 42
60 70 60
56 60 56
63 64 56
53 57 47
69 67 62
56 58 53
68 65 60
61 66 51
65 57 50
57 76 55
75 69 66
68 71 61
69 57 51
61 66 60
60 61 54
69 60 58
68 62 56
70 53 46
56 50 46
65 69 59
61 48 44
59 72 54
56 61 51
59 59 51
49 53 44
69 50 47
64 68 60
52 51 43
61 57 53
83 58 53
60 53 48
55 52 48
68 74 67
61 59 51
68 68 62
40 44 37
59 44 39
45 47 39
67 67 59
62 69 56
40 40 37
60 57 48
69 57 52
62 62 51
64 55 50
80 74 72
62 61 52
57 47 44
62 56 49
45 35 33
71 56 50
71 62 56
73 68 63
74 65 48
71 64 57
77 76 68
62 53 50
57 57 49
47 36 34
61 55 50
62 53 48
59 53 47
61 57 53
63 62 55
55 60 50
59 61 53
56 59 54
58 55 47
82 76 73
62 67 60
67 66 56
55 53 48
49 46 43
64 59 56
76 67 60
67 42 35
47 52 45
78 65 51
67 54 50
62 55 52
54 56 45
79 56 54
60 58 55
80 61 57
59 55 53
66 58 55
70 54 50
56 66 51
62 59 56
63 57 53
64 65 60
66 48 44
70 64 59
58 49 48
55 52 48
77 78 70
64 61 59
61 55 51
57 55 48
72 65 57
64 53 48
55 56 50
59 56 44
59 52 47
56 56 48
59 56 49
59 61 52
66 65 60
76 57 54
53 56 50
160 69 64
72 67 64
70 58 51
60 55 52
51 49 45
61 54 48
53 50 41
84 66 54
75 67 61
63 57 54
97 82 81
62 55 49
80 55 52
55 52 48
52 44 41
78 61 58
60 57 51
57 57 46
68 60 56
78 71 63
65 51 49
64 37 36
60 53 48
87 76 75
61 56 54
59 57 54
53 55 49
47 40 34
54 51 42
58 49 44
72 68 65
54 53 48
58 53 50
64 58 53
65 54 50
56 43 42
81 76 72
58 60 47
76 76 65
56 48 48
53 47 43
62 47 43
80 50 44
59 42 39
63 57 52
71 58 55
65 56 51
55 50 45
85 67 58
73 58 58
60 52 49
63 56 51
70 48 45
65 63 59
69 52 49
76 50 49
55 48 46
105 101 100
54 59 52
64 50 46
70 68 61
66 56 51
57 47 35
46 36 36
62 46 45
67 67 62
59 62 44
65 55 53
44 42 36
74 44 42
69 62 59
64 52 48
55 51 48
50 39 33
65 62 55
72 66 61
70 58 51
64 50 46
125 123 121
62 42 42
70 52 49
74 68 66
72 54 52
57 66 50
55 55 50
47 35 34
67 49 47
62 56 55
57 37 31
71 45 43
68 54 51
74 67 57
84 70 66
64 48 44
55 55 49
56 50 47
53 42 41
60 57 51
70 53 53
68 49 44
56 46 43
67 59 58
55 47 41
74 51 45
61 52 46
65 46 44
68 62 54
72 57 57
70 62 55
49 36 29
69 52 46
69 49 45
48 35 30
52 41 39
51 37 33
54 42 38
59 57 55
66 46 41
48 33 31
73 63 58
67 41 38
52 40 38
63 42 41
58 35 33
56 48 45
67 45 44
64 47 45
62 34 31
59 50 38
84 68 68
68 53 50
59 52 50
54 35 35
53 37 35
65 52 45
58 37 36
65 52 47
57 49 45
68 43 43
65 53 51
57 49 44
61 54 54
58 46 44
57 39 34
50 36 32
73 42 42
78 41 34
58 43 41
69 31 27
57 38 36
55 40 36
65 50 44
55 39 31
58 48 43
69 59 59
59 45 42
50 45 41
32 27 27
52 53 43
64 40 34
52 47 36
53 45 37
60 54 47
62 46 39
47 28 28
61 40 37
60 46 46
52 33 32
88 48 48
68 49 42
56 43 40
52 49 41
73 45 44
55 30 28
56 32 30
74 42 37
61 39 36
42 38 30
56 34 34
50 42 41
64 41 38
54 34 20
75 63 62
44 34 34
42 33 32
56 43 39
64 75 53
78 42 35
48 38 32
60 47 46
45 49 40
66 36 32
41 18 16
42 12 10
43 11 10
56 12 12
40 9 8
51 13 12
57 13 12
52 12 12
45 12 11
55 13 13
86 21 20
55 12 12
64 12 11
69 19 18
57 16 15
65 15 15
67 18 17
59 14 14
55 15 14
43 11 11
58 12 11
74 20 19
54 14 13
68 19 18
63 12 12
75 20 20
64 17 16
89 24 24
65 16 15
69 20 18
76 18 17
85 24 22
81 22 21
75 20 20
73 19 18
69 18 18
73 19 18
42 13 11
39 10 9
68 18 17
71 17 16
38 10 10
69 18 18
60 14 13
79 20 20
60 17 15
74 18 16
65 16 15
82 22 22
74 21 19
49 13 12
69 17 16
71 18 17
80 21 20
65 17 17
54 14 14
147 40 40
63 16 15
69 18 18
58 16 15
65 18 17
75 19 18
57 16 16
64 13 12
74 20 20
63 17 16
50 15 14
71 19 18
75 22 20
103 20 20
71 20 19
58 17 15
40 8 5
59 16 15
63 17 16
60 17 16
66 17 17
57 15 15
76 21 20
66 16 15
59 17 16
60 17 16
61 16 15
60 18 16
48 14 13
69 18 18
56 16 15
53 14 13
55 13 13
59 16 15
65 17 16
46 12 11
58 13 12
42 11 11
0 0 0
0 0 0
0 0 0
0 0 0
0 0 0
0 0 0
0 0 0
0 0 0
0 0 0
0 0 0
0 0 0
0 0 0
0 0 0
0 0 0
0 0 0
0 0 0
0 0 0
0 0 0
0 0 0
0 0 0
0 0 0
0 0 0
0 0 0
0 0 0
0 0 0
0 0 0
0 0 0
9 15 6
20 37 21
27 51 28
33 48 27
24 45 25
21 37 20
22 35 20
26 48 27
25 44 25
22 42 23
19 38 21
22 44 24
28 52 30
25 44 25
28 55 31
36 67 38
32 42 24
26 50 28
27 51 29
24 47 26
25 46 25
28 50 28
20 37 21
22 41 23
37 68 39
31 55 31
28 51 29
31 46 26
26 48 27
29 53 30
31 53 29
31 56 32
41 79 45
23 51 25
30 57 30
27 51 28
29 54 31
41 78 44
31 60 33
26 47 26
33 64 36
25 51 25
25 53 27
29 56 32
26 47 26
30 60 33
31 60 34
25 49 27
19 41 21
32 59 34
34 64 36
28 56 30
40 76 44
33 56 31
31 55 31
39 73 41
33 56 32
30 57 31
50 70 40
27 51 27
22 40 22
20 32 18
32 62 35
31 59 32
28 53 29
29 49 28
20 41 22
23 47 25
27 53 29
34 83 36
30 54 30
33 61 34
38 52 29
31 54 30
23 45 24
30 49 27
23 47 25
31 60 33
28 49 27
25 42 24
31 57 32
31 62 32
27 44 23
28 51 28
23 43 22
22 41 22
29 50 28
27 48 27
22 43 23
27 48 27
23 41 23
18 31 17
27 53 29
11 25 12
19 28 16
33 40 31
46 50 44
30 34 26
43 39 33
49 51 43
70 49 46
49 35 30
54 46 42
38 40 33
37 39 32
44 44 40
45 48 44
55 52 46
51 49 44
53 65 50
54 50 42
72 66 60
53 57 50
37 50 37
59 54 47
56 60 49
62 61 52
51 56 50
47 49 43
42 40 33
44 50 43
31 41 29
52 52 42
40 49 40
41 47 35
51 46 38
56 60 53
61 63 58
43 44 37
59 54 48
39 49 36
70 58 54
49 41 29
50 46 38
28 36 20
56 60 52
26 27 24
52 50 44
49 48 42
56 56 49
62 58 53
54 55 49
48 66 47
78 73 62
55 61 52
70 62 53
50 49 45
61 58 49
66 55 49
58 61 58
51 57 47
39 49 38
37 32 28
55 54 44
55 49 43
57 55 53
42 50 36
47 54 46
44 53 43
57 59 52
61 52 44
56 58 50
50 50 41
50 53 50
55 53 44
49 49 43
51 50 43
48 57 47
49 55 49
56 60 53
42 50 41
52 58 48
48 43 36
50 49 38
59 64 53
39 49 37
52 64 48
59 62 47
67 65 59
64 46 34
49 53 45
64 65 59
51 52 46
55 62 49
67 80 67
59 62 58
43 36 32
41 38 30
59 62 54
93 64 60
64 68 61
72 69 64
70 70 63
70 61 56
57 54 50
63 60 53
52 52 47
66 64 50
61 63 52
58 63 54
50 52 47
53 46 44
58 59 55
60 56 49
60 53 51
78 83 75
53 51 45
61 71 59
65 60 52
55 57 54
51 53 45
87 60 55
55 55 45
52 48 46
56 52 43
38 44 37
72 66 61
75 59 45
43 50 38
63 55 51
55 61 53
45 42 39
67 68 60
64 68 52
69 64 57
57 65 57
59 54 51
101 59 54
64 61 56
50 50 47
68 64 62
91 55 45
64 63 55
63 59 53
74 60 56
64 59 55
77 75 69
64 60 54
66 63 61
59 60 54
94 68 66
60 53 48
64 65 60
49 55 47
62 54 50
57 51 44
57 56 51
60 57 49
61 60 58
63 61 57
60 63 56
68 58 57
65 53 45
57 61 51
77 63 59
52 48 43
62 77 58
63 59 57
71 68 62
60 54 48
65 57 48
84 55 49
59 55 52
51 51 44
62 57 52
76 59 55
48 47 43
51 52 47
77 59 53
62 66 59
54 49 49
58 56 52
68 56 52
74 72 63
86 63 60
71 57 54
57 48 43
71 60 55
86 83 79
58 38 37
69 60 59
68 67 61
51 52 46
77 75 68
68 60 56
55 62 51
56 58 52
71 50 47
77 77 69
64 62 53
65 63 58
56 52 50
68 59 53
61 57 53
63 56 50
55 51 47
55 58 49
60 54 52
43 46 42
71 61 58
55 52 48
55 36 34
64 54 50
61 57 47
50 44 41
65 56 55
78 70 67
60 53 49
73 66 62
53 51 40
72 66 63
62 57 51
71 61 59
84 80 69
63 55 50
75 61 59
65 48 46
75 67 63
76 67 62
67 59 58
64 57 49
61 48 47
66 59 56
50 52 45
96 89 88
64 50 47
62 53 52
64 59 57
54 39 37
56 45 40
57 48 47
63 63 56
76 52 48
58 58 46
65 58 56
55 39 39
49 44 36
70 59 58
126 63 61
56 52 51
65 53 46
63 50 49
56 41 39
71 52 48
71 63 61
61 54 51
69 47 40
69 62 61
59 56 49
74 53 52
57 43 41
61 41 38
58 49 41
63 60 57
65 54 52
79 68 63
58 54 49
68 50 47
67 60 51
65 61 53
54 44 42
67 74 65
81 71 70
49 27 25
63 55 47
67 52 45
68 57 52
51 42 41
69 53 47
53 32 32
63 48 46
52 42 42
67 61 57
73 62 59
73 58 54
62 54 40
60 49 48
59 43 39
57 46 42
72 42 41
51 37 37
71 66 64
75 53 49
65 49 42
73 62 59
69 57 56
97 57 57
66 49 49
69 47 45
57 44 43
69 54 54
49 35 34
60 46 45
64 43 40
63 53 52
52 45 39
74 54 53
60 46 46
59 47 43
66 52 49
71 52 52
52 45 41
56 35 31
60 50 47
67 54 51
62 54 52
52 37 36
58 58 50
62 46 46
81 46 46
64 37 35
61 52 47
72 52 49
43 31 27
55 36 36
53 40 40
70 46 46
92 58 57
90 46 46
70 48 47
49 38 36
58 38 38
66 47 45
66 61 54
46 43 38
60 45 40
47 31 25
47 37 34
75 62 61
67 58 58
47 36 32
55 34 32
65 54 49
69 53 53
62 50 48
59 32 32
63 40 39
84 62 60
48 33 33
50 40 31
68 54 49
55 42 38
65 45 40
55 41 32
63 36 33
76 54 45
67 45 33
54 44 39
56 45 41
47 35 32
66 44 43
88 38 38
55 43 40
65 52 48
58 45 44
72 32 32
53 33 33
53 46 38
44 34 34
67 50 47
50 29 28
63 42 42
57 35 34
53 32 25
32 20 20
51 37 36
54 43 41
48 38 34
61 47 42
42 35 30
48 29 26
83 29 25
76 22 21
60 42 39
51 40 33
58 47 44
51 46 45
52 32 32
39 9 7
41 9 9
60 11 10
39 9 8
50 13 12
38 10 8
60 14 13
49 12 12
59 15 15
80 17 17
51 12 11
69 16 16
55 14 13
72 15 15
77 20 19
65 17 16
50 13 12
51 13 13
45 12 11
71 18 18
61 16 15
78 18 18
69 17 17
56 15 14
62 16 15
55 14 13
70 18 18
59 14 14
58 17 15
66 17 17
73 20 19
64 17 17
44 11 10
75 21 20
52 14 13
47 13 12
62 16 16
60 15 14
56 15 15
66 17 17
73 20 20
84 21 21
80 22 22
67 18 18
75 19 18
80 21 21
75 20 19
86 23 23
71 19 19
71 19 19
63 18 16
61 17 16
70 16 16
61 14 14
74 17 17
101 30 27
48 11 11
71 18 18
45 12 12
82 21 21
54 12 12
63 18 17
68 15 15
67 18 18
62 15 14
64 16 15
61 16 16
55 16 15
55 14 13
87 21 21
62 16 16
66 18 18
60 16 16
65 17 17
65 17 17
38 11 10
76 19 18
47 12 12
80 21 21
56 14 14
71 18 18
64 18 16
66 17 16
66 18 18
48 14 13
46 12 11
64 17 17
46 12 11
63 16 16
37 9 9
50 14 13
47 14 13
47 14 13
72 20 19
8 4 2
0 0 0
0 0 0
0 0 0
0 0 0
0 0 0
0 0 0
0 0 0
0 0 0
0 0 0
0 0 0
0 0 0
0 0 0
0 0 0
0 0 0
0 0 0
0 0 0
0 0 0
0 0 0
0 0 0
0 0 0
0 0 0
0 0 0
0 0 0
0 0 0
0 0 0
0 0 0
0 0 0
13 19 9
38 73 42
30 52 30
22 45 22
27 54 28
24 43 23
21 44 23
26 46 26
24 43 24
20 37 20
21 35 20
26 49 26
23 42 23
26 47 27
36 69 38
19 35 19
26 45 25
32 60 34
26 50 27
24 39 22
23 43 24
21 38 21
27 42 22
32 60 34
32 55 31
37 66 37
19 39 20
27 46 26
27 50 29
33 45 25
35 79 37
37 75 40
25 44 25
23 44 24
34 63 36
27 52 29
24 46 26
26 49 27
14 25 13
28 52 30
41 85 44
25 41 22
30 51 28
63 72 41
32 59 34
34 70 38
28 56 31
37 66 37
32 61 34
37 68 38
26 49 26
31 60 34
27 49 27
33 57 32
30 59 32
30 56 31
34 67 37
32 64 35
33 63 35
38 74 41
24 41 23
27 53 29
29 49 27
35 65 36
29 53 30
34 63 36
32 61 34
36 65 36
29 58 32
26 46 26
29 56 31
29 67 32
29 54 30
27 44 25
36 67 38
28 54 30
30 53 30
28 51 29
20 42 21
31 52 28
23 46 24
28 56 31
26 50 27
22 33 17
27 51 27
27 59 29
22 43 23
22 39 22
22 42 22
21 39 21
28 50 28
21 40 21
15 30 15
17 24 11
29 55 31
24 35 23
48 52 43
44 41 34
50 42 36
43 45 35
46 46 39
42 50 42
43 43 34
36 44 33
36 39 29
44 44 38
38 38 33
46 51 44
52 58 51
54 51 43
48 45 40
46 53 45
50 53 43
36 42 35
45 49 40
56 52 50
42 44 41
46 47 43
49 49 45
41 57 35
55 59 50
66 59 55
73 55 51
62 60 50
61 62 55
43 49 38
53 65 52
68 59 52
83 75 70
57 47 41
47 48 40
38 52 37
40 47 40
53 53 47
65 62 53
61 47 39
61 60 48
46 54 41
57 87 58
44 52 38
44 52 43
47 45 36
59 59 54
51 53 48
61 48 37
44 46 40
53 53 48
58 61 55
63 89 65
52 66 53
42 52 42
51 56 50
50 62 47
63 63 48
30 39 29
42 41 37
46 55 44
48 55 46
61 73 57
43 53 39
56 53 39
57 52 45
60 62 50
45 48 39
60 63 53
56 57 47
51 52 44
59 53 46
62 54 46
42 48 40
45 49 39
64 64 57
54 60 53
52 55 50
75 100 69
38 53 39
70 66 60
77 62 58
59 59 52
62 69 59
61 65 55
68 69 66
50 52 45
58 61 53
53 59 52
43 52 42
57 57 51
40 48 39
72 70 62
56 55 51
58 61 54
62 52 48
59 50 41
71 71 66
54 42 36
56 52 49
46 48 44
60 44 39
68 80 65
58 49 47
56 53 44
65 65 59
54 57 49
72 66 62
63 63 55
48 48 44
53 51 47
50 52 46
58 45 37
61 61 55
69 63 57
64 60 54
81 77 70
65 62 53
43 49 42
67 68 61
61 64 59
59 61 57
63 69 60
56 53 48
79 67 62
74 63 57
64 68 58
66 61 57
60 63 55
74 50 49
67 57 54
65 62 57
66 55 51
60 57 54
61 54 52
63 54 47
49 45 38
27 33 23
60 61 50
69 64 60
55 49 41
50 41 37
67 60 59
58 51 44
77 74 69
72 63 63
54 51 46
50 50 48
60 65 57
67 62 56
64 61 55
71 63 56
71 61 58
54 42 39
65 63 55
60 54 49
64 52 51
64 57 54
87 81 77
60 53 50
79 74 71
75 62 61
66 56 52
58 54 51
59 56 52
54 54 49
60 51 46
58 56 51
66 58 55
62 60 56
53 53 48
63 47 45
72 62 59
69 64 55
53 56 48
63 70 60
71 50 46
47 46 42
47 49 45
56 58 52
70 65 60
66 63 60
70 61 59
64 55 53
64 57 53
72 64 59
76 82 66
69 58 53
68 56 50
58 60 51
65 52 51
85 60 55
60 52 51
67 64 60
70 57 52
65 56 49
78 53 49
62 60 53
64 54 50
56 53 50
60 53 51
64 43 42
55 39 32
69 60 55
74 69 64
66 57 52
59 51 48
71 67 60
56 51 49
81 66 58
75 67 62
76 53 50
66 66 61
59 54 51
77 49 45
46 46 41
73 67 62
56 46 43
63 49 47
35 29 26
70 59 50
60 51 49
69 57 53
73 66 64
64 49 47
71 70 64
55 50 46
66 56 52
61 58 58
67 63 59
60 47 44
60 55 48
70 50 50
74 58 56
55 44 40
69 68 59
54 46 46
56 43 42
78 63 61
68 64 61
78 63 59
65 45 42
58 40 40
71 75 68
54 57 47
56 41 38
68 60 53
46 43 42
53 48 38
58 57 51
58 49 41
52 43 38
64 53 51
66 58 56
65 58 51
67 50 47
76 72 69
56 54 50
68 46 46
69 63 53
68 63 62
68 42 42
53 49 42
51 42 40
59 50 48
64 43 42
75 64 63
61 47 44
70 48 46
56 48 46
67 50 50
66 63 57
62 51 49
76 51 43
71 62 62
77 67 65
42 37 34
45 34 33
59 55 48
55 50 46
52 42 37
65 51 48
57 44 38
51 35 30
112 110 109
59 54 48
71 58 56
52 50 43
60 57 55
93 58 53
58 37 35
84 63 62
59 54 51
64 57 47
65 55 53
69 57 55
88 64 63
51 41 33
66 52 50
69 60 57
63 45 44
61 49 45
65 46 43
63 49 44
72 40 40
54 38 36
69 47 38
56 40 38
71 65 63
69 47 46
60 44 39
70 41 38
67 49 47
55 45 41
56 36 35
68 56 54
62 40 39
55 42 40
49 36 34
74 56 52
70 65 57
56 40 40
55 33 33
68 54 50
62 46 45
47 34 31
52 31 31
58 36 34
53 35 33
50 54 39
56 62 51
63 88 55
47 37 34
68 58 43
46 32 32
52 40 40
62 42 38
65 49 48
55 41 40
64 50 42
66 43 36
72 38 37
37 29 25
51 37 32
41 32 28
45 28 27
49 34 31
54 44 41
66 40 39
59 52 50
64 50 40
66 36 34
66 53 51
50 47 38
54 29 28
51 44 39
60 51 51
71 49 48
71 54 48
70 57 51
57 38 38
35 26 25
55 34 33
37 26 17
69 48 45
67 62 55
69 44 38
57 42 41
64 53 50
55 45 41
68 53 52
45 40 38
49 45 41
56 29 29
69 39 39
48 39 38
71 52 50
45 26 25
60 52 42
48 27 26
106 86 85
34 13 10
42 7 6
59 12 11
53 14 13
41 9 8
57 13 12
61 14 13
50 12 11
54 13 12
63 16 16
63 16 15
50 14 13
64 17 16
75 18 17
48 10 10
63 18 15
81 20 19
64 17 17
66 14 13
68 15 15
50 12 12
74 20 20
46 11 10
62 22 16
69 18 18
71 15 14
60 16 15
80 22 21
75 20 19
57 15 15
91 18 17
60 17 15
60 17 15
67 18 17
80 20 20
58 16 15
81 20 19
64 19 17
76 18 18
76 20 20
64 17 17
73 18 17
68 21 19
60 13 12
68 18 18
40 10 10
77 20 20
60 16 16
188 52 51
68 16 16
79 22 21
72 20 19
70 16 15
63 17 17
76 19 19
62 16 15
63 17 17
57 16 15
43 12 11
72 19 19
82 22 21
72 19 18
58 15 13
53 16 14
73 17 17
87 24 24
61 17 16
54 14 14
82 18 18
61 17 16
63 17 17
70 19 19
75 20 20
47 12 11
51 14 14
59 15 15
52 14 12
41 10 10
61 16 15
55 14 14
83 20 19
68 18 17
51 14 13
48 14 13
68 19 18
64 17 16
68 19 18
48 12 12
62 16 15
39 9 9
62 14 13
69 16 16
68 17 16
67 17 16
58 14 14
38 10 10
0 0 0
0 0 0
0 0 0
0 0 0
0 0 0
0 0 0
0 0 0
0 0 0
0 0 0
0 0 0
0 0 0
0 0 0
0 0 0
0 0 0
0 0 0
0 0 0
0 0 0
0 0 0
0 0 0
0 0 0
0 0 0
0 0 0
0 0 0
0 0 0
0 0 0
0 0 0
0 0 0
25 43 23
23 44 25
23 42 24
27 52 30
24 46 26
24 41 23
30 45 26
27 48 28
26 50 29
24 43 24
19 40 21
31 58 33
30 57 33
23 46 23
24 47 26
36 67 38
33 57 32
22 35 19
27 52 28
24 46 26
19 37 21
22 38 22
16 24 14
28 50 29
28 52 29
28 56 31
27 48 27
27 51 29
34 60 34
33 55 31
33 63 36
23 44 24
33 63 36
30 56 32
28 53 30
32 60 34
30 57 32
37 68 38
34 60 33
31 51 28
29 54 29
31 59 32
22 42 23
29 53 29
32 59 33
49 46 25
30 57 33
28 54 30
42 80 46
34 63 36
31 60 34
25 48 26
33 60 34
28 51 27
31 61 34
31 58 31
30 55 30
27 49 27
26 49 26
32 59 34
31 58 31
33 61 35
29 52 29
36 67 38
37 69 40
34 60 33
30 59 33
28 51 28
30 57 32
26 49 25
32 60 33
26 48 27
29 58 31
29 52 29
29 53 29
29 54 31
30 59 33
29 54 30
30 53 30
22 44 23
22 43 23
24 50 27
23 44 24
26 48 27
22 43 22
22 49 24
21 38 19
24 47 25
38 76 41
24 44 24
19 36 19
15 32 16
16 26 14
26 44 24
19 30 15
17 36 17
47 51 45
42 38 31
59 57 51
44 47 44
51 52 46
30 34 27
37 37 33
55 57 51
60 61 53
52 51 48
47 56 47
46 46 41
51 43 39
47 55 45
57 56 46
40 47 40
54 51 43
58 58 52
42 45 33
54 45 37
35 38 34
81 59 46
52 42 28
51 55 42
44 57 44
58 58 50
37 43 35
56 62 52
37 42 34
52 60 47
51 54 44
52 54 46
52 55 48
46 47 37
24 40 24
40 47 41
51 48 41
34 45 32
52 57 49
43 57 43
41 46 35
48 51 39
54 52 45
41 47 41
54 57 50
56 58 47
44 47 38
29 34 19
80 77 74
40 49 35
54 56 49
51 53 46
58 56 48
59 54 46
59 66 51
51 59 45
56 55 49
61 65 56
47 51 44
64 61 55
59 50 39
45 47 36
47 50 40
63 60 51
62 63 59
42 48 39
45 51 41
49 58 44
55 52 50
70 54 47
70 67 59
64 46 41
53 50 44
72 77 67
74 60 52
68 66 54
48 50 45
39 42 38
56 54 48
43 53 42
63 55 48
59 62 54
64 68 56
66 65 60
60 47 42
44 52 44
42 40 31
55 58 51
65 59 54
64 61 55
50 51 45
50 52 45
57 45 41
67 56 42
62 62 54
44 48 35
52 51 46
87 84 82
50 56 48
56 46 40
60 55 50
69 70 61
58 59 56
58 62 56
50 51 44
61 59 54
67 48 44
69 62 53
56 58 52
62 60 53
100 61 56
53 59 48
50 52 43
62 55 53
71 65 59
54 49 39
54 58 51
62 60 47
63 61 54
72 65 56
54 51 47
51 46 43
59 54 46
67 59 54
69 61 56
58 60 52
69 65 57
69 70 62
66 53 46
56 51 46
52 52 43
58 54 48
52 49 42
77 70 65
69 76 65
72 69 60
72 62 59
86 76 70
65 75 65
62 53 48
55 52 49
69 64 60
60 57 52
51 57 50
67 65 60
58 51 49
66 63 56
62 59 57
71 53 52
63 61 49
61 66 56
79 70 65
66 69 65
71 53 46
60 61 57
68 64 61
50 50 45
58 53 49
62 67 55
69 48 42
53 55 48
55 59 49
50 54 48
89 91 78
70 60 58
48 45 42
61 53 51
68 58 53
56 50 48
53 46 41
55 54 44
65 73 64
58 52 47
58 53 49
63 54 53
101 87 81
83 76 71
56 52 50
63 66 62
63 55 48
53 54 48
58 57 52
72 63 57
58 61 55
63 63 53
68 54 48
83 74 72
82 71 67
55 57 51
51 50 49
60 50 47
72 60 57
63 52 46
53 45 43
59 51 48
48 51 43
56 42 40
68 63 52
74 64 62
66 65 60
70 56 53
61 52 46
57 36 35
66 61 58
68 67 63
49 47 42
62 49 47
58 50 45
63 55 50
81 56 52
68 50 48
60 61 50
71 53 49
65 57 56
79 62 61
63 54 53
57 60 53
70 62 60
70 51 51
64 54 51
69 44 42
68 56 52
72 66 62
71 62 61
59 57 54
69 54 51
74 62 58
56 44 38
62 53 51
49 52 46
72 45 41
60 38 36
90 112 86
79 65 62
59 54 48
75 58 53
45 33 25
57 54 50
59 48 44
83 55 49
67 59 56
45 43 35
59 44 41
76 54 53
87 42 41
70 62 58
109 109 108
63 49 47
56 51 50
65 53 50
68 54 53
67 50 47
68 64 60
74 58 55
47 40 36
65 47 47
63 56 47
66 56 54
84 68 67
79 67 64
85 79 73
62 49 43
62 45 41
68 57 56
67 61 57
63 50 44
61 42 42
69 52 50
69 64 59
63 51 47
66 51 43
71 64 55
58 32 31
55 48 44
58 51 44
50 44 42
64 60 56
50 47 41
68 59 55
66 56 51
62 61 57
59 49 48
58 42 41
64 58 50
88 50 45
69 48 47
57 47 44
88 65 63
60 51 49
51 38 38
68 65 55
58 48 44
74 58 58
59 35 34
59 49 49
49 38 37
72 48 46
65 52 45
66 56 52
52 48 44
67 42 41
64 39 38
60 45 41
88 48 46
58 39 37
48 46 42
75 60 58
66 58 57
56 48 48
55 41 35
67 51 48
60 50 46
62 40 39
54 46 39
58 29 27
62 53 53
77 65 64
60 34 32
61 39 39
83 79 77
56 37 29
63 47 43
64 59 53
58 53 50
56 43 40
69 44 38
70 56 55
57 50 44
60 48 41
68 50 46
50 36 35
57 40 38
45 33 30
72 38 36
59 46 46
59 42 42
68 35 34
57 39 38
89 73 73
51 78 51
50 38 36
52 35 35
71 53 43
75 56 51
55 50 45
68 56 53
57 46 45
55 43 42
52 36 34
62 36 33
52 40 40
50 35 31
52 47 42
62 42 39
60 59 53
60 47 45
63 66 50
49 29 22
61 46 46
57 38 38
62 43 37
65 59 47
61 46 41
50 33 29
49 21 21
54 36 36
49 35 33
45 34 32
55 47 37
81 49 48
48 30 26
51 45 41
75 63 63
72 42 38
41 25 25
42 34 34
55 45 43
47 40 37
29 14 14
49 28 26
36 15 14
35 9 9
57 13 12
41 9 9
48 12 12
50 13 13
58 14 13
71 14 12
54 10 9
54 14 13
55 14 14
67 16 16
54 14 12
61 16 16
71 19 19
65 16 16
57 15 14
63 17 16
70 17 15
53 13 12
82 20 19
73 20 19
70 19 18
43 11 11
74 20 20
82 22 21
67 18 18
67 18 18
79 20 20
57 16 15
63 16 14
84 20 20
86 22 22
72 22 19
68 18 18
68 19 18
92 23 23
73 20 20
76 19 19
86 24 23
81 22 21
70 19 19
86 22 22
65 16 16
79 21 21
78 22 21
46 12 12
66 12 11
68 18 17
79 23 21
71 20 19
73 17 16
58 13 11
79 21 21
64 16 16
64 17 17
75 20 20
70 17 17
64 16 16
64 17 16
59 14 13
72 20 20
70 19 19
73 20 19
72 19 19
74 20 20
66 18 17
55 15 15
59 15 15
68 18 17
64 17 16
79 22 22
74 20 20
75 21 20
66 18 18
60 16 16
64 17 16
53 14 14
47 12 12
67 16 16
62 18 16
51 13 13
67 18 18
62 18 17
61 17 16
61 16 16
76 21 20
55 15 14
70 15 14
58 15 14
44 12 11
40 10 10
75 20 19
51 15 14
47 12 12
91 26 24
25 7 7
0 0 0
0 0 0
0 0 0
0 0 0
0 0 0
0 0 0
0 0 0
0 0 0
0 0 0
0 0 0
0 0 0
0 0 0
0 0 0
0 0 0
0 0 0
0 0 0
0 0 0
0 0 0
0 0 0
0 0 0
0 0 0
0 0 0
0 0 0
0 0 0
0 0 0
0 0 0
0 0 0
5 3 1
21 42 23
33 50 28
23 38 21
19 36 20
24 41 22
26 45 26
19 34 19
17 32 18
25 46 26
24 43 24
26 47 27
28 53 30
23 41 23
26 44 25
28 52 29
24 47 26
21 40 23
25 39 22
27 51 29
30 54 30
30 52 30
28 51 29
28 73 31
24 40 22
36 59 33
21 41 22
25 48 27
38 68 38
28 55 30
33 60 34
25 58 28
28 52 29
30 57 32
27 51 28
33 62 36
25 52 27
24 49 26
17 26 13
24 46 25
27 51 29
16 27 14
25 50 26
37 71 40
23 38 21
32 61 34
32 63 34
27 52 29
30 54 30
28 53 29
39 67 37
29 53 30
40 69 39
32 63 35
30 57 32
26 47 26
24 47 26
30 54 30
26 41 23
26 49 26
33 63 36
29 58 31
28 52 29
28 50 28
21 43 23
26 44 25
26 51 28
31 59 33
28 55 31
29 51 28
28 50 28
23 43 24
32 57 32
28 51 28
29 56 31
26 48 26
31 54 30
31 51 29
17 33 17
25 48 26
26 48 27
23 45 24
27 49 27
23 42 23
28 63 31
22 35 19
25 50 27
21 37 21
23 43 23
21 39 22
26 55 28
25 37 20
27 49 27
27 51 28
23 45 24
19 26 14
19 33 18
35 35 24
62 42 36
55 41 37
41 40 30
64 61 47
45 34 28
35 49 35
48 52 48
43 61 45
61 57 52
37 46 38
57 52 44
52 49 43
47 57 47
53 55 47
43 47 39
63 50 42
55 68 52
54 57 47
43 51 38
53 54 45
45 45 36
67 40 36
53 55 44
47 48 39
45 51 43
51 52 48
53 48 41
52 51 44
33 37 22
67 67 60
37 41 34
54 58 50
57 53 47
55 61 53
47 46 43
50 53 50
42 48 36
76 59 46
47 50 43
63 69 57
52 52 45
48 57 47
52 64 48
61 59 52
50 56 50
49 50 39
64 56 48
61 59 52
45 37 28
47 43 39
57 54 45
43 49 41
42 44 32
64 60 57
70 73 67
56 51 40
49 48 42
59 57 49
44 54 44
61 52 50
49 63 49
58 65 55
47 73 48
63 62 56
62 68 59
50 51 43
48 58 47
49 48 42
49 40 34
46 35 33
64 61 58
74 68 60
52 44 37
52 58 47
67 67 63
52 52 47
68 60 53
47 51 43
56 45 38
59 62 54
70 66 60
68 56 54
65 60 57
55 55 47
54 63 53
55 54 48
49 51 41
65 58 52
64 61 57
59 65 58
72 70 63
68 58 53
57 52 48
67 62 55
58 47 38
51 56 46
86 76 69
46 46 41
54 45 38
60 54 50
70 58 50
96 100 94
70 66 56
65 52 47
59 55 48
70 69 63
60 59 53
71 70 61
35 44 34
54 48 45
68 61 49
99 79 68
69 67 61
51 52 46
80 68 61
63 61 53
49 57 43
53 52 45
60 65 59
74 57 53
77 63 59
56 56 47
50 56 47
68 65 59
59 61 53
69 64 61
51 53 50
67 60 54
74 45 40
63 64 57
51 44 41
54 52 44
61 55 47
58 60 53
82 67 64
68 50 48
46 50 45
57 52 48
57 59 54
63 55 48
79 63 62
67 62 57
79 72 66
56 54 53
54 47 43
80 78 72
62 56 52
48 48 45
51 44 39
60 52 47
108 65 59
54 43 39
70 62 55
56 56 50
73 67 60
67 61 56
55 48 45
77 65 62
77 67 63
66 65 59
70 55 51
53 47 44
74 60 53
66 57 54
69 55 50
79 61 56
52 50 43
73 68 66
48 42 39
69 61 56
67 62 59
73 60 55
61 61 58
77 66 60
61 56 51
70 61 50
71 58 56
72 65 60
74 53 48
78 56 47
64 66 60
60 54 53
61 54 49
55 50 44
75 61 60
52 42 39
62 57 51
79 74 69
65 62 58
68 62 55
51 42 40
66 61 57
55 56 52
64 58 54
61 54 51
47 51 46
58 54 51
50 46 42
58 51 46
75 67 64
103 159 100
53 56 49
61 52 46
61 63 57
61 55 52
46 43 39
79 61 57
73 57 53
79 66 64
60 54 51
62 59 53
56 46 45
66 53 50
58 52 45
69 63 57
82 79 77
63 44 43
73 64 57
72 64 63
71 48 45
75 58 53
52 47 44
62 52 50
74 53 45
73 65 61
60 53 51
68 56 54
98 94 90
66 53 49
70 67 62
59 53 49
81 79 71
71 41 39
95 87 86
75 58 55
66 51 47
68 55 50
75 48 46
39 20 18
77 67 56
49 48 45
67 66 62
68 53 49
77 72 71
65 50 48
47 32 30
67 62 57
53 52 45
61 50 49
58 55 51
76 64 63
67 63 56
55 47 47
71 59 58
67 40 40
54 58 51
74 60 57
57 44 41
60 55 53
64 49 45
60 49 48
54 38 36
49 36 33
75 65 63
61 52 51
61 51 43
65 57 53
61 55 48
69 58 53
85 45 45
61 46 43
60 57 54
65 49 49
61 52 49
44 38 33
53 34 33
73 56 54
61 52 49
53 32 32
48 37 34
74 50 49
50 55 37
63 51 48
55 49 45
71 53 48
73 58 52
60 35 29
75 48 47
77 71 70
78 48 48
57 40 38
49 41 40
74 46 43
66 57 55
54 42 42
53 49 45
65 55 53
72 61 59
65 47 47
65 56 53
46 43 43
70 48 48
57 41 39
45 32 31
77 64 63
50 42 39
73 60 57
84 65 63
65 51 45
67 54 51
83 50 45
61 47 47
52 35 35
59 44 43
60 48 48
60 41 40
69 59 56
77 53 49
49 37 33
54 36 35
68 50 45
66 47 46
46 28 25
53 40 37
53 27 26
59 43 42
63 47 41
58 40 32
52 46 44
59 42 41
82 57 55
61 48 47
64 52 50
76 72 67
67 44 40
76 63 62
69 44 44
63 44 44
82 72 72
65 46 46
50 30 27
64 63 54
56 39 38
53 38 35
61 48 43
86 59 56
75 59 57
62 46 45
60 26 24
59 47 44
61 43 42
63 44 42
70 47 43
71 42 41
60 38 36
58 42 42
55 41 41
57 48 43
59 53 45
50 31 25
69 59 57
52 40 38
57 45 42
45 37 35
59 60 49
45 37 35
69 39 39
64 50 48
50 43 40
46 35 27
68 45 45
49 29 26
55 47 42
52 41 37
43 33 28
44 37 31
47 37 35
40 16 15
72 19 18
48 12 12
53 12 12
42 10 9
62 15 15
41 8 8
56 15 13
55 14 13
40 8 8
50 13 13
69 13 13
63 17 17
45 13 12
69 18 17
69 17 16
62 14 14
65 15 15
52 14 13
68 16 16
53 14 14
49 12 12
45 13 12
49 14 12
78 20 20
71 19 19
63 14 14
79 20 19
91 24 24
69 19 18
64 17 16
81 22 21
66 17 17
67 17 17
75 21 20
63 16 16
58 15 12
59 16 15
60 15 14
76 21 21
52 12 12
90 24 24
83 25 22
79 21 20
93 25 25
65 17 16
64 17 16
74 20 20
67 18 18
68 15 15
78 20 19
83 21 21
56 15 14
79 20 19
76 21 20
65 18 17
70 20 19
62 15 14
78 21 20
65 17 17
52 14 13
53 14 14
53 14 14
67 19 18
48 12 11
61 15 15
76 20 20
48 13 13
65 17 17
80 22 21
61 18 16
85 24 23
55 15 15
65 16 15
60 17 16
53 14 14
78 19 18
44 13 12
58 15 15
53 13 12
52 14 14
73 18 17
70 18 17
59 18 15
55 16 14
69 18 17
70 20 19
49 13 12
46 13 12
62 16 16
59 15 15
56 15 15
48 14 13
60 17 16
69 18 17
65 18 17
60 16 16
28 7 6
0 0 0
0 0 0
0 0 0
0 0 0
0 0 0
0 0 0
0 0 0
0 0 0
0 0 0
0 0 0
0 0 0
0 0 0
0 0 0
0 0 0
0 0 0
0 0 0
0 0 0
0 0 0
0 0 0
0 0 0
0 0 0
0 0 0
0 0 0
0 0 0
0 0 0
0 0 0
0 0 0
18 29 16
28 50 28
31 60 34
20 35 19
28 48 27
12 24 11
24 43 24
34 61 35
29 54 31
26 49 28
25 47 27
23 39 22
27 48 27
28 43 25
30 56 32
28 50 28
25 47 27
27 51 28
31 58 33
31 55 31
23 40 23
14 23 12
23 42 24
25 47 26
27 48 27
25 47 26
20 37 20
26 48 27
24 47 26
25 40 22
25 43 24
19 30 17
33 57 33
30 54 31
29 55 28
30 52 29
33 65 37
37 73 41
29 56 32
25 44 25
22 37 21
33 62 35
27 55 30
22 42 22
31 55 31
30 56 32
24 41 23
30 55 29
31 58 32
36 62 36
36 69 38
32 60 34
33 65 36
21 37 20
36 65 37
25 49 27
34 61 34
32 58 33
32 59 33
19 36 19
27 51 28
25 48 26
22 44 23
31 61 33
32 64 35
37 64 36
27 46 26
28 50 28
29 56 31
30 56 31
26 55 28
28 54 30
26 47 27
30 57 32
28 51 28
32 60 34
29 49 27
32 62 34
26 48 25
22 45 25
28 48 27
19 36 18
23 46 24
23 48 24
27 56 29
21 38 21
16 28 15
27 53 28
30 55 30
33 62 34
18 29 15
27 48 27
24 43 23
21 41 21
28 55 31
21 35 17
20 41 21
22 37 19
33 41 29
49 46 41
40 55 41
43 43 39
44 44 41
36 40 35
45 51 44
55 48 38
42 45 41
37 47 34
47 49 41
28 48 29
55 61 55
66 66 58
43 51 40
52 46 39
45 45 40
54 55 48
49 49 43
41 49 38
47 49 42
43 44 34
58 58 51
67 71 61
49 52 44
56 65 48
71 64 56
68 61 56
47 57 47
59 57 50
49 49 41
44 50 41
68 59 53
48 50 42
59 55 50
58 54 49
50 49 44
49 48 43
56 66 54
50 59 48
66 62 55
57 57 53
38 48 33
45 55 43
33 38 31
65 52 42
42 55 43
56 61 55
58 60 53
49 50 44
44 40 36
43 45 36
65 54 48
49 45 37
58 62 46
46 55 47
68 67 54
56 66 51
62 65 58
41 46 40
45 49 43
56 56 50
51 53 44
58 55 51
65 67 62
60 62 54
68 73 65
53 59 52
64 68 62
65 57 50
54 54 47
63 65 57
54 54 47
63 61 55
63 58 53
52 54 46
51 49 44
61 54 49
54 69 50
63 54 48
55 63 53
50 60 50
60 85 62
56 59 51
52 46 38
69 62 59
45 51 41
63 65 57
73 67 62
56 51 48
49 50 46
38 43 38
63 96 62
63 56 52
44 58 41
54 55 49
54 63 53
58 58 48
58 59 54
73 65 61
75 54 53
66 56 49
55 58 50
70 74 68
61 62 58
82 56 52
56 58 52
74 74 70
73 102 76
39 44 38
36 32 28
64 63 51
73 67 65
65 51 48
56 55 50
52 54 46
56 59 49
49 54 46
87 72 65
56 55 45
54 55 46
65 72 62
76 79 69
66 49 45
62 59 54
52 48 43
42 38 34
57 39 36
56 59 49
64 60 54
72 62 55
46 51 41
75 80 66
52 56 46
57 56 49
59 62 57
58 59 51
63 60 53
77 70 64
61 62 52
63 55 54
67 59 56
79 77 69
83 83 76
72 55 50
63 68 62
65 67 62
47 48 44
62 54 50
80 85 65
58 55 52
48 54 43
54 54 50
80 58 53
60 54 45
59 56 50
58 56 54
58 64 54
55 56 50
63 54 48
60 60 54
62 66 55
76 54 52
67 64 59
46 48 39
63 58 53
53 58 52
47 46 43
103 85 82
49 34 30
64 52 46
78 54 50
63 58 55
65 61 53
68 49 44
67 64 57
98 59 57
75 57 55
69 64 61
59 57 46
60 62 59
56 53 45
59 56 53
68 66 59
44 47 41
72 63 61
86 73 67
62 64 59
76 70 66
84 68 61
66 70 60
57 49 45
60 52 51
70 66 65
50 42 41
76 67 65
63 61 57
74 70 60
56 46 46
62 58 52
63 61 57
60 51 46
77 75 68
62 56 53
75 65 60
66 60 59
62 57 53
92 66 53
62 57 56
70 59 57
60 45 44
55 55 49
56 40 37
52 46 43
57 51 46
61 60 54
43 37 33
78 69 63
71 57 56
63 54 51
67 62 60
98 50 47
75 75 68
67 61 57
58 54 49
72 70 63
53 39 37
74 63 60
63 50 48
54 50 45
83 57 53
67 52 47
80 77 73
56 53 51
74 63 58
71 65 59
68 63 56
59 51 51
68 55 51
71 63 59
49 42 35
66 56 52
63 49 40
58 46 44
63 56 52
66 42 41
60 55 51
87 72 70
93 54 51
57 43 42
69 60 55
67 57 56
73 60 57
64 46 45
55 56 45
64 43 43
67 57 54
81 66 62
72 57 53
66 59 51
97 76 76
48 43 40
83 62 60
75 66 63
68 58 55
60 53 52
58 45 43
68 41 41
55 44 43
66 50 48
76 70 66
75 60 58
70 60 57
68 43 39
66 51 48
74 63 62
63 53 51
64 50 44
52 35 28
64 55 50
64 43 38
61 53 49
62 59 51
83 79 71
50 37 32
70 86 60
55 51 48
55 60 45
70 57 55
63 52 49
55 46 41
55 59 51
66 43 42
72 48 47
51 40 40
87 74 73
78 93 66
50 36 33
53 43 41
101 44 38
68 54 47
62 56 52
56 28 27
76 56 50
77 53 53
72 56 52
55 40 35
80 70 67
58 48 44
48 38 36
84 51 48
56 32 27
59 47 42
66 60 60
60 41 40
66 53 50
80 56 51
60 47 46
47 53 41
46 28 28
73 53 42
75 47 47
59 34 33
76 40 37
62 48 48
56 40 39
67 46 46
57 51 47
61 39 35
58 51 50
54 42 40
63 52 45
58 50 47
62 46 41
57 40 35
66 46 45
61 44 43
49 50 41
63 41 38
74 38 36
62 52 49
54 54 50
72 53 53
43 27 25
62 48 48
50 42 40
53 26 26
64 48 48
75 61 59
51 38 35
70 50 50
59 41 41
78 73 70
87 47 45
47 33 27
41 32 25
56 40 39
46 28 27
72 64 64
60 45 45
56 49 46
62 62 55
54 42 41
59 41 38
34 20 19
51 34 33
52 41 40
56 38 37
44 22 22
60 33 33
65 66 54
59 31 27
87 68 67
51 45 45
38 29 29
44 42 36
42 18 15
35 8 6
42 11 10
43 9 8
56 15 14
49 10 9
70 19 18
61 15 15
80 21 21
45 10 9
56 15 14
42 13 11
35 8 7
51 13 12
52 13 12
67 17 16
61 16 15
57 15 15
72 18 18
66 13 12
62 15 15
79 18 17
68 16 15
113 31 31
61 16 15
60 15 15
76 19 19
81 20 20
104 29 28
76 20 19
97 26 26
70 19 18
71 18 18
65 16 16
85 21 20
66 17 16
106 29 28
92 21 20
62 15 15
68 17 17
98 25 24
79 22 21
69 20 18
56 14 13
88 22 21
68 17 17
79 20 20
80 22 21
66 18 17
72 18 17
86 18 18
84 21 21
56 13 13
80 20 19
47 13 12
70 19 18
63 16 16
77 20 19
65 16 16
69 19 19
73 19 19
83 23 22
63 16 16
55 12 12
79 21 21
53 14 13
59 16 16
104 19 19
65 17 16
73 19 19
55 15 14
76 20 20
53 14 14
62 16 16
60 16 16
74 18 17
53 15 14
66 18 18
73 20 20
63 17 17
55 18 15
31 8 8
71 19 19
58 18 15
51 14 14
55 15 15
41 11 10
63 16 16
50 14 13
59 16 15
43 11 11
74 20 20
42 10 9
62 14 14
112 31 31
63 16 15
62 16 16
77 20 19
40 8 7
0 0 0
0 0 0
0 0 0
0 0 0
0 0 0
0 0 0
0 0 0
0 0 0
0 0 0
0 0 0
0 0 0
0 0 0
0 0 0
0 0 0
0 0 0
0 0 0
0 0 0
0 0 0
0 0 0
0 0 0
0 0 0
0 0 0
0 0 0
0 0 0
0 0 0
0 0 0
0 0 0
10 14 8
27 52 30
34 62 35
22 43 23
28 52 30
21 37 21
22 38 21
21 32 18
32 59 33
30 58 33
26 48 27
29 54 31
24 38 22
33 59 34
17 30 16
22 36 20
32 57 32
27 51 27
30 56 32
26 49 27
29 53 30
28 54 29
25 44 25
25 48 26
33 68 36
35 66 37
30 55 31
32 57 32
17 31 17
33 61 34
37 70 40
23 45 25
32 57 31
24 42 23
31 59 33
24 47 26
27 54 30
30 58 32
31 51 29
31 63 33
23 44 23
29 57 32
27 52 29
33 61 35
33 63 36
31 59 33
34 56 31
26 49 26
34 57 32
31 57 32
25 48 27
32 61 35
37 70 39
32 63 35
35 63 35
32 57 32
27 43 24
32 60 33
28 52 29
31 57 31
32 59 32
36 70 38
34 61 34
32 56 31
31 58 33
37 70 40
30 57 32
26 48 27
24 44 25
35 66 37
23 41 23
28 55 30
33 62 35
33 61 34
28 53 30
26 46 25
31 58 33
26 47 26
30 57 32
26 49 27
31 58 33
25 51 25
32 62 34
28 50 28
28 52 27
26 45 24
24 44 25
26 58 28
22 43 23
22 40 22
24 41 22
25 41 23
26 41 21
18 33 17
25 45 25
21 39 21
15 24 11
26 50 27
18 31 16
27 32 26
49 31 25
60 55 54
52 48 41
42 46 41
34 36 28
60 54 49
53 54 46
27 39 27
41 41 36
63 53 50
37 38 33
57 70 55
46 49 37
43 48 43
53 62 50
70 49 41
53 58 48
41 46 36
47 52 44
42 52 40
62 69 60
55 34 30
57 44 40
55 51 41
42 48 42
61 65 58
46 48 39
53 59 53
49 54 44
50 48 42
49 51 39
50 47 37
52 55 50
40 46 36
39 53 40
52 63 52
44 59 45
40 55 42
42 40 34
51 53 45
52 53 47
46 52 44
51 48 39
54 53 45
61 68 57
53 64 53
46 58 42
50 54 44
64 65 61
38 38 33
60 50 44
44 51 35
56 53 41
66 57 51
101 56 48
55 53 45
52 59 51
54 62 54
56 53 44
73 72 63
66 62 58
52 57 44
55 59 51
46 55 46
57 63 48
63 68 60
58 53 45
59 53 46
51 51 49
54 58 50
57 52 46
59 54 48
57 63 55
61 62 52
91 65 59
65 60 57
61 60 51
47 58 45
55 52 46
43 48 43
65 74 65
43 50 40
44 53 42
70 73 67
56 56 49
67 72 65
60 64 49
74 64 57
49 42 38
56 45 39
57 50 48
71 56 53
78 48 43
62 55 53
63 64 54
62 56 46
48 52 46
65 55 50
62 63 57
61 53 49
64 63 56
51 54 41
72 60 55
59 57 51
71 64 57
61 53 48
51 52 45
72 51 47
46 45 40
57 56 53
71 65 57
63 59 49
51 47 40
55 55 48
61 57 54
56 54 47
51 48 45
76 51 46
63 58 56
61 59 54
71 56 52
45 47 44
51 56 51
73 65 61
67 64 57
39 40 38
64 61 57
76 65 59
53 46 37
52 50 40
60 61 55
65 60 57
74 57 54
66 63 59
63 60 53
52 57 44
55 56 47
60 64 58
71 65 59
70 67 61
65 64 59
58 47 44
55 52 48
55 56 50
69 60 56
50 47 45
47 42 40
55 53 49
54 47 45
68 64 57
54 63 50
67 53 49
62 63 61
66 64 62
81 80 77
55 53 49
64 63 58
58 54 47
67 67 62
60 59 56
52 69 51
54 58 47
53 52 46
68 72 62
54 51 47
72 61 57
70 66 62
51 50 47
72 65 60
63 53 48
65 61 53
76 61 55
64 63 57
54 53 49
64 50 46
58 54 48
62 69 60
90 73 70
55 50 47
72 48 46
109 178 111
63 52 47
68 39 38
60 56 49
65 60 56
48 50 42
66 64 62
65 55 53
79 61 55
58 69 55
55 49 47
96 71 62
62 45 40
67 64 53
77 58 55
66 61 55
76 68 67
66 70 65
68 57 54
99 91 85
39 35 30
59 49 48
77 54 52
75 57 55
44 44 40
74 57 46
59 53 50
64 55 55
76 68 62
67 77 61
59 61 52
53 47 44
75 68 67
54 56 52
73 55 53
66 57 54
52 44 42
85 59 54
60 54 53
54 45 44
53 37 36
62 54 49
76 62 60
66 61 56
52 51 44
67 64 59
65 66 61
77 66 62
75 63 54
58 73 57
105 65 58
74 56 53
60 63 58
84 68 66
69 60 54
81 56 51
68 63 56
65 55 54
54 45 40
54 47 41
62 47 45
61 53 50
90 65 56
63 53 52
66 59 58
66 56 51
78 78 69
58 46 43
63 49 47
67 60 56
52 43 36
52 44 42
69 63 55
59 51 46
50 43 39
58 47 41
53 49 45
61 51 41
71 64 60
72 61 59
62 49 47
63 59 51
64 58 52
55 39 38
52 52 48
64 47 46
61 49 40
61 60 51
40 27 24
67 58 54
57 51 50
69 61 60
53 44 39
78 62 61
55 51 46
64 46 44
71 52 51
65 47 42
48 41 38
64 44 42
56 42 42
67 56 51
82 70 65
51 51 45
55 48 47
72 50 47
60 50 43
78 72 65
65 52 47
84 55 50
57 35 29
67 56 52
44 37 36
49 43 37
56 38 37
72 59 56
57 33 30
72 60 55
50 48 43
47 41 37
65 48 47
56 49 46
56 46 39
57 41 41
71 52 50
65 57 50
69 65 55
56 43 41
55 44 41
56 46 42
69 55 41
52 35 31
62 54 53
69 57 55
75 53 51
55 40 36
63 50 42
74 60 58
63 40 38
70 63 61
71 55 55
60 26 26
112 82 79
66 44 44
113 54 54
68 46 45
58 46 44
62 38 37
49 32 26
65 54 52
62 51 50
60 44 42
52 41 37
70 47 46
61 40 40
54 42 36
64 42 42
56 43 41
76 50 50
64 56 53
52 32 26
57 42 41
59 30 30
57 34 26
53 40 39
62 59 58
51 28 28
66 58 55
57 31 29
67 57 55
68 37 37
53 44 44
70 46 43
57 49 44
65 50 47
45 33 32
56 39 38
48 46 40
53 34 34
86 63 52
54 34 32
51 34 30
62 51 50
37 25 24
48 41 34
45 30 29
58 41 41
68 72 63
43 29 29
61 54 51
114 41 39
38 35 28
38 34 32
59 32 31
62 12 11
49 11 9
50 12 11
54 13 12
65 15 15
47 10 9
65 17 16
52 13 12
45 11 10
44 10 9
67 17 16
60 17 16
77 21 20
46 14 12
76 20 20
67 16 16
61 15 14
73 17 17
52 12 11
64 13 13
56 15 15
67 17 16
77 18 18
63 17 16
69 19 18
54 14 13
72 19 18
55 15 14
67 17 16
69 17 16
79 22 21
78 20 20
74 19 19
73 20 19
55 15 14
56 12 12
79 22 20
59 16 16
73 18 18
73 18 17
74 19 19
80 19 18
78 21 21
80 21 21
80 20 19
71 17 16
73 19 18
73 18 18
82 23 22
41 12 11
71 19 18
52 15 14
54 13 13
60 14 14
57 15 15
77 20 20
66 16 16
81 21 21
61 15 15
75 19 19
70 18 17
64 16 16
145 11 11
67 18 18
86 22 22
71 15 15
69 19 19
67 17 16
81 22 21
77 19 19
47 12 12
63 17 16
48 14 12
86 22 21
61 16 16
62 18 17
61 16 16
65 16 16
60 17 16
56 16 15
56 15 15
59 16 16
57 14 14
66 19 18
59 15 14
95 25 25
50 12 12
63 17 16
63 17 17
60 16 15
47 14 13
46 13 12
50 14 12
39 11 10
61 16 16
53 13 13
58 17 16
67 17 16
22 8 6
0 0 0
0 0 0
0 0 0
0 0 0
0 0 0
0 0 0
0 0 0
0 0 0
0 0 0
0 0 0
0 0 0
0 0 0
0 0 0
0 0 0
0 0 0
0 0 0
0 0 0
0 0 0
0 0 0
0 0 0
0 0 0
0 0 0
0 0 0
0 0 0
0 0 0
0 0 0
0 0 0
17 32 16
23 34 19
34 62 35
33 64 37
28 53 30
22 41 22
26 53 29
26 50 27
39 53 30
28 46 26
37 70 40
29 56 32
22 40 22
31 50 28
26 44 24
24 42 24
29 53 30
29 50 28
28 55 30
28 58 30
26 53 28
27 47 26
27 49 28
26 54 28
24 34 19
28 56 31
30 56 32
24 43 23
35 63 36
28 50 28
33 67 34
37 72 41
29 61 30
29 55 31
32 65 36
29 56 31
26 49 28
29 48 27
31 57 32
27 50 29
33 58 33
35 63 36
33 55 29
35 67 38
26 52 28
29 56 31
33 64 36
40 60 34
31 60 34
24 47 26
34 65 37
41 77 44
31 59 33
33 63 35
32 59 33
42 80 45
32 61 34
34 69 37
28 55 28
47 70 38
32 62 35
27 52 29
35 67 37
35 61 34
31 57 32
36 69 39
33 62 35
25 50 27
24 48 26
32 63 35
34 66 37
41 64 37
28 52 28
30 54 31
27 49 28
28 46 26
35 91 35
38 69 39
27 53 28
33 61 34
30 58 32
22 45 24
25 51 26
27 48 26
41 80 44
24 40 23
30 59 32
31 55 30
29 54 30
33 51 26
29 54 29
21 40 21
22 45 23
31 57 32
22 37 20
31 51 27
27 44 25
20 38 17
18 34 19
23 41 21
32 44 32
48 47 42
60 40 33
48 48 45
50 54 48
54 43 35
45 48 44
47 41 36
47 50 46
57 53 50
33 41 30
52 48 38
62 51 42
37 41 34
56 65 55
36 42 37
50 52 40
41 43 33
58 52 41
42 49 38
60 61 52
34 31 26
38 42 36
71 47 44
59 59 52
61 61 52
55 66 55
46 53 45
52 50 45
56 51 46
50 54 46
49 51 44
41 48 37
49 58 47
41 46 39
56 49 39
57 67 57
63 50 46
46 54 44
45 50 40
42 48 41
57 57 50
46 40 35
58 60 52
47 43 38
59 58 50
51 53 43
52 49 42
65 70 62
55 58 48
49 51 43
52 57 43
44 41 36
63 63 53
62 62 57
65 64 57
62 57 54
33 33 31
62 53 44
62 59 47
56 50 44
53 56 50
62 60 54
62 63 56
57 63 57
54 52 48
55 59 51
53 59 49
71 57 49
53 59 50
55 60 52
58 66 57
63 66 50
58 61 53
48 48 41
56 56 47
60 56 49
43 49 40
56 56 47
62 58 53
66 64 59
63 65 57
54 52 45
61 67 58
58 59 55
68 61 59
52 45 35
65 60 53
50 58 46
60 59 55
74 105 73
65 78 60
66 59 53
59 58 51
63 66 57
58 61 51
58 69 58
72 60 54
46 37 32
63 53 47
55 57 50
60 54 49
56 59 53
65 70 63
73 65 59
77 80 76
61 68 56
48 52 46
72 59 54
43 45 40
65 68 61
71 70 65
68 60 55
51 50 43
50 52 45
61 58 55
64 45 41
47 52 42
47 48 43
69 65 63
54 53 43
85 60 52
52 59 49
67 64 59
64 71 60
68 70 66
57 58 49
65 65 56
61 50 44
73 71 66
66 59 52
65 64 59
57 51 49
76 73 69
67 65 56
64 66 54
65 57 51
92 95 90
60 61 53
77 72 63
45 47 43
64 65 60
43 47 40
50 50 45
49 53 47
77 73 66
63 64 60
58 59 51
61 58 55
60 50 45
64 62 56
61 61 57
63 62 58
68 60 52
68 65 59
61 54 48
39 38 32
64 57 52
53 57 51
86 65 56
41 38 33
52 64 51
65 63 61
75 78 65
67 68 61
52 43 42
66 62 60
85 69 65
75 71 67
58 56 51
61 57 55
66 58 56
70 60 58
76 66 64
74 64 61
75 64 55
64 60 56
61 56 52
65 59 55
59 58 48
66 53 52
81 63 58
62 50 49
55 57 48
65 65 57
48 48 42
52 49 45
78 68 63
61 59 54
61 49 49
64 54 52
75 63 59
77 59 56
72 60 54
84 56 52
96 65 61
68 68 62
63 60 57
57 50 48
68 57 56
83 56 52
48 44 37
77 70 68
61 57 51
57 45 43
78 65 64
79 74 72
73 61 60
55 46 40
63 58 54
68 51 45
67 65 52
86 62 58
83 74 69
76 57 54
59 53 50
71 58 53
62 50 50
96 67 60
51 48 39
63 59 54
50 53 45
64 58 53
70 47 46
58 51 48
54 52 49
78 63 63
65 48 47
76 68 65
58 48 43
62 56 51
58 55 48
74 67 61
78 54 52
80 65 60
67 61 57
55 47 47
60 49 44
60 50 48
63 60 57
61 50 47
68 51 51
80 69 63
60 47 47
68 65 59
60 49 45
69 56 53
72 72 61
79 58 57
55 48 42
51 44 39
54 52 46
63 49 47
80 75 65
71 44 41
70 56 49
69 62 62
57 44 44
62 40 40
58 42 40
69 56 48
55 49 46
74 40 39
54 37 33
61 40 38
86 58 53
69 54 53
58 52 50
73 61 58
74 62 60
51 48 45
62 58 55
55 38 37
61 52 44
65 46 42
55 40 40
71 61 55
45 29 26
64 66 60
68 57 53
75 52 47
68 60 58
58 46 45
62 51 47
46 35 34
49 36 29
54 43 42
48 41 39
66 53 51
57 54 48
70 50 47
68 50 49
48 48 34
56 39 38
48 35 34
50 28 28
58 51 46
47 34 33
55 43 41
54 41 41
78 66 64
46 43 38
56 34 34
52 38 36
47 30 22
65 51 47
77 64 64
58 47 45
60 51 45
78 52 50
59 51 45
75 57 54
51 42 42
58 40 33
62 48 44
63 55 52
59 52 51
84 55 53
60 47 42
61 36 36
73 59 55
74 58 56
55 45 41
58 41 41
70 56 54
63 45 45
77 59 59
71 47 47
55 46 38
78 58 58
64 45 42
64 54 42
55 46 46
72 51 49
99 40 39
71 56 56
54 42 41
54 44 42
46 41 31
69 54 53
49 35 30
70 54 53
57 36 36
59 38 38
68 60 59
58 46 38
60 47 44
51 45 37
43 23 22
53 38 37
48 40 35
60 49 40
44 25 24
60 36 35
49 34 33
58 52 46
61 52 51
48 47 41
81 74 70
56 43 41
50 35 32
56 51 50
57 44 40
38 24 23
72 64 64
61 46 41
52 31 30
65 58 52
44 38 35
58 50 49
49 32 31
47 23 23
34 12 9
53 15 14
68 16 15
51 10 9
40 11 10
54 13 13
58 15 14
67 16 16
55 13 13
54 13 13
53 14 14
58 15 14
50 11 11
43 12 11
53 14 13
59 15 14
62 16 15
53 14 14
58 15 15
73 20 18
66 17 17
65 16 16
68 18 17
72 19 18
76 19 19
66 19 18
66 17 17
65 16 15
67 17 17
66 15 15
83 22 21
57 15 14
83 22 21
72 20 19
69 18 17
74 18 18
82 22 22
80 20 19
90 25 24
75 19 19
65 18 18
63 16 16
77 21 21
68 17 17
55 15 14
59 16 15
99 26 26
46 14 12
62 14 14
69 16 15
74 20 20
65 18 18
101 26 26
91 24 24
57 15 15
55 14 14
80 22 21
73 21 19
77 19 18
78 20 20
71 19 19
75 21 20
58 16 15
88 21 21
87 23 22
55 15 14
65 18 17
64 17 16
81 22 22
61 16 15
61 17 16
49 13 12
66 18 17
64 16 15
75 21 20
76 21 21
81 22 22
56 15 15
63 16 16
59 16 15
59 14 14
48 13 13
84 19 19
76 20 20
69 19 19
58 16 15
42 11 10
72 20 19
58 14 13
74 20 20
70 19 19
68 18 18
70 19 18
67 19 18
59 16 15
62 12 12
58 16 15
45 13 12
75 20 19
53 15 14
16 6 4
0 0 0
0 0 0
0 0 0
0 0 0
0 0 0
0 0 0
0 0 0
0 0 0
0 0 0
0 0 0
0 0 0
0 0 0
0 0 0
0 0 0
0 0 0
0 0 0
0 0 0
0 0 0
0 0 0
0 0 0
0 0 0
0 0 0
0 0 0
0 0 0
0 0 0
0 0 0
0 0 0
9 18 8
23 43 24
21 37 21
20 38 22
24 41 21
20 32 18
33 62 35
25 41 23
14 20 11
25 48 27
32 60 34
24 44 25
19 38 21
28 51 29
25 47 26
36 76 40
44 90 49
33 65 37
31 60 34
26 51 29
30 56 32
27 53 30
31 59 33
17 34 19
29 54 30
26 53 29
26 50 26
28 49 26
29 56 32
35 67 38
29 48 27
28 51 29
27 52 29
23 45 25
32 58 31
28 56 29
32 62 35
27 51 28
17 29 16
31 58 32
28 54 30
38 72 40
27 51 28
25 47 26
28 51 29
33 56 31
33 54 30
31 60 33
29 54 30
28 54 30
29 53 30
34 64 36
27 49 27
35 57 32
42 81 46
28 53 30
28 53 29
32 55 31
32 58 31
39 70 40
50 96 55
33 63 36
36 71 39
26 50 27
23 39 21
31 59 33
32 60 34
33 61 34
32 59 33
30 57 32
31 60 32
34 61 35
30 59 32
21 42 23
28 54 30
30 55 31
30 62 32
26 50 28
25 47 24
18 28 15
30 62 33
28 48 27
30 57 31
35 67 38
35 61 34
37 68 38
24 48 26
26 49 26
24 45 25
22 37 20
38 49 26
24 44 24
20 53 22
19 36 19
25 47 25
29 51 28
20 38 19
21 37 20
30 46 25
21 43 22
17 32 16
28 36 27
52 56 46
43 39 32
39 37 33
34 43 33
43 48 38
42 48 36
45 46 36
36 38 33
40 48 37
61 64 56
57 55 42
46 47 40
58 54 50
58 63 50
63 56 53
44 55 45
71 69 60
52 51 43
38 42 36
49 52 39
40 42 33
38 41 34
46 50 45
41 49 40
51 30 27
55 45 36
52 54 46
54 51 43
64 63 45
61 61 52
44 51 36
39 48 33
76 69 59
55 59 55
34 38 33
59 57 46
57 49 37
43 38 29
47 51 44
38 50 38
57 62 53
57 62 53
64 52 34
47 56 46
48 49 45
54 54 49
60 59 51
61 67 59
46 51 39
70 65 59
81 55 46
61 66 60
40 44 40
58 56 45
63 55 46
83 70 60
66 62 50
56 61 55
55 44 38
40 42 31
55 53 44
59 43 33
54 54 45
60 62 51
50 56 49
65 64 59
62 66 61
52 59 51
83 81 74
79 66 59
51 54 47
60 58 52
53 56 50
51 44 42
52 69 49
50 51 39
62 68 58
65 44 41
83 78 77
58 56 47
69 57 54
52 58 49
44 48 37
63 67 57
58 65 51
63 62 56
65 66 58
58 68 56
59 53 47
53 55 46
37 43 37
65 71 62
61 61 56
81 60 54
59 54 50
69 66 64
44 47 42
73 66 57
69 61 54
66 59 54
65 55 50
49 61 48
56 61 54
52 52 45
65 65 58
70 77 62
58 55 53
56 53 48
61 49 44
59 65 54
58 51 48
65 67 60
43 40 39
76 69 63
72 75 68
61 58 51
74 66 57
57 54 48
69 68 63
67 69 65
78 84 72
54 51 48
55 58 53
79 68 64
80 73 67
79 65 62
73 82 69
68 65 58
68 65 58
59 61 56
60 62 55
59 58 56
74 55 51
65 57 54
60 49 42
77 55 51
81 71 62
68 74 60
60 63 55
52 51 41
76 66 64
56 56 52
61 65 60
66 59 57
73 67 64
73 73 61
57 50 46
66 60 55
75 55 51
57 55 53
57 57 55
61 64 55
70 61 57
53 52 46
59 45 40
66 67 62
78 68 65
63 57 52
84 52 49
63 62 57
67 54 52
71 64 59
73 71 63
71 73 66
73 50 47
69 64 56
52 50 44
63 59 51
52 54 47
128 123 122
87 53 51
71 67 61
54 55 48
70 64 62
62 56 52
71 54 50
72 61 58
79 59 56
67 56 53
67 67 62
71 63 55
69 61 59
60 55 52
86 64 60
66 66 58
56 48 47
72 57 51
51 53 45
65 53 51
102 77 74
61 56 52
60 54 51
51 46 41
64 57 53
64 64 59
57 55 51
80 71 68
72 61 56
64 68 56
59 48 46
72 48 46
58 57 53
72 56 51
116 82 72
70 57 50
57 54 47
95 76 67
65 55 53
57 56 48
63 54 51
56 44 41
60 56 50
77 71 69
83 70 65
69 52 50
61 49 47
76 72 68
64 60 57
83 71 66
63 51 50
60 64 57
63 56 51
70 59 52
59 50 46
76 66 64
82 62 58
74 52 46
70 61 60
70 43 41
63 53 50
75 66 63
58 56 52
68 60 53
59 50 46
48 43 40
72 63 60
69 54 53
67 53 53
67 52 50
52 49 44
56 43 43
80 66 63
68 66 62
44 38 34
46 43 39
66 60 57
61 51 49
52 58 46
124 118 116
62 48 40
69 52 51
81 56 52
74 73 65
80 50 50
51 32 30
59 45 41
57 45 42
77 66 62
80 44 43
62 54 49
71 60 55
67 51 48
64 57 47
63 40 36
56 40 37
76 56 54
70 61 57
72 60 58
56 50 47
70 55 54
70 50 45
71 73 57
64 51 50
55 38 35
59 55 51
58 42 40
60 51 46
53 44 39
60 45 41
69 44 43
68 56 51
73 61 57
66 57 54
55 46 43
76 62 60
74 58 54
103 95 94
62 40 40
83 51 48
55 38 37
62 49 49
75 55 52
44 36 33
56 46 45
71 59 54
62 50 46
81 57 54
47 31 30
49 31 31
48 33 29
45 37 29
57 43 38
82 44 43
68 54 51
67 44 44
62 49 49
43 24 23
58 47 41
72 49 46
91 65 53
55 36 34
61 59 51
66 53 47
47 35 32
72 39 39
58 52 49
64 44 41
68 43 42
55 54 44
63 54 51
62 40 34
73 67 61
61 51 49
49 39 36
63 49 48
89 43 42
57 46 38
67 57 53
62 50 46
49 32 32
59 41 41
57 49 46
59 44 44
58 47 42
55 43 40
62 56 53
46 31 29
46 42 37
64 51 49
59 56 39
97 52 50
62 26 26
51 45 33
46 31 23
46 51 38
42 44 34
56 44 41
63 44 41
52 46 39
51 28 28
54 40 40
51 29 29
44 33 33
51 38 37
82 59 59
56 33 31
71 44 42
112 40 36
47 36 29
52 34 34
54 45 40
73 49 37
48 23 22
46 32 32
61 61 42
49 35 29
47 40 31
68 50 47
45 34 33
145 49 49
44 10 9
56 15 13
33 6 4
53 14 13
42 12 9
43 11 10
64 16 16
52 12 12
54 15 14
53 13 13
64 16 15
43 10 9
51 13 12
54 14 13
56 12 12
68 18 17
63 16 15
48 14 12
61 13 12
65 17 17
54 13 13
65 14 14
59 16 15
63 16 16
49 13 11
72 18 17
54 14 14
59 16 16
83 22 22
66 16 16
70 18 17
76 19 18
74 19 19
79 18 17
67 15 15
70 18 17
81 20 19
78 19 19
68 18 17
69 19 18
79 20 20
82 21 21
51 14 13
75 21 20
68 17 17
73 20 20
84 22 22
67 18 17
73 17 16
57 18 15
65 17 17
68 16 16
78 21 20
60 17 16
59 15 14
62 16 16
70 19 18
49 13 12
73 19 19
68 17 16
64 19 17
75 20 20
67 19 17
62 16 15
71 20 19
64 17 16
52 13 12
63 16 15
39 9 9
71 19 19
65 16 16
78 21 21
62 17 17
67 18 17
50 13 13
60 16 16
38 9 8
81 22 21
74 20 19
67 18 17
68 19 18
70 17 17
65 17 17
61 16 16
47 13 12
53 14 14
83 23 22
66 18 18
51 14 13
58 15 15
41 11 11
63 17 17
23 7 6
62 17 17
58 16 16
65 14 14
67 23 18
54 14 14
57 16 15
42 11 10
31 7 6
0 0 0
0 0 0
0 0 0
0 0 0
0 0 0
0 0 0
0 0 0
0 0 0
0 0 0
0 0 0
0 0 0
0 0 0
0 0 0
0 0 0
0 0 0
0 0 0
0 0 0
0 0 0
0 0 0
0 0 0
0 0 0
0 0 0
0 0 0
0 0 0
0 0 0
0 0 0
0 0 0
17 33 19
23 44 25
23 37 21
20 35 20
32 60 34
16 27 15
20 38 20
25 48 26
37 64 36
26 49 28
23 42 23
21 40 22
26 50 29
24 41 23
32 54 31
29 46 26
29 52 29
26 48 27
30 58 32
30 52 29
20 34 19
29 53 29
26 48 25
34 65 37
29 52 30
28 52 30
28 54 31
27 51 28
28 49 27
32 57 32
34 63 36
30 56 32
29 55 31
31 60 34
33 64 36
34 64 36
32 60 34
29 56 31
27 51 29
31 54 31
32 62 35
29 57 32
33 60 34
32 57 32
28 51 28
33 63 36
20 36 20
29 50 28
32 60 33
32 60 34
26 49 28
30 58 32
32 62 34
35 61 34
31 58 33
28 50 28
48 93 53
27 52 29
34 66 36
33 63 36
29 50 29
25 41 22
31 56 31
24 45 26
29 54 30
34 63 36
35 64 36
35 68 38
26 46 26
27 47 26
35 57 32
34 65 37
26 52 28
40 78 44
28 56 31
32 59 33
30 55 31
34 65 36
31 60 32
19 33 19
28 62 29
25 40 21
21 35 19
32 57 32
24 62 26
30 45 26
23 46 24
29 59 30
26 44 25
71 138 79
22 39 21
28 52 27
20 41 21
23 43 23
24 45 25
20 38 19
27 46 26
21 31 18
24 40 22
23 43 23
22 37 20
20 36 19
50 49 46
56 48 43
43 40 35
50 52 44
37 38 32
47 40 35
60 54 52
39 47 39
57 56 47
49 44 37
67 59 53
49 61 46
41 40 35
43 48 41
47 52 43
53 54 47
44 45 36
39 44 33
42 48 41
43 51 40
59 57 48
49 54 40
67 43 35
58 49 47
40 44 36
53 55 48
45 51 44
54 58 49
48 50 42
52 65 52
50 53 42
45 52 45
49 54 49
47 54 44
55 55 52
57 57 52
44 45 41
44 56 45
43 44 37
38 49 38
47 39 34
48 62 48
46 52 45
46 50 45
70 70 62
55 46 38
60 65 60
56 68 54
64 66 61
38 45 37
43 44 36
52 46 40
49 47 41
41 48 40
52 56 48
38 37 28
55 48 42
40 46 39
46 50 41
61 61 55
42 46 40
49 53 44
54 55 51
64 64 57
56 48 45
55 49 43
50 41 37
55 55 49
52 46 41
48 50 46
44 43 40
55 53 47
50 56 41
53 62 50
73 78 67
67 63 59
40 47 37
65 59 53
65 49 41
58 47 40
51 45 42
64 62 52
51 58 45
51 50 44
73 61 53
55 53 45
50 47 42
56 54 46
62 54 52
63 57 51
50 48 45
49 51 43
59 58 53
67 67 56
63 62 57
60 63 57
56 51 46
61 55 50
50 60 51
77 79 75
61 57 51
66 58 55
61 59 54
102 60 55
53 52 46
67 55 50
70 91 68
77 72 68
54 58 52
66 59 58
61 62 53
50 54 49
61 67 56
71 71 59
62 67 58
59 52 47
64 60 55
67 64 60
48 52 46
64 66 58
57 55 51
83 60 55
57 53 51
56 57 52
56 53 50
61 67 58
52 50 47
75 69 64
43 44 37
69 58 54
72 66 60
74 60 56
57 52 46
70 52 50
67 64 55
56 64 55
71 71 62
79 66 62
47 50 40
62 72 50
62 62 57
55 57 51
61 57 50
59 53 50
67 67 62
77 71 66
44 37 32
51 48 45
51 58 46
70 57 52
82 66 59
76 76 71
68 67 63
53 49 42
54 53 48
78 65 59
63 59 56
61 42 38
70 65 63
69 50 48
62 62 55
67 65 60
61 57 52
63 67 61
55 48 47
67 62 57
65 59 56
68 63 59
46 45 40
59 54 46
50 50 45
69 55 52
86 62 58
60 50 46
60 53 49
57 58 54
63 58 50
51 46 42
51 50 47
51 49 46
75 77 67
78 66 63
55 64 51
68 59 56
62 59 57
70 59 52
82 60 54
56 47 40
57 42 38
53 47 39
78 70 68
60 51 49
77 70 65
65 56 52
54 50 45
71 77 65
58 57 53
65 50 39
77 70 68
54 55 49
63 54 52
56 50 46
55 46 41
60 55 51
63 60 54
60 51 50
48 50 45
67 62 54
70 64 58
69 68 60
68 59 55
85 82 62
81 79 74
58 51 48
55 45 40
64 55 52
64 55 51
68 67 59
64 55 49
65 64 56
62 45 41
69 43 41
79 68 65
71 65 61
78 49 45
81 67 64
71 58 55
72 55 53
171 79 76
54 47 45
51 45 38
66 59 57
68 56 53
60 61 58
62 47 44
67 63 59
68 60 56
73 57 57
61 58 57
75 69 64
60 60 54
51 47 41
57 46 42
70 65 55
52 50 47
78 40 39
100 50 42
52 46 40
47 35 25
61 56 51
55 38 35
70 58 58
85 51 46
74 66 61
67 54 51
94 56 52
73 71 61
62 49 49
63 61 54
56 56 49
56 42 41
58 45 42
75 53 52
69 41 39
67 61 54
55 46 41
49 32 29
61 70 56
61 52 49
62 48 46
70 66 61
52 53 46
58 51 48
81 47 46
50 41 38
52 45 44
55 50 44
79 66 64
53 40 37
67 62 52
59 41 40
72 63 62
61 48 44
76 56 54
55 42 42
63 50 48
58 55 52
63 57 54
58 54 50
88 71 70
65 42 41
66 45 41
65 42 41
67 49 48
56 41 32
60 46 43
55 28 24
67 53 48
56 51 45
53 52 41
65 31 28
54 42 42
72 66 62
65 46 46
63 53 49
58 49 47
57 40 39
59 41 40
66 49 49
61 40 39
82 44 43
66 54 53
63 46 42
57 36 36
74 53 52
70 63 63
53 36 33
56 45 43
66 44 44
48 35 35
57 44 40
54 41 38
66 54 53
61 49 45
74 60 57
55 38 36
59 45 40
59 39 39
54 44 43
47 36 28
57 44 43
42 35 33
66 59 52
57 35 34
68 45 45
77 69 65
54 40 36
51 40 39
61 40 40
54 49 45
127 45 44
53 38 30
51 32 26
50 22 20
56 39 37
53 33 33
51 42 42
107 48 46
50 39 35
74 42 40
52 39 36
53 39 36
47 47 37
86 59 53
72 63 61
67 58 56
50 37 36
70 48 45
65 57 57
48 43 43
74 50 46
77 31 30
44 32 31
53 41 40
57 48 44
52 58 48
46 38 36
67 30 25
32 12 11
51 12 12
44 12 11
63 10 10
54 12 11
47 10 9
54 11 11
30 9 7
60 12 12
60 15 14
61 14 13
51 13 13
42 11 10
79 19 19
56 12 12
41 10 10
65 16 15
77 17 17
54 15 14
55 11 11
77 21 20
66 18 17
74 16 15
75 19 18
76 18 18
79 20 20
67 18 17
71 16 16
53 14 12
83 17 17
86 17 16
70 19 18
129 35 35
72 20 19
94 16 16
78 20 19
62 17 16
80 21 20
67 18 18
82 22 21
68 18 18
80 20 19
68 18 18
81 20 19
83 21 20
76 20 20
73 18 17
54 14 13
79 22 21
66 18 17
94 25 25
60 16 15
75 18 17
66 16 15
90 23 22
65 17 17
87 24 24
57 15 14
66 16 15
80 22 21
74 15 15
64 16 15
68 18 18
63 16 16
61 16 15
79 21 20
76 20 20
48 12 12
79 21 20
65 18 17
92 22 19
67 18 17
83 22 22
79 21 20
80 22 22
54 14 13
61 16 15
76 21 20
52 14 13
58 15 14
51 13 13
61 17 16
65 17 17
69 17 17
70 19 19
59 15 15
59 15 14
87 17 17
44 13 12
32 9 8
52 17 12
84 22 22
63 17 15
82 21 21
50 12 12
53 13 13
46 13 12
66 18 18
52 15 14
68 19 18
53 14 13
59 16 16
20 5 5
0 0 0
0 0 0
0 0 0
0 0 0
0 0 0
0 0 0
0 0 0
0 0 0
0 0 0
0 0 0
0 0 0
0 0 0
0 0 0
0 0 0
0 0 0
0 0 0
0 0 0
0 0 0
0 0 0
0 0 0
0 0 0
0 0 0
0 0 0
0 0 0
0 0 0
0 0 0
0 0 0
7 14 4
27 54 29
26 46 26
28 55 31
23 45 25
23 39 22
21 38 21
28 53 30
29 56 31
23 50 25
30 58 33
24 41 23
20 31 17
22 35 20
26 48 27
23 44 24
26 50 28
26 50 29
22 37 21
28 51 29
27 51 28
33 63 36
34 65 36
25 47 25
28 53 30
23 42 23
32 60 34
29 56 31
30 57 31
31 59 33
28 50 28
27 51 29
25 49 27
23 43 24
33 67 37
35 66 38
36 67 38
28 49 27
31 51 28
31 59 34
31 49 27
31 54 31
34 64 36
19 35 20
32 61 33
31 59 33
30 58 33
35 52 30
31 61 34
39 76 43
30 53 30
32 63 35
33 65 37
32 61 34
31 58 33
35 64 36
30 52 29
32 56 32
27 47 25
38 65 36
26 48 27
59 114 65
37 70 39
25 49 27
32 60 34
37 76 40
36 64 36
30 61 31
34 56 31
26 53 29
28 54 30
27 53 30
23 46 24
30 59 32
37 72 41
26 51 28
34 64 36
35 69 39
29 57 32
26 49 27
26 47 25
39 71 40
31 51 28
37 67 37
25 44 24
32 40 22
26 51 26
34 61 35
28 52 29
24 45 25
26 51 28
27 53 29
23 43 23
29 51 27
23 44 24
24 42 23
23 46 24
75 55 31
25 44 24
28 52 27
24 47 24
23 46 25
27 49 27
33 44 31
55 61 54
22 25 18
45 49 43
52 45 42
43 46 41
43 50 39
58 71 55
52 54 50
52 50 44
53 53 44
47 40 35
31 34 29
38 45 34
42 46 41
46 50 33
51 57 44
52 56 51
47 38 31
49 45 37
46 51 45
43 49 41
48 55 48
66 52 43
62 94 64
39 52 35
41 50 40
64 62 55
59 56 51
60 49 47
55 56 49
58 57 50
56 61 54
53 57 47
40 49 41
43 45 40
42 46 41
52 54 46
54 65 54
39 42 37
47 53 42
49 41 36
46 53 47
50 53 48
57 62 53
43 49 42
55 60 51
70 66 62
49 57 42
58 62 53
44 35 27
59 65 58
61 72 61
46 57 42
58 49 43
53 59 44
55 50 44
54 46 43
55 69 55
53 55 48
55 56 49
57 51 44
52 48 42
57 53 44
47 41 39
62 54 47
59 53 45
46 49 36
63 56 50
59 65 56
59 69 55
74 66 56
45 47 38
43 47 41
41 42 37
60 60 55
65 71 60
67 54 40
44 50 43
53 56 45
46 57 44
49 42 36
60 63 54
62 63 56
56 57 52
65 62 54
50 48 42
67 63 61
67 65 59
64 61 54
59 62 57
66 62 58
49 59 49
62 59 52
53 57 52
60 50 43
63 56 54
48 50 42
59 102 61
52 47 42
61 49 38
41 47 39
40 53 37
45 38 34
55 57 52
54 56 51
64 56 54
54 49 43
61 61 51
60 53 48
55 54 50
78 76 66
69 75 66
58 52 49
86 82 76
76 75 69
57 55 49
62 65 56
66 61 59
48 44 38
68 61 57
54 51 45
54 56 48
71 60 53
51 57 46
58 61 56
53 57 51
59 54 52
62 56 49
71 52 51
48 50 42
62 59 50
52 58 50
71 65 57
59 57 51
70 69 61
50 48 43
81 68 61
77 66 64
48 49 42
55 54 50
62 54 51
78 60 57
78 72 66
77 55 53
65 66 62
77 50 48
47 43 33
55 53 45
53 49 47
97 69 68
72 51 50
60 50 47
62 69 54
73 66 59
41 45 39
58 59 55
65 64 55
67 84 59
57 60 53
71 63 59
72 65 61
78 64 63
75 57 51
68 69 60
65 59 57
50 57 46
65 67 54
57 47 47
76 80 71
73 72 62
60 51 48
67 56 52
57 53 45
65 52 49
76 69 65
68 68 63
52 53 50
81 68 63
65 60 56
48 49 43
45 36 33
52 55 44
54 47 44
57 55 42
54 48 40
61 50 47
69 52 51
76 78 73
53 49 46
65 58 55
54 48 42
61 62 54
55 51 49
58 46 40
70 54 48
61 52 49
73 62 59
48 43 39
46 43 40
64 57 54
60 43 42
66 56 54
70 76 63
77 69 64
80 72 68
43 40 32
107 40 39
55 51 49
70 59 56
57 44 42
61 47 47
71 65 59
75 53 52
79 69 63
52 49 46
67 57 52
64 56 55
76 67 61
75 68 63
72 60 58
90 85 80
61 54 54
64 52 46
67 54 53
54 43 39
86 60 54
67 55 54
80 57 54
50 42 36
63 50 47
54 43 42
54 58 46
66 62 52
59 47 45
65 59 54
58 62 54
87 56 50
65 50 46
66 53 48
52 53 44
59 38 33
61 59 53
68 59 58
49 46 42
80 67 63
61 41 36
77 66 65
62 54 49
61 51 47
72 68 65
76 77 72
56 58 50
81 61 57
70 60 56
80 48 48
61 43 43
48 44 39
82 65 61
57 46 44
80 51 49
52 38 33
60 41 39
83 69 68
61 49 47
62 45 44
56 53 49
71 54 50
70 56 51
52 44 38
62 52 50
56 45 42
48 34 34
53 51 48
83 56 53
70 63 55
46 40 34
76 54 54
65 56 51
60 46 46
60 69 54
67 55 49
74 61 61
63 42 38
60 50 50
55 46 43
60 36 33
67 47 46
51 29 27
60 44 44
69 61 61
42 35 32
66 61 57
67 53 49
64 43 39
64 58 49
60 50 46
59 46 42
77 38 38
49 38 37
68 52 51
40 32 31
63 57 47
75 62 62
63 60 55
48 34 33
46 39 33
61 36 36
78 59 54
68 53 53
69 57 56
67 46 45
72 60 59
50 30 29
62 49 41
60 56 55
71 41 40
50 37 34
46 33 32
66 50 50
62 39 38
59 45 40
53 37 36
51 33 32
55 44 43
70 42 40
78 52 48
39 42 32
57 50 48
76 66 60
87 79 78
55 37 34
48 29 28
49 39 34
45 36 30
60 43 42
60 43 34
58 31 29
52 36 32
50 41 34
47 40 38
61 38 35
74 72 67
46 20 20
64 50 48
53 34 34
68 42 38
62 37 36
46 27 27
61 37 36
34 27 22
57 49 47
51 45 43
55 40 38
56 30 25
47 43 38
64 55 51
63 51 49
63 56 49
51 39 38
39 36 27
44 34 31
71 41 41
41 22 21
51 40 36
47 39 37
69 11 11
56 13 13
36 6 5
45 12 11
44 11 9
35 11 9
47 11 10
58 15 15
65 15 14
69 18 18
53 14 13
62 19 16
44 14 11
62 15 14
58 16 15
59 14 14
65 16 16
66 17 16
68 18 17
70 17 16
75 20 19
62 16 16
73 17 16
73 19 18
72 19 19
74 20 19
74 20 20
70 17 17
63 17 16
71 16 16
49 14 13
73 17 17
58 15 14
77 19 19
89 23 22
68 19 18
77 19 18
96 31 25
68 18 18
68 17 17
75 19 19
91 24 23
71 19 18
53 13 12
72 20 19
65 17 17
84 23 22
73 22 19
85 21 21
76 21 20
71 19 19
72 19 19
82 20 20
90 25 25
98 26 26
70 21 18
68 18 17
76 20 19
78 20 20
59 15 15
69 18 18
63 16 16
62 15 13
65 18 17
81 21 20
83 21 21
81 22 21
57 15 15
57 16 15
50 13 13
79 20 20
55 14 14
74 20 20
80 21 20
38 11 10
74 20 19
71 20 19
80 21 21
77 21 21
70 16 16
64 17 17
85 23 22
62 17 16
45 13 12
72 19 19
61 16 16
70 18 17
55 14 13
63 17 17
73 19 19
47 12 11
33 9 8
70 19 19
49 14 13
70 19 19
51 13 13
37 11 10
59 16 15
45 11 10
64 18 17
64 16 16
64 17 17
53 9 8
23 6 6
0 0 0
0 0 0
0 0 0
0 0 0
0 0 0
0 0 0
0 0 0
0 0 0
0 0 0
0 0 0
0 0 0
0 0 0
0 0 0
0 0 0
0 0 0
0 0 0
0 0 0
0 0 0
0 0 0
0 0 0
0 0 0
0 0 0
0 0 0
0 0 0
0 0 0
0 0 0
0 0 0
15 29 16
26 50 28
30 56 32
23 46 26
27 50 28
24 44 24
25 45 25
29 40 23
31 58 33
30 55 31
22 41 23
35 63 36
28 51 29
27 50 29
30 57 33
25 41 22
29 52 30
26 48 27
27 51 29
23 42 24
23 41 23
25 46 26
38 59 33
20 37 20
34 69 38
30 61 32
24 44 25
22 41 22
27 47 26
27 51 29
29 54 30
28 61 31
36 62 35
23 44 24
35 60 34
35 74 39
29 54 29
26 49 27
31 42 22
29 59 31
23 45 24
30 55 31
35 65 37
30 53 30
31 55 31
31 58 33
28 54 31
32 58 33
25 45 25
33 59 33
26 55 27
35 63 36
31 61 34
28 52 28
28 54 30
32 58 33
31 61 33
31 58 33
38 72 40
23 46 26
32 63 35
36 65 36
32 61 34
31 53 30
24 46 24
32 61 34
35 60 33
30 59 33
32 60 33
34 62 34
28 51 29
30 74 34
26 46 26
29 49 27
34 64 36
26 47 26
27 53 29
30 49 27
31 59 32
24 49 25
27 47 26
30 54 30
34 68 37
22 34 19
25 44 22
28 48 26
29 55 30
24 45 23
27 45 25
30 58 31
26 38 20
28 54 30
18 34 18
19 39 21
21 43 23
23 42 22
20 36 19
18 74 19
19 39 21
25 45 25
28 59 30
20 41 21
19 39 19
17 31 16
27 27 23
55 53 48
42 47 36
38 49 38
40 49 35
60 58 52
53 49 42
39 44 35
39 43 39
58 46 44
43 44 35
43 45 38
45 41 39
56 37 31
63 65 58
48 49 41
36 39 35
45 51 39
56 59 52
67 63 57
44 40 32
47 53 47
69 70 64
39 44 37
43 43 36
45 59 40
43 55 41
49 46 42
50 55 42
26 28 21
46 48 44
44 46 39
63 65 56
65 63 58
60 61 52
44 47 33
47 50 41
52 58 50
56 53 50
57 58 53
55 64 47
63 66 54
43 47 42
39 48 39
56 62 45
53 63 46
40 39 35
61 60 55
56 63 53
43 57 42
63 63 54
51 49 46
63 56 51
62 60 53
46 43 38
46 60 42
54 70 54
49 56 48
60 68 56
59 67 57
56 59 51
47 53 44
51 53 48
58 58 52
48 49 45
59 54 51
57 56 52
53 48 41
56 50 43
49 59 48
70 69 63
57 56 45
61 62 55
57 51 46
76 65 62
52 48 44
73 79 71
59 59 54
53 58 53
59 57 50
77 86 62
56 59 52
51 54 44
55 60 53
69 67 57
48 48 43
54 58 52
61 46 37
45 55 44
57 50 47
50 52 48
57 52 49
52 54 50
77 70 65
73 74 67
63 58 51
57 60 50
62 64 55
64 58 54
49 46 39
52 48 43
99 62 53
52 53 45
51 58 45
65 75 60
58 57 52
65 57 50
58 65 54
45 47 42
49 37 36
60 55 51
72 59 55
56 52 44
93 92 86
64 55 50
68 70 61
63 67 56
82 74 72
69 66 59
66 54 51
63 58 50
49 45 39
73 53 46
52 54 43
47 49 41
59 55 51
59 56 55
78 58 54
56 51 48
52 55 51
56 50 40
55 51 47
61 60 51
77 66 59
66 67 63
65 56 51
69 58 55
76 68 63
60 60 56
65 59 56
58 51 45
59 55 51
58 54 52
88 55 53
100 85 80
66 48 44
61 53 49
72 61 56
60 58 49
64 76 57
66 69 62
69 78 64
68 64 60
65 68 59
63 63 58
51 44 39
67 62 56
43 42 37
59 52 49
63 62 58
60 58 55
67 46 41
48 46 41
122 65 62
66 62 57
74 76 71
66 59 52
60 54 41
67 61 54
70 69 64
67 65 56
66 60 52
67 46 45
64 56 50
62 62 53
56 59 53
64 58 55
57 50 49
67 61 55
60 55 51
67 58 54
61 59 55
64 63 57
63 58 52
77 63 57
76 63 60
81 76 67
71 54 49
58 49 45
79 60 60
46 45 41
73 51 50
72 58 53
57 46 44
72 55 54
66 52 49
71 56 53
66 66 57
69 62 60
70 63 60
63 54 49
190 72 65
75 56 54
64 57 55
46 43 34
73 64 57
62 59 56
55 38 33
81 65 62
71 49 44
63 61 56
79 66 57
70 61 61
63 48 44
54 51 46
73 56 51
52 34 32
72 57 51
52 47 41
63 58 49
49 47 45
61 59 52
62 51 51
67 53 51
69 55 45
75 63 61
56 42 39
79 56 52
66 51 48
69 56 54
56 52 49
62 52 50
62 57 54
67 55 52
70 56 56
68 58 56
59 46 45
67 48 45
63 55 52
70 64 58
51 46 42
54 44 41
56 56 48
77 68 63
57 51 46
89 86 85
56 53 45
66 46 39
57 52 48
60 54 49
65 49 46
54 39 39
73 58 56
53 40 38
63 57 49
67 60 54
98 91 90
65 60 57
71 49 46
51 45 43
70 59 54
60 52 51
47 45 40
53 40 37
61 53 52
62 53 47
66 44 42
53 45 42
63 58 55
48 23 20
71 54 54
88 71 67
68 54 53
68 63 58
77 57 52
71 54 53
66 51 50
56 45 41
88 83 79
59 42 31
59 48 47
58 48 46
69 63 58
49 34 27
43 30 30
61 44 39
72 57 53
69 52 49
58 36 35
62 52 45
54 45 43
63 51 50
36 36 27
57 44 40
95 45 44
62 38 36
58 35 34
47 38 35
57 50 49
48 37 34
72 51 48
87 69 68
65 51 51
56 45 43
58 43 39
54 37 36
79 63 62
68 58 56
80 67 63
68 43 39
62 46 38
50 44 39
38 31 28
59 49 46
73 42 40
55 40 39
107 42 42
51 42 39
71 45 44
63 32 28
56 59 45
55 39 35
65 59 56
64 53 52
71 43 42
59 40 35
48 39 38
54 40 35
43 40 36
62 47 46
58 48 47
48 37 33
63 47 47
57 39 38
50 39 36
47 35 29
52 45 45
40 28 25
57 51 46
72 49 46
28 21 15
50 26 23
99 46 45
54 47 45
66 52 52
60 27 25
50 30 29
39 33 32
50 35 33
58 36 35
50 40 40
50 37 35
60 45 44
57 50 47
54 44 44
61 44 41
61 43 40
50 35 32
55 46 44
78 64 63
56 44 38
74 43 42
39 29 27
49 39 38
31 9 8
31 7 5
40 11 9
41 11 10
49 12 12
45 11 10
46 12 11
51 12 11
61 16 15
47 13 12
40 8 6
57 12 12
51 12 12
37 10 9
43 11 11
55 13 12
45 11 10
70 18 17
95 20 19
56 13 13
53 12 11
84 21 21
69 17 17
78 20 19
61 18 16
68 18 17
67 17 16
56 15 14
93 16 16
82 20 20
57 15 15
53 10 10
70 19 19
77 20 20
73 19 19
64 16 16
74 19 18
72 19 18
66 18 17
61 16 16
52 13 13
66 16 16
77 20 19
61 16 16
75 20 19
84 23 22
84 21 20
73 21 19
71 18 18
68 18 17
63 18 17
67 16 16
79 21 20
75 21 20
74 20 19
58 16 15
65 19 17
79 22 21
81 21 21
155 42 42
82 22 22
70 19 19
59 16 15
59 16 16
78 20 20
76 17 16
64 17 17
84 18 18
78 21 21
43 10 10
65 16 15
86 23 23
80 21 21
91 25 24
74 19 19
63 18 17
73 18 17
74 20 20
57 16 15
56 16 15
79 21 21
60 16 16
67 18 18
55 15 14
78 22 21
88 24 23
58 16 15
65 18 17
71 19 18
70 17 17
62 16 16
49 15 12
42 12 11
53 14 14
46 13 12
39 11 10
68 18 18
36 10 9
60 19 17
90 25 24
64 15 14
68 18 17
55 15 14
57 15 14
53 14 14
0 0 0
0 0 0
0 0 0
0 0 0
0 0 0
0 0 0
0 0 0
0 0 0
0 0 0
0 0 0
0 0 0
0 0 0
0 0 0
0 0 0
0 0 0
0 0 0
0 0 0
0 0 0
0 0 0
0 0 0
0 0 0
0 0 0
0 0 0
0 0 0
0 0 0
0 0 0
0 0 0
10 18 10
42 42 24
23 45 25
24 45 26
27 51 28
28 53 30
33 59 33
29 56 32
20 39 22
29 54 31
22 43 22
21 38 20
29 49 28
21 33 19
26 51 29
25 43 25
30 59 34
33 62 35
28 53 29
24 39 22
23 44 25
27 49 28
24 45 25
29 55 31
29 54 30
37 68 38
18 33 18
36 71 37
18 23 12
32 61 34
29 47 27
25 47 26
28 55 31
32 49 27
29 64 32
34 60 34
32 73 35
20 48 21
43 80 46
23 44 25
30 56 32
30 56 32
25 46 26
37 50 28
34 64 36
39 72 41
32 66 31
39 73 41
29 52 29
28 54 30
29 53 30
33 64 36
28 57 29
42 79 45
33 65 36
33 57 32
32 62 34
34 68 38
34 62 36
41 77 44
34 65 37
31 58 33
26 51 28
33 66 37
31 65 34
33 64 35
31 62 32
34 62 34
25 45 25
33 75 35
32 61 34
29 52 29
30 55 30
22 41 23
29 61 32
28 52 29
28 52 29
29 55 30
27 54 29
30 55 31
28 49 27
28 48 27
32 61 34
25 48 26
28 55 30
23 43 24
21 43 22
24 47 26
23 42 23
29 55 30
32 58 32
24 41 22
24 40 21
35 67 38
23 38 21
19 33 17
27 43 24
28 53 29
25 46 26
25 43 24
15 28 15
21 33 17
21 37 20
21 43 22
20 38 20
39 51 40
49 47 39
38 42 29
48 49 40
38 37 33
57 46 43
47 46 39
40 34 29
36 43 35
51 46 44
33 38 30
35 39 31
51 49 38
45 35 30
59 51 45
63 72 52
108 52 45
48 52 47
27 39 25
58 69 50
41 56 40
48 52 46
41 46 32
36 41 35
50 54 46
51 53 39
53 42 38
56 51 42
48 41 32
52 63 49
52 49 41
38 40 34
54 61 50
67 51 35
45 40 36
49 47 40
46 50 43
63 60 58
51 49 44
54 44 39
53 52 45
72 70 65
54 56 48
51 56 50
40 41 37
63 46 40
52 46 41
54 61 51
77 70 60
45 52 41
53 62 42
60 56 52
51 45 41
74 63 52
51 57 46
59 58 54
55 44 40
56 60 48
61 62 58
53 48 41
57 56 45
44 55 43
48 55 46
52 61 47
41 50 41
47 52 39
82 73 66
62 64 58
58 68 57
56 62 53
61 61 54
51 42 38
61 54 45
63 52 47
53 48 45
44 48 40
71 54 51
48 49 41
47 54 45
57 54 49
66 71 64
58 62 54
49 56 48
66 61 57
64 68 59
62 56 48
73 64 59
47 53 44
65 52 48
54 64 54
68 66 63
55 52 50
65 59 52
61 55 50
62 55 45
55 52 50
79 72 69
65 60 55
73 67 61
53 50 41
73 74 68
65 49 42
60 60 54
68 63 55
56 58 47
59 50 46
49 49 42
53 48 43
55 57 49
59 55 53
55 49 47
65 60 55
67 65 59
62 60 55
62 63 57
48 51 43
62 56 52
69 59 55
60 49 44
42 49 42
63 63 55
61 65 57
57 52 52
82 65 52
66 51 46
59 60 53
61 52 50
51 56 49
63 65 61
61 57 51
71 57 55
66 58 52
73 65 61
66 67 62
53 57 46
57 52 49
70 65 57
60 54 48
55 55 51
64 68 58
53 53 46
55 49 46
60 60 52
51 54 49
71 73 68
42 44 37
64 60 53
60 60 54
62 62 56
83 83 81
65 56 49
63 67 56
63 60 54
69 64 60
57 54 52
62 53 48
48 44 41
83 73 66
86 85 78
56 45 40
76 65 63
68 67 62
70 70 61
62 67 59
65 61 54
70 58 55
49 46 39
72 62 59
85 77 69
62 56 51
57 45 40
79 69 68
63 62 57
65 62 58
51 45 39
57 56 47
52 44 44
76 61 58
59 56 53
61 59 56
67 54 52
53 38 34
70 73 67
65 61 56
71 71 66
66 70 58
58 47 43
63 61 53
63 51 46
64 59 56
62 59 50
64 56 53
76 64 61
69 63 53
67 54 51
45 45 36
61 43 37
62 66 57
65 60 53
65 58 52
60 48 47
45 41 38
70 84 56
47 35 32
73 63 62
63 51 48
54 61 52
65 52 52
52 46 41
79 64 54
50 48 42
79 64 63
59 57 53
125 63 60
77 68 68
67 53 50
66 69 63
59 48 46
71 71 66
72 76 65
73 61 60
58 49 40
58 56 52
46 43 39
64 49 43
71 62 59
67 57 53
132 128 127
64 69 56
73 67 66
68 67 60
66 49 48
58 54 48
76 69 66
46 40 36
87 87 85
55 46 41
68 54 52
47 40 38
71 65 65
90 78 76
81 66 58
73 61 59
70 57 49
67 60 54
46 35 34
68 62 58
56 40 40
72 69 59
80 62 57
77 64 60
57 53 47
69 55 53
74 66 66
62 51 50
56 53 53
65 39 36
74 64 63
74 60 54
55 28 23
75 54 47
65 49 45
56 37 37
59 45 43
65 55 51
73 49 47
78 53 52
100 99 95
68 53 52
53 43 43
64 56 56
48 44 40
49 40 37
48 44 42
59 42 40
56 39 39
56 54 54
56 50 46
59 46 44
54 42 40
80 70 67
58 52 49
50 45 35
63 37 36
64 55 45
54 51 45
54 36 34
63 54 53
72 52 48
52 58 41
66 44 40
59 45 45
59 39 33
52 34 32
66 60 52
46 38 34
54 44 40
68 53 46
78 49 43
62 44 40
80 49 47
59 55 53
60 41 35
67 39 37
47 37 35
51 38 30
64 52 47
84 39 38
55 47 44
73 61 55
61 44 39
88 64 64
66 44 40
50 31 28
56 38 34
56 41 41
61 42 40
63 41 38
51 32 31
52 22 22
63 36 35
66 54 49
47 25 23
70 67 56
49 34 33
68 42 40
56 47 47
58 41 35
47 38 35
56 46 39
54 41 39
137 133 133
86 73 73
53 49 42
37 30 21
54 67 47
73 38 33
66 57 56
78 68 64
97 64 61
42 35 32
50 40 39
55 39 36
55 36 35
58 32 30
40 38 32
51 42 39
63 33 33
73 49 47
46 27 26
46 36 32
44 23 22
57 39 38
55 35 34
34 18 17
46 37 34
54 40 40
67 54 50
50 32 31
43 36 36
40 35 33
45 27 27
71 33 33
41 9 9
39 10 10
63 14 13
79 21 21
51 12 11
154 11 10
73 21 17
59 12 11
63 16 15
60 16 15
61 16 15
44 11 10
62 16 16
56 16 15
54 14 14
62 15 15
76 19 17
69 16 16
62 17 16
47 12 11
60 15 15
54 15 14
76 20 20
74 19 19
72 20 19
71 17 16
66 18 17
72 18 17
55 13 12
59 15 14
85 23 23
63 17 16
84 22 22
61 17 16
74 21 20
116 32 32
69 17 17
79 20 20
63 17 16
70 20 19
94 20 19
70 18 18
65 17 17
88 23 23
63 17 16
60 16 15
82 22 22
65 18 17
68 18 18
89 24 23
80 21 21
47 12 11
73 20 19
87 24 23
80 22 21
82 22 21
83 22 22
58 16 15
80 22 21
70 18 18
70 18 18
61 17 16
67 17 17
66 18 17
71 19 19
69 18 17
70 21 19
66 18 17
59 16 16
84 21 21
61 15 15
62 16 16
88 19 18
68 18 18
58 16 16
69 18 17
45 12 11
75 20 20
57 15 15
76 20 20
70 19 19
69 18 18
66 18 18
82 19 18
66 15 14
61 17 17
82 21 21
43 13 11
61 15 14
47 13 12
62 15 15
75 21 21
27 5 4
83 16 15
70 18 18
57 15 15
56 15 14
63 17 17
66 15 15
62 18 17
52 14 13
52 15 13
51 14 14
43 11 11
23 6 6
0 0 0
0 0 0
0 0 0
0 0 0
0 0 0
0 0 0
0 0 0
0 0 0
0 0 0
0 0 0
0 0 0
0 0 0
0 0 0
0 0 0
0 0 0
0 0 0
0 0 0
0 0 0
0 0 0
0 0 0
0 0 0
0 0 0
0 0 0
0 0 0
0 0 0
0 0 0
0 0 0
17 33 19
25 43 24
20 36 20
23 43 24
31 59 34
33 64 37
29 54 31
27 49 27
31 58 33
26 51 28
19 40 21
31 48 28
30 53 30
24 34 19
20 30 17
26 38 21
24 40 22
27 53 29
26 50 27
22 40 22
31 60 34
25 51 27
25 44 25
27 52 29
34 66 36
18 34 19
22 43 24
25 46 26
28 52 29
29 54 30
33 61 34
32 56 32
31 58 33
38 60 34
28 51 29
32 62 35
24 47 26
35 83 35
45 84 48
28 50 28
34 50 28
34 66 35
31 64 33
30 58 32
33 64 35
34 78 35
35 62 35
33 62 35
33 64 36
28 56 32
36 77 35
28 51 28
35 65 36
37 68 39
31 62 34
33 59 33
30 59 31
37 65 36
25 42 23
29 55 30
40 67 38
26 51 27
31 57 32
30 55 31
33 66 36
40 76 43
31 58 33
32 61 35
28 54 30
45 88 50
23 42 23
34 65 37
27 51 28
33 60 33
30 56 31
28 51 28
29 58 31
25 42 23
31 60 34
30 52 28
34 67 37
33 61 35
21 43 22
32 58 33
30 59 33
29 55 31
29 56 31
30 58 31
20 36 20
27 50 27
21 41 23
28 51 29
29 52 26
24 34 18
31 58 33
28 36 20
22 41 20
25 45 25
26 48 26
18 32 17
28 57 30
27 45 25
25 45 24
30 47 23
14 26 14
13 24 13
49 38 29
15 26 15
55 44 41
49 47 41
44 50 34
56 52 39
55 59 53
37 43 35
68 56 48
34 33 25
35 37 30
37 37 29
43 56 41
46 50 45
48 49 44
28 34 25
48 55 45
32 37 28
63 63 49
41 45 39
51 50 45
66 57 52
49 54 43
39 48 37
38 38 25
40 46 37
57 58 49
49 43 32
75 54 51
36 33 28
45 48 40
59 55 48
40 44 37
53 57 46
48 52 45
42 42 28
39 41 34
48 53 43
42 39 35
39 37 34
54 57 53
47 49 42
58 48 43
63 63 56
52 51 42
71 73 62
42 45 37
46 51 43
46 51 42
53 57 51
50 54 47
51 53 43
55 59 39
52 54 47
57 58 48
51 57 49
59 56 47
48 46 40
35 38 30
59 65 50
54 56 51
48 54 46
66 58 53
48 53 44
53 50 46
63 67 60
59 69 53
53 53 49
54 56 48
40 40 39
48 40 37
55 48 40
61 64 52
48 46 44
73 55 50
54 63 47
47 53 45
60 60 50
51 50 44
79 69 62
55 55 47
67 70 65
49 55 48
41 40 33
60 56 52
70 61 50
52 50 44
58 63 56
42 48 34
58 67 55
61 54 50
59 52 48
59 67 58
53 61 52
68 51 50
56 55 47
52 63 51
61 67 58
54 59 52
60 55 52
61 53 48
48 48 45
46 44 42
56 54 42
59 55 50
50 47 41
59 56 52
60 58 52
69 51 48
67 68 60
50 50 44
54 47 42
58 52 47
53 51 45
58 48 43
77 74 67
57 57 52
56 55 51
66 58 55
55 59 53
79 82 73
53 53 48
74 63 52
54 55 50
55 61 53
70 68 61
63 61 54
84 86 80
53 55 48
73 60 53
57 52 48
66 65 58
81 77 73
50 53 50
56 49 46
61 59 54
55 46 41
70 58 55
51 52 50
53 49 46
49 49 44
56 49 43
78 69 64
52 48 43
69 61 54
70 65 62
60 50 46
64 61 57
54 52 47
56 55 46
67 61 59
58 46 41
63 52 47
70 61 59
61 53 42
66 64 58
62 66 56
75 63 60
56 56 49
60 58 54
53 51 46
68 71 63
72 64 61
61 58 56
109 110 100
57 60 52
67 60 57
56 53 44
57 53 49
73 69 66
80 79 71
53 46 45
60 55 47
96 74 71
52 50 45
83 65 63
63 50 46
60 50 45
63 52 44
47 39 37
52 46 42
61 58 50
60 53 49
60 55 50
64 61 56
58 53 44
57 50 45
70 60 47
67 60 58
57 56 52
58 62 51
62 55 49
66 65 60
60 51 46
62 55 52
74 64 64
82 81 76
80 54 54
66 51 46
82 75 70
90 60 57
58 55 44
60 53 50
59 56 51
59 52 51
63 57 52
63 53 51
63 60 53
57 44 40
61 52 52
76 56 52
67 62 55
61 39 36
58 54 53
67 46 45
71 65 63
82 83 79
65 52 49
50 53 46
55 48 44
81 67 63
74 52 51
46 40 39
48 44 41
75 65 62
84 61 57
60 53 49
56 53 49
83 71 71
62 56 54
53 41 31
64 53 52
78 64 63
63 56 55
76 72 62
55 53 50
51 41 39
51 49 48
64 52 51
58 54 46
58 48 48
64 45 40
66 54 50
55 54 51
77 58 55
76 50 45
56 49 47
60 45 42
56 40 37
49 42 38
69 62 58
57 38 38
41 32 29
63 40 39
76 59 53
52 42 38
64 49 47
87 77 69
66 56 55
101 53 51
62 51 47
70 66 60
55 37 36
43 35 34
47 40 39
60 52 48
48 33 33
55 47 46
68 50 48
64 55 50
54 35 34
63 45 44
60 48 47
130 88 71
63 53 47
84 51 47
80 64 59
69 59 51
61 48 46
51 36 35
59 52 48
57 39 36
50 26 25
71 55 52
65 52 48
41 35 30
50 43 42
62 53 52
82 38 37
57 49 49
66 54 52
57 53 48
38 28 24
64 44 42
55 48 42
51 40 37
56 48 36
70 63 58
55 50 43
51 36 32
75 49 49
59 38 38
69 39 39
60 48 44
83 76 71
67 56 46
50 38 38
47 26 26
68 55 49
63 59 55
60 37 35
65 39 39
48 29 24
53 49 38
77 49 47
54 47 47
60 56 53
62 44 42
51 22 20
51 34 33
48 37 35
48 45 42
55 41 39
59 36 35
75 48 46
62 40 40
56 26 25
54 40 37
44 19 19
48 30 29
73 60 60
57 53 51
65 50 47
56 41 39
50 40 33
55 42 39
55 32 32
63 48 48
48 33 33
60 46 43
66 56 54
54 44 40
64 45 44
64 40 40
54 35 34
55 39 39
36 27 25
57 48 45
45 49 35
58 48 47
50 42 38
56 37 36
66 48 47
42 26 25
50 36 34
56 46 41
54 46 41
72 42 30
51 47 45
44 31 27
45 13 11
61 12 12
45 10 10
51 12 11
47 12 11
49 12 12
80 17 17
48 12 11
41 9 9
58 14 14
82 18 17
48 15 13
52 13 13
73 16 15
83 13 13
47 12 12
51 14 13
67 18 18
78 21 20
59 16 16
57 15 15
36 7 7
66 17 17
68 18 18
40 10 9
71 19 18
65 17 16
66 17 16
64 19 17
83 22 21
63 16 15
67 18 17
81 21 21
76 19 19
102 28 27
61 15 14
91 21 20
69 18 18
59 14 14
87 23 22
81 22 21
82 19 19
78 21 20
82 21 21
73 19 19
73 18 17
88 24 24
91 24 23
65 18 16
77 21 21
58 16 15
72 20 19
78 21 21
72 19 18
67 18 17
64 17 16
76 18 18
71 20 18
94 26 25
73 19 19
65 17 16
70 19 18
79 21 20
72 20 19
92 24 24
51 14 14
68 17 17
66 17 17
43 11 10
75 19 18
78 21 21
79 21 21
79 21 21
77 21 20
68 18 18
70 18 17
69 18 18
83 22 22
122 33 33
71 20 19
66 18 17
73 20 19
79 21 21
67 18 18
55 14 14
78 19 18
65 17 16
33 8 8
93 25 25
77 21 20
50 15 14
58 17 16
58 19 16
61 17 15
40 11 10
63 14 13
54 12 11
70 19 18
63 17 17
40 12 11
73 20 20
83 23 23
83 17 17
67 20 18
69 19 18
42 12 11
28 7 6
0 0 0
0 0 0
0 0 0
0 0 0
0 0 0
0 0 0
0 0 0
0 0 0
0 0 0
0 0 0
0 0 0
0 0 0
0 0 0
0 0 0
0 0 0
0 0 0
0 0 0
0 0 0
0 0 0
0 0 0
0 0 0
0 0 0
0 0 0
0 0 0
0 0 0
0 0 0
0 0 0
16 30 17
25 43 24
32 60 32
30 53 30
32 63 36
35 58 33
25 43 24
23 43 24
24 44 25
29 56 31
25 48 25
35 68 39
26 51 28
27 49 27
31 59 33
26 48 28
31 56 32
25 42 24
30 56 31
26 49 27
22 38 22
22 43 24
31 59 34
27 48 27
34 67 38
31 59 33
31 59 34
31 55 32
41 60 31
28 50 28
28 51 29
33 64 36
30 53 28
24 42 23
32 58 33
34 61 35
31 63 33
29 55 31
24 48 27
28 53 29
29 56 32
34 64 37
32 62 35
37 79 40
38 73 42
32 59 33
25 42 23
30 55 31
34 64 36
33 64 36
29 52 29
31 56 31
32 60 34
37 67 38
29 56 29
28 51 28
37 70 40
30 59 30
32 60 32
42 79 45
28 52 29
24 44 25
35 63 35
32 62 35
35 66 37
38 61 34
35 63 35
26 53 29
31 58 33
32 59 34
33 67 36
45 79 44
35 62 34
31 53 30
33 58 32
26 49 26
28 53 29
33 60 33
33 66 36
24 49 25
42 72 41
27 53 29
29 55 31
28 53 30
27 53 30
29 53 29
27 51 28
26 56 29
26 53 26
27 55 27
26 59 28
24 46 24
28 56 30
17 33 17
26 46 25
25 42 24
19 37 19
15 30 15
24 35 18
22 35 17
18 33 16
23 42 22
21 22 11
17 33 18
26 32 17
17 28 15
17 30 16
32 35 29
35 33 27
34 38 34
43 45 41
51 50 45
48 49 44
38 48 33
40 48 35
43 47 43
38 33 27
40 42 34
57 57 50
35 38 32
58 62 53
45 42 34
46 51 44
54 65 54
28 31 25
50 53 35
51 48 41
44 49 43
47 56 46
48 54 43
59 53 47
48 48 44
44 43 40
41 46 37
43 41 35
38 53 37
57 57 50
62 67 61
60 49 41
51 50 47
49 42 35
43 54 44
56 47 45
40 40 32
53 62 48
50 55 45
55 56 51
35 44 32
38 40 29
76 68 59
51 50 42
46 51 38
28 39 27
49 48 40
52 43 39
47 56 44
52 51 49
48 57 47
68 61 56
47 58 47
54 51 46
55 55 47
50 49 43
56 47 44
41 46 32
54 59 51
56 55 49
55 54 49
43 43 35
70 95 70
40 46 38
52 51 42
42 43 38
52 74 46
69 68 60
55 53 49
49 54 48
52 56 48
55 55 47
58 54 42
41 44 37
50 62 50
58 60 52
53 53 48
58 53 49
56 54 47
58 57 53
64 54 48
65 64 57
69 58 55
83 60 55
66 59 57
51 53 47
66 64 56
45 31 28
80 62 59
71 73 61
63 54 49
59 61 55
71 56 54
63 68 55
64 59 51
65 61 54
57 55 50
45 51 40
65 68 59
67 68 63
47 53 41
48 48 45
70 64 60
55 60 54
46 53 46
57 49 46
73 68 67
44 40 38
58 52 47
58 59 53
77 56 52
64 63 59
54 59 51
63 61 55
56 55 49
59 64 51
67 72 60
50 52 42
57 54 49
71 65 61
53 53 46
71 64 59
88 59 52
47 43 35
65 56 54
48 51 43
61 64 56
67 66 63
59 51 47
70 56 49
72 74 64
65 52 48
80 56 51
64 61 56
75 69 63
56 59 54
61 65 59
63 56 56
55 51 44
62 65 58
68 59 50
83 59 53
66 63 50
65 63 56
64 55 50
50 51 45
68 65 60
49 51 44
60 48 45
65 54 48
68 58 54
46 51 46
73 63 59
68 61 52
74 61 55
51 37 36
53 56 47
63 51 47
55 54 49
72 55 46
62 51 48
66 65 60
78 60 57
73 79 64
63 60 57
76 69 63
62 59 52
64 58 54
72 69 63
78 76 73
64 57 53
74 53 51
55 56 52
66 68 61
81 76 72
73 72 68
73 62 57
64 50 48
61 53 51
58 54 53
84 55 51
55 58 50
85 96 79
73 70 64
59 54 49
67 59 56
67 58 57
77 68 64
64 69 59
65 55 48
81 79 78
60 51 46
55 48 42
56 45 41
45 48 43
62 64 58
53 55 47
64 49 48
62 49 49
70 63 59
65 60 56
60 54 52
80 81 78
82 78 75
48 40 36
60 50 49
65 61 59
66 69 54
69 68 61
53 51 45
53 56 49
76 45 41
61 51 48
67 64 59
49 44 36
46 34 28
67 46 45
73 62 56
59 45 35
80 74 73
60 52 50
75 60 59
61 78 57
67 60 55
70 49 46
71 54 49
65 56 51
72 48 48
70 62 58
58 39 39
62 42 38
54 45 44
62 53 49
63 56 51
68 50 49
80 73 70
61 55 49
66 53 49
75 58 54
61 61 56
91 61 59
53 41 38
62 50 49
64 49 47
53 36 32
63 44 42
48 38 35
80 61 58
68 40 40
53 53 48
58 52 47
48 42 38
55 48 45
50 46 43
72 58 57
70 48 47
61 50 47
61 58 53
54 42 39
56 49 37
64 52 49
132 59 58
65 50 48
74 67 64
58 50 42
66 61 54
73 66 62
56 49 48
68 56 56
59 53 49
79 64 56
58 47 46
63 58 46
73 52 46
49 39 33
58 42 40
56 50 46
75 44 43
61 43 42
61 43 40
58 50 45
59 39 38
50 38 35
77 53 52
51 39 37
64 57 54
56 42 30
52 43 41
64 55 54
56 45 44
51 32 30
74 58 57
56 44 43
52 55 50
61 41 41
62 58 46
56 44 42
50 39 36
75 66 60
53 32 31
63 48 44
58 49 47
50 41 41
95 76 72
83 53 52
67 46 46
54 40 36
48 38 33
72 54 52
54 44 41
53 45 36
60 43 42
58 41 41
49 34 31
57 32 31
67 51 46
93 81 79
53 47 33
59 43 42
54 34 30
53 39 38
68 56 54
60 46 44
82 57 57
57 37 37
56 51 47
57 52 50
70 32 30
73 39 35
53 50 41
65 52 51
53 32 32
69 56 55
62 44 43
61 36 36
39 14 13
57 36 35
57 41 37
49 24 23
62 47 42
57 44 41
57 49 46
76 71 68
38 33 30
46 34 33
42 32 31
47 36 32
46 34 30
54 39 38
76 58 57
43 19 19
66 48 43
50 31 31
47 40 39
56 38 38
45 36 34
40 31 31
44 31 23
36 7 7
80 12 12
32 6 6
39 10 9
48 12 12
44 14 12
70 14 14
77 21 20
40 10 7
47 12 12
73 18 17
65 14 14
54 12 11
41 11 9
63 16 16
136 23 20
69 17 16
72 20 19
71 18 18
56 14 13
62 16 15
69 19 18
75 19 19
64 16 16
61 16 15
71 14 14
46 12 11
72 16 16
57 14 13
67 17 17
86 22 21
77 20 19
68 16 15
57 15 14
93 23 23
68 18 18
91 18 18
65 16 16
84 23 22
58 15 15
57 16 15
81 23 21
94 25 25
87 21 21
68 18 17
105 27 26
78 21 20
65 17 16
68 17 17
80 22 22
70 18 18
74 20 19
78 21 20
81 21 21
77 21 20
92 23 23
97 26 26
68 18 17
83 19 18
80 19 19
78 20 20
66 18 17
70 18 18
66 18 16
77 21 20
63 15 14
58 16 15
59 16 15
74 20 20
79 20 20
87 18 18
62 17 17
83 22 22
64 16 16
58 15 14
42 12 11
77 20 20
50 13 12
54 15 13
77 21 20
68 17 16
88 22 22
77 21 20
59 16 16
53 14 14
59 16 15
70 19 19
53 14 14
51 14 14
62 16 16
68 18 18
54 14 14
55 15 14
80 18 17
76 15 15
59 15 14
66 18 18
71 19 19
72 21 20
49 14 13
65 17 17
59 17 16
65 16 16
52 13 13
60 16 15
70 19 19
68 16 15
62 17 17
0 0 0
0 0 0
0 0 0
0 0 0
0 0 0
0 0 0
0 0 0
0 0 0
0 0 0
0 0 0
0 0 0
0 0 0
0 0 0
0 0 0
0 0 0
0 0 0
0 0 0
0 0 0
0 0 0
0 0 0
0 0 0
0 0 0
0 0 0
0 0 0
0 0 0
0 0 0
0 0 0
17 32 18
26 47 26
28 54 30
30 57 32
28 62 31
13 20 11
29 56 29
29 44 25
27 48 27
21 36 20
23 41 24
22 41 22
21 41 23
33 57 32
25 41 23
30 60 34
24 42 24
33 63 35
21 40 22
32 67 35
35 67 37
25 51 28
26 47 26
24 43 25
24 39 22
20 42 22
30 53 30
27 49 27
18 34 18
28 53 30
28 53 30
27 49 28
41 79 42
30 54 31
35 64 36
28 54 30
29 54 29
36 70 40
34 67 38
32 63 34
28 55 30
25 45 26
34 58 33
32 58 32
41 75 43
30 56 31
26 47 27
31 61 34
33 63 35
28 52 27
29 57 32
29 56 32
29 55 31
33 66 37
34 72 37
31 53 29
26 46 26
35 68 38
23 44 25
25 48 27
35 63 35
31 60 34
32 58 33
39 73 42
31 60 32
31 60 34
33 63 36
29 51 28
30 58 32
34 65 36
31 59 33
27 53 29
26 43 24
35 65 37
26 51 28
39 74 41
78 151 86
26 46 25
30 55 31
23 45 24
26 51 27
33 67 36
30 56 32
29 58 32
27 49 27
32 58 32
29 56 30
27 48 27
25 48 27
26 53 28
28 55 30
31 50 28
20 37 20
27 53 29
25 44 25
24 42 23
26 50 28
26 46 26
23 43 24
25 47 26
16 29 15
24 47 26
21 39 21
22 38 22
25 33 19
23 42 23
19 51 20
25 45 24
34 42 31
50 38 32
43 41 39
64 48 42
44 40 36
73 78 65
35 26 15
41 42 32
40 34 27
33 32 26
49 48 44
51 52 45
37 46 34
40 35 29
55 52 45
50 54 43
48 51 43
47 54 43
46 39 31
51 52 44
62 54 49
33 44 32
38 45 37
45 47 40
53 49 45
52 49 43
49 51 37
47 51 39
37 47 36
43 46 39
48 54 45
48 50 42
35 42 30
39 43 36
53 45 42
51 49 46
57 69 57
51 52 49
75 58 55
54 57 47
52 48 43
57 45 38
68 48 41
37 44 36
59 56 47
54 48 43
53 55 51
66 46 43
55 49 42
37 44 37
51 45 42
65 62 52
67 52 41
46 42 37
59 69 52
60 63 53
63 68 58
68 72 66
48 50 42
53 55 50
29 35 28
50 53 44
66 55 50
45 47 40
66 71 52
56 54 46
51 48 43
53 59 50
63 61 53
65 69 65
50 49 39
56 60 55
60 55 48
45 45 42
57 64 51
86 82 79
57 60 48
73 55 46
47 52 45
56 58 51
57 58 53
55 45 38
66 57 50
60 61 55
49 46 40
58 63 57
47 43 40
53 59 50
61 69 55
62 57 55
53 55 51
57 56 49
57 56 52
62 58 52
58 50 47
70 71 67
56 46 41
57 57 53
45 51 43
55 55 51
68 56 52
80 80 74
55 50 46
60 48 44
75 76 69
63 52 47
72 70 64
53 50 43
62 59 56
57 51 40
55 53 50
74 83 70
69 53 50
57 58 52
60 58 49
53 50 45
57 64 52
74 75 71
54 53 47
51 49 46
54 45 42
73 62 61
66 66 63
58 59 48
92 70 60
57 61 53
69 66 57
69 73 64
69 64 61
56 58 51
75 74 66
70 55 51
67 67 53
55 61 53
67 53 48
67 107 55
112 65 63
55 62 48
71 113 71
49 47 42
69 67 63
65 60 57
57 60 48
58 57 55
87 82 77
56 52 46
53 50 46
71 63 55
53 49 46
54 50 47
43 38 30
67 68 63
62 57 55
55 42 39
79 72 65
87 82 76
67 71 61
60 47 46
55 50 47
77 58 56
63 47 45
63 52 44
52 52 47
61 57 52
49 49 45
69 67 63
92 83 79
50 50 47
68 62 58
64 58 54
61 57 51
53 50 44
77 65 60
69 66 60
55 55 52
60 45 44
49 40 38
55 57 51
54 53 53
62 51 50
65 55 50
61 56 51
61 50 45
63 54 48
120 115 113
72 68 66
62 45 43
64 53 44
53 54 47
57 47 46
67 66 61
57 51 46
68 54 49
68 56 53
58 62 54
69 63 60
63 55 53
68 58 53
58 62 51
52 44 39
82 77 76
55 62 50
67 62 60
52 42 36
62 63 58
52 53 48
61 54 50
78 52 49
89 48 46
59 50 46
57 53 50
56 54 49
58 52 47
70 58 58
59 58 51
65 58 53
102 101 100
69 63 59
71 69 58
62 53 49
56 49 46
61 44 42
61 46 42
69 59 54
66 53 49
62 52 46
47 47 41
77 64 60
74 75 70
74 64 59
63 56 53
58 60 54
56 47 47
59 49 45
62 53 53
50 47 42
66 48 44
70 56 54
119 61 61
66 58 58
64 51 43
82 76 72
49 30 30
63 58 51
96 85 81
50 52 43
53 44 40
61 47 47
52 46 41
80 63 61
52 44 41
44 50 41
63 46 44
67 52 51
56 55 46
57 42 41
69 55 52
74 52 49
60 44 40
62 56 51
58 54 51
61 47 46
65 45 45
64 47 47
71 57 57
74 55 54
65 53 51
71 59 54
53 39 38
52 50 44
54 45 45
56 50 49
66 61 56
73 50 48
53 45 40
55 53 49
72 46 46
55 56 46
43 32 25
76 78 68
49 44 39
56 45 43
75 64 59
61 50 47
68 55 52
56 44 44
59 43 39
60 54 51
66 56 54
67 53 53
56 43 36
65 51 46
36 24 22
65 43 36
43 38 36
47 35 32
72 43 42
53 49 41
85 66 66
49 41 35
56 47 41
52 34 31
67 40 35
61 55 48
57 46 44
51 44 41
84 60 49
64 42 41
56 50 35
59 47 46
55 44 38
73 38 37
71 65 58
117 48 45
42 38 35
66 45 41
85 57 51
57 40 40
63 53 51
50 51 46
51 29 26
53 40 39
38 40 27
61 68 52
51 45 41
52 32 31
66 60 53
61 56 49
48 37 36
58 47 46
62 47 46
59 48 44
56 47 46
49 34 33
62 42 36
54 47 41
57 50 48
63 43 40
50 40 38
46 35 32
47 45 40
52 42 39
44 31 23
74 72 62
55 47 40
51 39 33
51 45 41
41 25 25
46 46 41
63 51 50
62 55 49
52 38 37
52 45 45
43 29 28
41 36 30
40 26 24
42 10 9
46 10 9
44 10 9
42 7 7
55 12 12
85 23 23
61 15 15
63 16 15
52 13 13
51 13 13
69 15 15
53 14 13
50 11 10
55 14 13
59 14 14
62 16 14
61 16 15
60 16 15
56 14 13
47 11 11
72 19 18
63 16 16
64 16 16
70 18 17
51 14 13
51 14 13
78 19 19
74 19 19
73 18 17
76 21 20
81 22 21
73 19 19
69 23 19
71 18 18
66 15 15
71 19 19
79 20 20
69 16 16
91 25 24
56 16 15
78 21 21
77 20 19
77 19 18
73 19 18
68 19 18
73 19 19
176 35 35
72 19 19
71 19 18
71 18 18
70 16 16
92 22 22
80 22 22
61 17 16
80 22 20
82 16 16
90 25 24
88 23 23
79 21 20
75 19 19
74 20 19
83 22 22
80 22 21
74 18 18
72 21 20
70 18 17
67 18 18
79 20 19
50 13 13
45 12 11
66 18 18
67 17 16
78 21 21
74 19 19
66 18 18
72 20 19
58 15 15
80 22 22
68 18 18
64 17 17
79 21 21
72 20 19
86 24 23
80 21 21
46 12 12
55 15 14
52 14 13
70 11 11
63 16 16
87 22 22
64 18 17
63 17 17
74 20 19
58 16 15
79 20 19
58 15 14
65 18 17
60 17 15
48 11 11
56 16 15
61 18 16
55 16 15
68 18 17
56 15 14
67 18 18
59 17 16
50 13 13
62 17 17
13 4 3
0 0 0
0 0 0
0 0 0
0 0 0
0 0 0
0 0 0
0 0 0
0 0 0
0 0 0
0 0 0
0 0 0
0 0 0
0 0 0
0 0 0
0 0 0
0 0 0
0 0 0
0 0 0
0 0 0
0 0 0
0 0 0
0 0 0
0 0 0
0 0 0
0 0 0
0 0 0
0 0 0
11 19 11
26 47 26
19 39 21
27 51 28
29 55 31
20 36 20
26 48 25
35 66 38
27 51 29
25 43 25
24 44 25
27 43 24
30 53 30
28 51 29
28 52 30
31 56 32
32 57 32
31 56 32
31 57 32
28 53 30
24 44 25
32 58 33
31 52 30
32 62 35
37 67 39
32 57 30
24 42 23
34 65 37
26 47 26
31 57 32
32 54 29
33 60 34
34 61 34
30 56 32
38 76 42
29 57 32
31 55 31
32 60 32
30 56 30
26 45 24
26 51 28
21 36 20
28 54 30
28 53 30
29 54 30
31 57 31
36 59 33
36 68 38
40 77 44
30 56 32
33 59 33
32 59 33
26 53 29
29 66 32
32 61 35
40 77 44
46 85 49
32 63 35
37 71 40
32 58 33
28 49 27
36 67 38
30 52 29
30 58 32
39 75 42
26 47 27
31 60 33
35 60 32
28 51 29
28 56 31
29 58 31
33 63 34
28 59 31
33 58 32
33 60 34
33 63 36
33 63 34
27 54 30
34 63 35
53 103 58
29 48 27
22 39 21
30 50 29
28 47 26
25 47 26
31 54 30
29 55 31
28 52 29
20 38 20
41 79 45
34 58 33
28 48 27
25 42 23
32 60 33
23 42 23
27 52 28
28 55 30
29 51 26
26 45 24
31 58 31
20 34 19
28 52 29
24 44 24
24 28 14
26 44 24
19 31 16
20 35 18
24 46 25
23 38 20
25 35 23
54 65 53
31 47 32
37 37 30
54 56 48
31 37 29
36 35 28
47 37 30
54 55 47
43 47 38
26 28 21
45 54 46
47 48 42
55 51 44
34 59 33
39 46 30
62 60 55
37 50 37
65 56 46
59 51 46
37 42 35
35 39 35
37 46 37
44 54 45
50 53 47
53 54 51
69 67 63
71 87 62
54 53 47
44 58 42
38 45 38
41 48 36
40 55 41
36 42 36
54 54 48
52 61 50
33 44 33
54 44 31
49 50 43
49 57 43
62 60 54
61 39 35
41 43 37
48 51 42
68 70 62
47 51 39
53 61 51
62 59 54
37 34 30
48 54 42
82 60 53
40 42 40
46 47 40
58 61 56
39 43 37
35 39 33
56 57 52
49 51 44
50 48 44
54 57 50
55 62 52
57 48 44
57 60 52
67 67 63
46 53 44
57 51 43
60 56 50
69 61 56
73 62 55
64 60 56
58 53 47
52 50 44
59 102 62
43 45 39
54 57 50
53 48 42
47 50 40
53 52 40
51 46 37
76 78 69
67 71 64
62 59 42
62 55 50
61 54 49
60 59 53
54 50 45
62 53 45
38 42 35
59 59 51
66 52 49
46 44 36
55 59 48
67 53 49
54 48 45
44 46 40
62 67 57
61 54 50
56 61 51
67 61 55
42 49 41
55 51 49
63 59 58
61 59 55
54 46 43
70 64 56
62 71 59
50 54 47
70 64 56
62 60 53
66 57 51
72 46 41
59 60 57
66 65 61
69 45 35
74 64 59
58 56 48
68 48 46
58 56 48
55 49 46
59 61 54
67 61 58
56 51 44
49 41 37
48 47 46
48 40 36
59 56 52
75 64 58
55 59 52
66 61 57
60 55 45
63 70 57
73 59 54
58 52 47
55 56 51
66 53 48
54 57 49
56 61 52
63 63 56
64 55 52
51 43 42
74 66 64
61 54 48
55 54 47
47 45 44
78 74 69
147 148 146
51 46 43
51 47 42
59 53 45
64 56 48
65 59 54
59 56 52
58 52 48
52 46 41
70 55 52
75 72 64
63 58 53
57 52 50
76 58 52
61 55 53
60 52 50
69 66 59
66 62 57
51 54 46
86 49 45
55 54 46
64 49 46
65 59 50
70 71 67
77 58 55
62 60 50
64 55 53
60 63 58
57 58 50
52 49 43
51 50 47
60 52 47
59 50 46
54 55 50
47 51 37
58 54 49
56 58 52
61 48 46
63 56 52
47 44 38
65 56 53
58 51 48
59 51 49
110 66 60
64 48 46
58 54 51
51 50 50
79 53 45
59 52 45
62 54 52
95 56 55
64 53 50
57 45 45
56 40 38
63 62 51
72 66 63
52 47 42
72 77 59
66 51 49
72 62 59
74 62 58
102 70 67
64 56 54
57 49 46
72 61 56
75 64 59
73 64 60
87 63 61
59 61 52
56 47 42
60 46 44
59 42 40
74 67 62
62 56 55
46 46 44
61 54 51
53 41 41
54 46 41
61 64 58
53 52 48
58 56 52
66 61 58
61 55 51
52 46 43
37 31 29
61 54 50
63 58 54
45 41 38
42 45 38
76 53 52
81 67 65
55 44 41
59 48 45
54 50 44
67 58 53
60 52 49
78 54 45
75 60 58
57 46 43
69 60 58
63 61 58
64 51 49
47 39 38
49 47 45
78 56 54
63 53 53
69 62 60
68 57 54
63 45 42
79 76 74
49 39 34
52 32 29
73 62 59
57 44 40
58 46 46
70 56 56
46 39 36
53 46 42
62 36 31
54 47 46
52 47 44
39 38 31
52 50 36
53 44 35
59 45 36
48 39 38
56 45 43
67 62 53
52 46 40
56 39 39
58 52 49
74 67 61
66 51 49
65 53 46
53 47 44
85 75 74
65 47 44
54 32 31
48 53 46
85 50 45
50 39 36
48 33 31
36 33 30
68 105 66
69 50 47
76 57 56
60 52 48
83 70 70
52 44 42
51 26 26
57 40 35
71 47 44
48 40 39
52 45 43
50 40 40
56 41 39
51 39 39
61 51 50
55 50 44
35 29 29
67 53 48
47 41 38
63 52 48
67 47 47
60 50 45
57 45 45
57 47 46
53 43 39
37 32 26
65 32 31
65 56 47
56 42 38
62 61 53
42 32 32
46 42 22
61 53 53
53 46 39
107 103 102
43 27 25
56 35 33
47 36 31
59 41 40
42 32 32
99 82 82
91 42 39
56 42 41
52 40 40
50 52 42
53 27 26
47 45 37
70 46 46
61 31 30
45 31 22
67 43 41
53 36 33
54 53 47
47 33 29
62 62 57
52 35 34
50 41 39
52 41 38
49 39 38
54 40 37
40 35 34
35 27 21
63 50 49
56 44 40
56 47 42
56 35 34
75 17 17
62 16 15
54 14 14
39 8 8
45 11 10
51 13 12
39 10 8
59 16 15
45 12 10
59 10 10
50 14 11
35 9 8
45 12 11
68 13 11
58 13 13
83 22 21
58 14 13
61 15 14
64 19 16
53 12 12
60 16 15
84 17 16
112 31 30
65 19 16
63 16 16
75 19 19
55 14 14
61 16 15
67 15 14
72 19 18
67 17 16
61 17 16
53 13 12
76 21 20
64 17 16
83 22 22
86 24 23
61 16 16
81 20 19
67 17 17
77 20 19
75 20 20
101 24 23
80 22 21
90 25 24
86 23 23
78 20 19
75 20 19
80 21 20
94 24 24
64 16 16
57 15 15
81 17 17
85 23 23
80 21 21
95 26 26
77 21 21
81 22 21
68 19 18
63 17 16
77 20 19
93 21 21
76 20 19
65 18 17
87 24 23
72 19 18
81 22 21
79 18 17
67 19 18
68 18 18
66 17 17
76 21 20
82 22 21
69 19 18
59 16 15
73 18 18
69 18 17
58 16 15
70 20 19
78 22 21
69 18 18
59 16 15
87 24 23
80 20 20
55 15 15
103 22 21
64 17 16
82 22 21
68 18 17
65 18 17
61 16 16
86 24 23
71 19 19
55 15 15
42 12 11
52 13 13
71 19 19
54 17 14
68 18 18
72 20 19
69 18 18
51 12 12
59 17 16
61 16 16
66 18 17
76 20 20
40 12 11
47 14 13
48 13 13
47 12 12
0 0 0
0 0 0
0 0 0
0 0 0
0 0 0
0 0 0
0 0 0
0 0 0
0 0 0
0 0 0
0 0 0
0 0 0
0 0 0
0 0 0
0 0 0
0 0 0
0 0 0
0 0 0
0 0 0
0 0 0
0 0 0
0 0 0
0 0 0
0 0 0
0 0 0
0 0 0
0 0 0
16 27 16
27 50 28
33 56 32
26 52 28
34 61 35
31 54 31
23 43 24
19 38 21
31 59 34
30 54 31
20 36 20
21 43 23
13 21 11
23 37 20
25 42 24
31 56 32
29 55 32
24 46 26
32 57 33
21 42 23
24 47 26
27 48 27
35 65 37
32 53 29
29 52 30
30 57 32
24 41 23
23 42 24
24 43 24
32 59 33
38 70 40
26 53 28
30 54 31
33 64 36
28 50 26
30 56 32
30 50 29
32 55 31
31 58 33
34 63 36
29 53 30
28 53 30
39 70 40
27 49 28
29 56 31
27 51 29
31 60 34
36 69 39
33 62 34
30 52 29
27 50 28
30 59 31
31 55 31
32 61 34
33 60 34
28 53 30
25 48 27
26 47 26
31 55 31
34 61 35
31 56 30
29 56 31
36 66 37
32 59 34
25 42 24
31 54 31
29 54 31
35 65 37
36 66 37
38 69 39
27 52 27
29 56 31
32 61 33
30 58 33
32 63 35
30 57 32
32 61 34
31 56 31
26 55 29
35 67 38
36 60 33
26 52 28
35 67 38
29 56 31
30 57 32
29 52 28
36 65 37
29 55 31
23 43 23
30 56 32
24 47 25
30 59 32
23 45 24
25 43 24
33 62 35
25 48 27
25 45 24
25 46 25
20 37 19
27 52 29
15 25 12
17 33 18
26 42 23
21 37 19
21 42 24
19 38 20
21 40 20
19 36 20
18 29 15
27 51 28
83 46 38
38 35 29
47 40 36
46 45 40
43 44 33
42 43 40
28 35 27
57 57 50
29 26 20
44 45 37
23 31 22
57 53 48
40 32 26
52 54 45
46 46 43
51 48 40
28 42 27
51 37 35
18 23 15
50 52 42
48 42 41
41 49 38
47 43 33
50 60 46
49 48 41
55 50 36
46 55 44
49 51 41
44 41 34
46 50 40
34 45 30
50 49 43
43 43 37
52 58 47
46 51 44
34 40 31
59 69 53
59 60 56
57 55 49
59 47 40
63 63 54
46 44 38
55 60 54
54 56 49
39 42 37
77 40 38
49 41 37
75 54 48
56 37 34
50 51 46
57 58 47
49 53 45
60 51 46
50 53 43
42 34 27
50 47 41
51 57 47
30 30 24
46 54 42
53 57 49
42 46 37
64 51 46
46 44 39
59 54 49
41 46 35
97 62 56
69 67 61
54 57 50
68 62 59
50 50 47
55 51 43
67 56 47
52 48 46
48 59 47
69 61 56
73 55 53
41 49 42
40 48 40
73 68 58
41 34 29
58 46 38
66 52 49
59 57 53
56 63 55
55 50 43
63 66 61
80 80 75
46 49 44
63 60 52
67 55 50
68 65 54
56 49 48
57 45 43
59 49 46
65 56 53
55 54 45
62 61 55
78 43 37
56 59 50
60 64 55
52 63 51
47 53 46
61 50 43
62 61 54
52 51 45
64 64 60
66 59 52
63 56 50
75 75 68
42 43 37
42 33 30
69 70 62
61 58 52
67 61 51
59 54 47
61 60 57
58 55 49
55 63 50
59 61 53
33 38 28
50 45 39
46 43 36
56 46 39
47 40 36
54 56 50
84 65 60
55 59 52
57 49 41
53 43 41
70 70 66
38 38 31
74 51 44
64 57 53
62 56 52
59 51 46
72 89 65
59 61 57
72 63 56
67 59 52
55 53 43
57 60 51
74 69 66
62 53 44
71 61 58
54 47 43
49 49 44
93 60 58
83 62 58
52 53 46
76 78 70
61 55 51
51 47 43
65 64 60
54 54 47
46 49 43
82 51 48
72 59 57
66 57 51
44 47 37
69 57 53
77 65 64
50 34 32
69 45 43
65 57 54
62 48 45
66 55 54
56 57 53
54 52 47
48 50 44
68 63 58
54 51 45
66 54 53
56 48 45
57 59 51
62 56 53
59 54 50
64 61 58
59 55 47
83 74 70
114 66 56
64 60 58
79 51 46
55 48 42
58 51 50
54 47 46
68 50 49
72 63 59
58 57 54
66 65 61
57 60 56
68 67 61
64 51 50
68 54 53
56 51 48
73 60 56
61 44 42
60 46 45
73 68 62
55 55 46
54 44 44
66 54 50
62 52 49
62 49 46
55 52 46
59 54 48
62 53 50
60 52 48
60 56 53
54 54 51
69 65 64
62 53 48
55 43 40
48 44 37
57 59 50
68 67 58
70 60 59
55 47 44
72 60 58
85 71 70
74 69 67
68 56 55
58 46 45
54 49 48
65 57 54
71 51 47
71 47 45
59 58 55
61 48 47
64 57 53
76 59 54
65 50 47
61 47 42
65 61 59
57 50 44
46 51 41
57 45 44
54 43 40
60 49 47
80 58 57
55 48 44
63 50 45
58 51 46
58 51 47
61 61 54
53 40 36
63 45 42
64 56 53
59 46 45
51 46 45
56 40 37
57 51 47
47 42 36
54 44 41
60 47 46
52 34 32
53 36 34
75 58 52
48 36 34
76 71 71
48 34 29
105 76 72
50 41 41
68 103 61
61 51 48
48 46 40
54 49 45
58 51 50
68 50 47
61 41 35
63 57 49
77 37 32
66 58 57
61 47 42
63 65 55
56 40 36
63 52 49
46 48 45
74 55 50
61 55 49
82 75 74
74 61 61
52 42 39
66 45 42
70 44 43
60 39 36
57 45 41
57 50 45
53 51 47
99 41 40
71 58 54
68 69 64
72 56 55
57 48 46
49 47 45
65 61 57
55 50 47
76 71 67
66 50 50
63 44 43
91 45 45
53 50 43
58 44 37
59 42 42
62 29 29
54 45 41
43 30 29
65 51 50
33 19 19
87 40 40
71 50 44
57 45 44
60 51 50
51 50 36
53 37 37
52 40 36
70 44 39
64 48 43
50 35 30
47 43 37
55 41 40
56 36 36
38 38 30
59 58 51
52 44 40
46 33 33
43 41 34
43 26 22
53 37 33
51 43 34
54 47 44
57 45 45
52 31 29
50 36 33
62 47 46
44 32 29
67 55 55
55 48 37
46 31 31
57 44 43
50 41 39
58 47 46
47 41 40
58 52 49
50 33 32
51 38 36
40 26 26
55 52 46
51 43 41
55 24 24
43 36 35
100 50 44
94 94 91
32 17 17
37 9 8
51 11 11
29 6 3
53 14 13
68 14 13
34 8 7
42 5 5
47 11 10
57 13 13
62 17 14
53 14 13
54 14 14
69 17 16
62 16 15
73 19 18
58 15 14
67 18 16
69 18 18
61 15 15
61 16 16
94 19 19
66 17 16
59 15 14
55 12 12
59 14 14
84 22 21
76 21 20
74 21 20
75 21 20
90 24 23
69 18 18
75 19 18
96 20 20
73 20 18
58 16 15
72 20 19
75 23 19
78 19 18
191 24 23
79 22 21
61 16 16
76 21 21
70 19 18
81 17 16
83 22 22
71 19 18
88 24 24
93 25 25
71 19 19
72 16 16
68 18 17
87 20 20
77 17 17
70 19 18
66 18 17
69 19 19
60 18 16
74 19 19
81 22 22
37 9 8
72 19 18
78 22 21
117 32 32
70 19 18
123 25 25
82 23 22
78 23 21
79 21 21
78 21 20
74 17 16
91 23 23
69 19 18
71 19 19
68 17 17
69 18 18
73 20 18
64 18 17
84 21 20
76 20 19
83 20 20
55 14 14
52 12 11
73 20 20
34 10 8
70 19 18
70 19 19
86 24 23
66 18 18
74 21 20
64 18 17
94 25 25
62 17 17
68 19 18
59 16 16
83 23 22
52 14 13
55 15 14
63 16 16
80 23 22
62 16 16
53 14 14
51 14 13
46 13 12
74 20 20
57 16 15
67 17 17
86 22 22
50 13 13
54 14 14
37 10 10
0 0 0
0 0 0
0 0 0
0 0 0
0 0 0
0 0 0
0 0 0
0 0 0
0 0 0
0 0 0
0 0 0
0 0 0
0 0 0
0 0 0
0 0 0
0 0 0
0 0 0
0 0 0
0 0 0
0 0 0
0 0 0
0 0 0
0 0 0
0 0 0
0 0 0
0 0 0
0 0 0
20 38 22
20 35 19
22 37 21
24 45 25
25 48 28
26 48 27
30 53 30
25 48 27
29 54 31
26 48 27
16 30 16
29 64 30
25 48 27
30 48 27
32 60 35
21 37 21
32 60 34
31 52 30
23 46 25
28 47 26
18 37 21
32 58 33
32 62 35
28 54 31
26 42 23
29 58 31
27 51 29
37 67 39
31 59 33
31 60 32
33 56 31
36 65 37
33 58 33
33 62 35
22 37 21
30 52 30
31 62 34
31 53 30
46 73 41
32 62 34
29 55 30
29 54 30
37 71 40
39 75 42
36 68 38
34 62 36
34 65 37
37 74 40
38 67 38
32 61 34
34 63 35
31 58 33
30 59 33
33 63 36
36 68 39
29 56 32
36 67 38
32 61 34
42 79 44
32 58 32
34 64 36
32 58 33
34 64 36
48 93 52
27 52 29
32 63 35
35 68 38
35 62 35
34 65 37
24 47 26
33 63 35
36 70 38
34 69 36
35 62 36
30 58 32
27 48 27
36 65 37
40 68 37
38 60 33
37 71 40
30 58 32
23 46 24
28 53 29
22 41 23
31 58 32
35 68 38
25 53 27
31 56 31
21 35 18
33 64 36
30 56 32
28 52 28
16 36 18
26 51 28
27 51 28
26 49 27
20 37 20
23 46 25
24 45 24
27 50 28
23 40 22
20 40 21
30 69 32
25 47 24
24 44 24
24 44 24
26 53 29
33 64 36
18 31 14
20 34 18
19 39 21
17 19 8
54 59 49
44 44 36
44 44 36
54 48 43
42 34 33
37 39 30
65 63 57
32 38 32
55 50 42
39 40 34
40 48 40
59 50 47
30 36 30
57 51 47
49 53 47
35 38 33
40 45 37
55 53 49
51 47 38
50 54 46
56 61 55
45 49 44
62 54 42
39 45 39
55 51 48
57 64 56
46 51 44
47 45 39
57 55 47
41 49 34
50 48 43
45 46 36
54 42 37
55 49 46
43 49 40
35 41 30
46 49 44
44 48 42
49 40 31
51 54 44
72 69 58
31 35 31
47 57 47
45 47 36
54 54 46
40 40 28
51 49 43
44 45 38
69 62 58
71 40 37
75 54 51
44 47 44
54 62 54
56 51 42
40 41 34
32 35 28
45 49 41
42 48 38
41 45 36
58 57 51
61 42 38
57 57 47
59 68 58
116 57 51
64 58 52
65 48 42
63 51 47
44 41 36
45 44 39
57 69 55
42 49 40
66 52 49
58 53 49
58 56 54
57 65 49
54 57 53
58 55 47
56 53 50
48 49 39
53 47 45
49 47 39
61 53 44
57 50 44
61 59 54
43 41 35
65 61 58
59 48 41
57 52 45
60 49 45
49 55 40
54 54 47
62 64 59
54 53 51
51 54 50
54 46 34
38 42 36
58 56 48
61 53 48
54 62 53
57 49 44
61 59 55
55 56 48
61 57 52
58 59 52
45 46 41
101 54 46
59 61 54
49 42 34
63 59 57
81 68 65
73 44 39
43 48 43
68 63 55
66 65 62
48 47 39
53 55 48
46 54 43
52 50 47
69 63 58
54 51 46
79 71 62
54 53 48
57 60 44
53 55 45
134 63 61
58 49 43
55 52 47
54 58 50
58 49 46
70 53 49
57 48 43
64 64 57
78 63 56
49 52 45
58 49 42
57 56 52
73 47 45
58 59 53
65 58 52
53 55 49
53 48 47
54 53 46
68 65 58
52 62 49
56 51 46
72 60 58
53 47 45
61 50 45
51 49 44
62 49 47
63 51 46
54 50 48
42 41 35
59 49 42
64 51 47
60 63 56
74 73 71
69 64 61
64 56 50
48 51 47
53 53 50
50 37 36
74 75 72
67 49 46
72 50 44
81 75 71
70 62 56
59 62 54
84 63 62
60 47 43
73 61 57
70 55 51
81 80 75
43 49 39
69 73 65
74 63 62
60 53 50
86 66 64
76 63 55
60 44 43
70 56 54
66 58 54
54 48 46
51 52 48
66 58 54
64 51 49
66 67 60
60 56 52
75 59 57
53 47 45
59 54 53
55 51 50
66 51 47
65 58 52
51 44 39
66 58 53
62 48 47
61 50 48
75 59 53
105 67 55
69 60 58
55 48 44
64 53 48
68 51 49
59 47 43
58 51 50
59 48 44
60 51 44
54 52 46
100 78 72
69 57 53
66 52 50
71 67 61
67 53 51
55 46 41
66 64 58
54 48 43
57 53 49
67 58 52
53 43 42
68 70 64
48 45 41
77 62 57
158 76 73
71 55 53
68 48 41
70 51 47
72 69 63
63 39 38
64 54 54
53 51 51
67 53 51
55 43 41
75 68 62
49 47 40
52 46 41
67 49 47
64 60 59
55 45 41
49 36 35
50 45 42
57 51 51
61 48 44
70 55 51
48 34 32
66 44 40
58 57 50
63 60 53
67 54 51
54 47 43
68 56 53
53 48 47
64 53 53
59 44 42
69 53 50
56 40 39
69 50 46
62 53 49
94 46 46
178 48 48
57 52 48
68 56 49
56 36 33
58 39 37
60 49 48
53 51 49
97 90 89
58 51 46
59 53 49
66 41 41
68 51 45
56 53 46
63 55 48
63 45 45
49 37 36
104 97 96
86 86 82
55 47 45
40 30 27
48 39 35
66 57 54
75 70 66
59 46 41
58 41 38
63 63 55
52 47 39
63 58 41
67 56 55
63 42 41
58 43 39
58 48 48
59 52 51
70 47 44
64 49 45
73 48 43
66 42 40
70 33 31
58 41 41
76 45 42
49 43 42
54 49 45
60 45 42
80 56 54
47 34 33
57 41 39
51 31 27
59 45 44
47 37 34
59 50 43
54 34 34
73 53 51
55 38 32
48 37 37
53 35 31
58 50 48
67 34 28
52 41 41
50 32 31
59 49 48
112 47 42
58 43 42
55 48 47
50 58 44
51 35 35
64 43 41
53 51 47
43 29 25
49 45 39
61 58 52
47 38 37
57 44 42
46 40 37
37 22 22
55 38 38
38 30 20
70 65 62
30 26 25
38 16 16
42 13 12
44 29 29
61 57 50
62 57 57
57 41 36
47 43 40
46 29 27
41 38 35
57 52 46
40 33 21
43 31 23
34 8 7
64 15 14
45 13 11
45 11 10
46 9 9
63 13 12
41 9 8
51 11 11
46 10 10
41 11 11
58 14 13
44 11 10
40 11 9
54 13 12
68 17 17
59 15 14
57 15 14
80 22 20
73 19 18
66 16 16
91 19 19
70 18 17
54 14 13
80 22 21
66 17 17
73 18 18
68 18 18
69 18 17
57 15 15
64 17 16
61 16 16
70 18 17
69 20 18
84 22 21
82 21 20
83 22 22
94 23 22
69 18 18
61 16 15
76 22 20
81 20 19
78 20 20
64 16 16
58 16 15
78 20 20
71 20 18
64 16 16
90 24 24
75 20 19
88 24 23
82 23 22
79 21 21
81 22 21
91 24 24
75 20 20
72 20 19
84 23 23
64 18 17
70 18 17
70 18 18
69 18 18
79 21 21
73 19 19
70 18 18
75 19 19
70 19 18
60 15 15
79 21 21
62 16 15
75 21 20
72 19 18
78 20 20
55 15 14
73 20 19
85 22 22
82 21 21
77 22 21
73 20 19
85 23 22
60 16 16
78 21 21
59 16 16
78 20 20
86 22 22
88 24 23
58 16 16
78 23 21
64 16 16
55 15 14
73 20 19
64 18 17
68 19 18
70 19 18
51 12 11
67 20 18
46 11 11
62 17 16
77 21 21
66 18 17
126 35 35
72 20 20
65 17 17
60 16 16
44 13 11
54 15 14
53 14 14
41 11 10
50 13 13
54 14 14
64 17 17
49 13 13
40 11 11
0 0 0
0 0 0
0 0 0
0 0 0
0 0 0
0 0 0
0 0 0
0 0 0
0 0 0
0 0 0
0 0 0
0 0 0
0 0 0
0 0 0
0 0 0
0 0 0
0 0 0
0 0 0
0 0 0
0 0 0
0 0 0
0 0 0
0 0 0
0 0 0
0 0 0
0 0 0
0 0 0
18 28 16
23 41 23
30 58 32
29 56 32
28 52 30
21 42 23
25 60 27
39 73 41
25 47 27
31 56 32
32 61 34
24 40 23
29 54 31
25 43 24
30 59 33
26 48 27
35 68 39
36 68 39
28 50 28
31 61 34
33 61 35
22 41 22
36 81 40
30 61 33
32 60 33
30 53 30
26 49 28
27 53 30
33 58 33
35 69 37
30 57 32
30 59 33
31 60 34
25 46 23
31 59 33
36 71 39
20 35 19
26 40 23
26 53 28
29 54 30
31 58 33
33 64 37
41 78 44
31 55 31
34 61 35
29 50 28
38 71 39
28 49 27
35 65 37
35 65 37
29 53 30
29 55 31
34 64 36
29 57 32
33 64 36
34 61 35
30 55 30
34 63 36
33 64 36
29 55 31
23 42 23
34 65 37
28 53 30
26 49 27
33 55 31
32 62 34
33 61 34
34 67 37
29 57 32
36 71 39
26 51 28
31 60 34
35 67 38
35 69 39
38 71 41
23 46 25
27 50 28
33 62 35
26 46 26
32 61 34
39 73 42
36 53 29
27 51 29
29 55 32
35 66 37
40 75 42
31 60 33
27 53 28
30 50 27
24 47 25
27 54 29
28 49 27
32 63 34
27 55 30
22 42 22
27 44 25
23 47 25
24 46 24
19 34 19
23 59 25
21 42 20
31 43 22
25 48 26
23 47 25
19 33 18
23 45 24
24 42 22
16 31 17
19 35 18
19 37 20
19 33 19
31 54 24
35 46 32
43 45 35
45 46 40
44 51 43
51 48 42
43 44 41
44 43 34
35 36 30
47 42 34
45 41 31
51 52 45
45 45 35
49 44 41
65 54 51
40 42 37
26 39 23
34 38 30
35 39 34
42 53 36
42 40 37
52 95 54
86 47 43
25 29 21
41 44 37
55 47 43
37 47 36
39 49 39
42 48 39
50 51 42
44 49 41
61 63 60
55 45 37
55 51 45
73 58 49
55 53 47
48 60 48
50 54 50
53 51 45
47 45 38
43 46 40
59 53 49
32 39 31
55 54 50
51 46 41
31 42 30
70 67 65
63 53 46
38 35 30
48 42 34
46 50 44
44 48 39
69 55 47
44 51 44
49 54 45
55 53 45
51 42 38
31 43 30
61 59 53
50 43 42
52 48 46
47 57 48
47 54 47
53 57 52
60 49 38
30 36 28
66 62 56
56 56 43
43 55 42
64 60 55
57 55 50
47 48 43
58 52 49
49 49 48
52 49 42
45 47 39
50 49 44
70 60 57
45 47 42
54 52 43
51 49 45
78 66 61
57 54 49
53 52 47
64 60 55
62 61 50
51 52 48
70 68 62
48 55 46
62 50 44
56 59 53
42 39 39
54 54 47
78 67 60
41 33 30
62 81 59
56 46 39
52 51 46
54 57 46
62 53 49
66 62 59
54 57 49
71 64 62
59 54 46
56 56 51
48 48 43
54 51 44
58 51 48
50 44 34
50 60 47
146 68 61
61 60 60
62 61 58
65 63 54
68 62 60
65 76 58
57 47 45
50 54 45
61 60 54
49 53 44
64 60 57
46 46 40
51 48 41
49 55 49
72 50 44
48 46 41
43 43 40
56 53 47
75 52 48
82 66 57
75 72 68
62 54 44
55 58 47
52 55 45
52 47 42
77 80 69
67 66 53
60 62 50
85 84 81
78 61 58
51 36 33
67 63 58
60 68 57
57 62 54
62 60 55
65 60 52
47 41 35
60 53 49
52 52 48
62 46 41
57 56 48
50 45 44
56 51 48
65 63 60
62 51 48
65 67 61
70 67 63
58 61 52
56 51 48
60 53 47
66 59 56
69 60 57
62 48 44
55 61 55
63 56 52
60 57 54
71 51 46
51 47 44
57 42 41
80 71 65
75 50 42
60 50 47
72 54 50
65 56 52
59 53 50
55 47 46
85 64 62
46 36 34
61 57 52
52 49 48
61 63 56
60 50 48
46 44 37
51 40 37
68 63 57
59 56 52
58 51 43
53 55 44
75 43 40
75 56 53
66 56 53
50 39 32
75 68 67
61 60 51
68 63 59
67 58 55
66 63 57
60 60 54
58 57 49
62 47 44
56 52 49
43 36 31
68 64 63
85 55 53
46 38 36
64 51 47
54 53 49
56 47 46
70 51 45
68 58 56
62 51 50
57 49 46
47 45 37
66 62 56
68 68 65
53 45 45
49 48 40
74 51 44
61 51 46
58 51 50
52 42 38
56 47 41
57 53 47
52 44 36
56 46 44
63 61 54
54 34 34
55 61 45
68 66 62
62 56 55
49 35 32
64 57 54
70 56 48
57 53 50
62 52 48
54 38 38
55 48 42
67 62 61
65 60 49
58 46 45
75 53 53
45 42 36
81 58 56
72 59 59
60 47 43
52 44 41
44 32 31
54 41 41
51 43 38
61 55 49
57 46 45
53 50 44
59 43 40
65 52 50
57 45 45
55 41 37
64 50 46
77 55 55
65 53 48
76 37 34
56 53 46
64 45 42
62 57 53
48 35 35
53 43 41
67 56 54
89 49 47
70 51 51
47 41 40
98 84 83
72 54 50
49 38 35
62 45 40
73 64 59
62 60 56
49 39 34
52 42 41
56 42 39
49 33 30
55 42 39
66 60 52
73 72 64
51 38 38
58 41 40
47 28 27
47 46 42
43 31 26
54 46 42
52 43 41
43 35 32
43 31 30
54 49 45
52 44 39
56 41 35
55 43 40
52 40 40
53 44 42
55 42 41
58 38 36
55 46 45
86 46 43
58 49 41
54 37 36
61 54 52
61 61 46
51 40 37
49 39 36
56 44 44
60 40 40
50 39 34
49 40 36
66 52 49
72 58 57
51 38 34
95 84 83
48 32 29
54 39 33
44 34 33
63 66 47
53 53 42
62 43 40
68 50 47
43 24 23
54 43 39
54 50 39
55 30 29
45 40 38
55 45 38
46 32 28
56 34 34
52 37 36
45 32 27
58 35 33
56 45 43
56 34 34
54 51 48
42 24 23
44 46 35
48 30 28
45 25 25
50 31 31
44 44 41
51 38 37
48 29 29
29 23 16
56 40 39
37 30 25
37 25 25
61 26 24
35 7 6
41 9 8
65 16 15
54 12 11
48 10 10
42 12 11
59 15 14
64 14 14
48 12 11
42 11 10
55 13 11
50 14 13
88 24 24
68 17 16
57 15 13
61 15 15
61 14 14
67 17 16
62 16 14
71 15 14
68 17 16
59 14 12
66 17 17
59 15 15
54 13 12
68 17 16
83 19 18
60 15 14
60 16 15
69 19 18
69 18 18
81 21 21
64 17 16
75 20 19
78 22 20
89 23 23
88 24 23
70 18 18
81 22 21
93 25 24
79 22 21
71 19 18
73 20 20
78 22 21
81 23 22
72 19 19
72 21 19
76 21 20
74 22 20
59 16 15
91 24 23
84 23 22
81 21 21
86 22 22
78 21 21
75 20 19
79 20 18
63 16 16
88 18 17
81 22 21
59 16 15
80 21 21
84 22 21
61 15 14
89 24 24
67 18 17
63 16 15
85 21 21
64 18 17
87 24 23
63 16 15
81 21 21
69 19 18
79 21 21
74 20 20
79 19 19
65 17 16
72 20 19
75 20 20
55 15 15
70 19 18
81 22 21
72 19 19
70 19 18
66 18 18
68 18 18
70 17 17
65 17 17
70 19 16
52 13 12
45 12 12
71 19 18
78 21 21
55 14 14
86 23 23
68 17 17
58 15 15
52 14 14
84 23 22
66 18 17
60 16 16
51 14 13
49 16 13
66 21 17
47 13 13
56 15 15
95 16 16
80 21 21
42 10 9
72 20 19
76 17 17
56 15 15
42 11 11
0 0 0
0 0 0
0 0 0
0 0 0
0 0 0
0 0 0
0 0 0
0 0 0
0 0 0
0 0 0
0 0 0
0 0 0
0 0 0
0 0 0
0 0 0
0 0 0
0 0 0
0 0 0
0 0 0
0 0 0
0 0 0
0 0 0
0 0 0
0 0 0
0 0 0
0 0 0
0 0 0
15 31 17
16 31 18
19 36 20
20 33 19
31 57 32
18 32 18
13 16 9
27 48 27
29 50 28
28 53 31
21 37 20
28 50 29
23 43 25
18 35 19
32 61 34
30 61 33
33 61 35
39 71 41
23 42 23
29 56 31
26 51 27
28 47 27
37 57 32
31 62 34
35 65 37
28 53 30
34 62 34
31 57 31
23 43 24
34 62 35
24 46 26
27 53 29
25 47 26
23 44 25
33 60 35
33 61 35
36 63 36
27 50 29
32 60 35
34 50 28
28 47 27
29 52 28
29 51 29
28 57 30
54 103 59
23 43 24
35 67 38
35 58 33
29 50 27
34 61 34
35 65 37
29 55 31
41 76 43
33 66 36
34 63 36
30 56 31
29 55 31
30 59 32
34 61 34
39 76 42
34 65 37
26 55 28
35 64 37
28 52 30
33 63 35
26 49 27
38 73 41
27 48 27
37 69 39
37 72 40
31 58 32
36 67 38
29 56 31
33 64 36
36 67 38
32 58 33
33 63 36
38 69 39
28 57 30
28 55 29
36 71 40
35 80 38
34 67 37
35 54 30
29 53 28
33 59 33
25 51 27
22 45 23
17 35 18
35 59 33
29 58 31
28 49 28
29 52 30
25 50 27
30 52 28
30 54 30
32 62 33
25 46 25
26 51 28
22 41 22
26 50 28
32 54 31
26 48 27
23 36 20
21 48 23
17 33 16
22 44 22
23 40 22
21 35 19
19 36 19
22 44 23
20 39 22
20 39 21
47 42 35
24 26 24
46 45 40
35 29 25
39 45 34
34 33 28
52 50 46
30 24 19
53 51 45
30 38 29
43 35 29
37 42 36
53 52 42
45 36 35
58 39 34
57 34 29
42 52 41
25 36 22
39 44 35
48 44 33
34 45 34
36 54 33
50 47 40
36 36 28
46 45 40
45 40 31
43 41 34
47 53 44
41 42 31
38 42 32
43 49 42
41 49 39
50 55 48
44 44 35
50 44 38
49 51 46
43 40 33
45 49 43
47 51 44
41 49 35
71 52 46
64 62 59
43 49 42
50 55 49
52 65 50
73 58 50
62 60 53
59 57 44
47 48 35
59 55 52
55 46 38
47 48 42
60 58 54
56 46 40
56 54 47
45 46 35
43 47 38
40 37 29
49 53 47
44 43 33
47 51 42
58 61 56
55 44 42
93 75 70
49 41 35
50 51 45
79 48 43
65 42 36
46 38 34
49 49 40
39 40 30
42 35 25
68 65 53
47 50 42
55 56 49
55 69 56
78 63 58
46 81 43
55 48 40
56 58 50
51 52 50
45 44 40
74 78 70
59 56 50
59 45 38
50 48 44
61 59 52
55 49 40
59 51 41
56 57 49
51 52 47
46 44 39
49 54 41
63 45 39
50 47 41
37 40 33
52 52 46
54 52 43
55 45 40
54 50 46
53 57 52
58 54 48
66 63 59
51 58 44
43 49 43
48 44 39
53 51 48
50 48 44
51 64 48
43 53 42
60 61 54
53 45 44
49 52 47
57 51 45
74 67 62
76 58 50
59 51 50
56 60 55
64 57 51
60 55 47
59 48 42
67 63 61
81 77 72
91 57 50
65 67 62
62 56 51
52 55 50
50 48 43
55 56 50
53 50 48
47 47 43
57 54 50
55 58 50
53 55 49
56 54 50
60 59 51
67 66 61
69 73 63
43 41 38
63 56 53
56 50 44
55 45 42
69 63 59
64 52 42
60 59 55
73 62 58
79 63 57
47 47 42
41 42 33
66 59 55
48 39 36
62 56 52
64 56 53
61 65 58
52 51 48
62 61 55
61 56 52
63 56 47
67 77 58
63 61 56
59 51 48
42 40 34
67 69 62
48 43 37
66 62 57
68 72 65
51 44 41
61 61 56
75 52 48
68 61 58
45 43 36
57 45 45
65 68 61
58 61 57
60 51 48
54 50 49
73 64 61
70 54 49
52 51 45
53 45 45
59 44 39
63 56 48
66 55 49
49 45 42
104 66 64
55 49 45
58 46 45
69 57 53
64 49 45
65 63 59
43 42 40
47 45 41
46 46 42
70 61 60
74 64 63
77 66 63
55 46 44
64 50 47
47 42 41
49 49 46
69 70 62
63 50 49
50 48 44
41 44 34
61 54 48
64 53 48
78 85 73
57 56 52
65 57 54
67 59 50
69 52 51
50 44 40
60 47 46
79 57 53
71 47 44
58 43 39
62 55 51
56 47 43
61 53 51
55 47 40
72 49 47
66 51 48
58 54 52
61 48 45
57 43 42
52 46 41
60 43 37
52 49 44
56 44 41
49 45 43
60 44 40
56 51 47
41 37 32
61 55 51
58 40 37
70 54 52
61 50 47
55 51 46
62 63 56
74 55 50
62 53 48
66 54 49
71 60 58
39 35 29
59 57 51
61 43 38
47 37 34
63 48 48
67 58 53
58 70 50
62 45 43
80 53 51
63 50 44
58 47 44
55 41 37
62 52 52
56 44 44
49 40 37
56 51 39
64 58 53
78 59 55
58 47 42
60 30 29
71 57 55
73 39 38
68 48 45
64 50 49
57 41 30
59 26 24
71 44 36
64 57 51
64 29 23
62 41 37
48 37 36
58 43 42
59 50 48
70 65 62
75 54 53
50 44 38
50 58 44
61 43 39
40 33 28
57 50 46
51 25 24
56 42 39
43 34 34
54 31 30
50 34 30
55 44 42
152 149 148
40 34 33
55 38 38
58 49 48
54 49 45
62 31 30
69 60 53
30 28 22
58 49 48
75 49 46
68 52 46
56 49 42
48 34 33
57 44 41
74 45 45
69 43 42
49 38 36
81 76 75
66 63 61
52 44 38
56 49 46
69 44 40
56 48 46
86 54 50
55 34 29
57 48 48
50 43 39
40 28 26
72 48 45
55 38 37
45 39 38
59 51 48
51 42 42
49 34 33
49 37 37
63 53 38
52 36 33
83 75 72
88 52 51
44 36 36
60 37 31
43 35 31
71 44 39
40 26 24
92 32 30
54 46 42
45 35 35
54 48 45
40 30 30
42 29 27
48 28 26
53 41 40
57 46 41
69 67 67
47 24 23
49 39 37
38 30 29
49 15 13
36 7 5
53 14 13
52 13 12
45 10 9
45 10 9
45 10 9
52 13 11
70 18 17
76 20 20
33 9 7
75 15 14
44 12 11
65 14 14
56 13 12
49 12 11
59 15 15
68 18 17
62 16 15
49 13 12
59 15 14
61 16 14
72 19 18
78 19 19
71 19 18
62 16 15
55 14 14
64 17 16
86 25 23
72 16 16
71 19 19
88 24 23
66 17 17
58 15 15
73 18 17
73 19 18
65 17 17
86 22 22
79 19 19
95 20 19
84 22 22
81 20 20
99 27 27
73 17 16
89 23 23
89 22 22
83 23 23
79 22 21
94 25 25
68 17 17
71 19 19
68 17 17
63 17 17
71 20 19
208 28 28
71 15 14
68 19 18
63 17 16
71 19 19
93 25 24
58 16 15
67 18 18
57 15 15
71 17 16
68 18 18
94 25 25
68 19 18
56 16 15
65 17 17
58 15 15
61 15 15
78 21 20
80 22 22
80 22 21
82 22 21
86 23 22
78 17 16
75 20 19
90 24 24
61 16 15
77 20 20
83 22 21
74 19 19
77 21 20
77 19 19
53 14 13
58 16 15
65 18 17
81 21 21
69 19 18
56 16 15
59 15 14
92 17 17
58 15 14
74 20 20
92 25 25
65 18 18
49 14 13
58 15 14
64 17 17
54 15 14
69 18 18
61 17 17
68 19 18
57 15 14
43 12 11
62 17 16
50 14 13
65 18 18
94 14 14
74 20 20
56 16 15
88 24 24
26 7 6
0 0 0
0 0 0
0 0 0
0 0 0
0 0 0
0 0 0
0 0 0
0 0 0
0 0 0
0 0 0
0 0 0
0 0 0
0 0 0
0 0 0
0 0 0
0 0 0
0 0 0
0 0 0
0 0 0
0 0 0
0 0 0
0 0 0
0 0 0
0 0 0
0 0 0
0 0 0
0 0 0
13 26 14
20 36 21
27 58 30
21 32 17
22 29 16
28 46 27
23 52 24
32 58 33
21 42 23
27 50 28
20 33 19
16 23 12
23 44 24
35 63 36
33 58 32
17 33 19
28 49 28
29 54 31
21 39 21
27 51 29
38 63 36
24 42 23
34 63 36
29 51 29
27 47 27
63 71 39
26 45 25
27 44 25
36 57 33
22 44 23
28 45 26
32 60 33
27 51 29
51 102 56
27 54 30
20 38 22
38 101 43
31 53 30
29 57 32
39 73 42
35 62 36
40 76 43
27 46 26
33 65 35
37 67 38
33 65 37
29 56 32
37 67 38
31 57 32
32 60 34
31 61 34
29 57 32
34 65 37
30 60 32
30 57 32
29 52 30
38 72 41
30 56 31
33 60 34
34 65 37
27 52 28
32 55 31
26 52 29
32 66 34
40 70 40
30 56 31
31 63 35
35 63 36
33 61 35
37 69 39
28 53 30
33 62 34
28 56 31
39 70 38
30 55 31
34 64 36
47 92 52
29 57 32
34 62 35
35 64 37
25 48 26
32 57 32
37 61 33
29 57 32
29 50 29
29 52 29
31 59 34
29 53 29
30 60 34
27 51 26
29 51 29
20 34 19
32 61 34
24 40 22
29 54 30
29 54 30
28 60 29
31 58 32
22 40 22
27 46 26
29 50 28
24 49 26
21 33 16
24 67 26
24 47 25
22 38 20
23 37 18
19 40 21
15 29 14
21 35 17
21 30 15
12 23 10
24 47 26
23 36 20
34 39 29
46 45 35
43 43 36
50 49 37
53 53 46
47 55 47
48 55 42
34 34 31
46 29 27
51 43 40
47 38 32
60 52 46
32 32 23
41 38 34
45 51 44
47 47 42
36 39 33
37 43 29
52 44 36
49 46 41
54 48 39
37 43 33
40 38 31
53 98 42
43 39 36
33 39 31
42 39 34
51 60 49
46 45 39
51 44 35
42 44 40
57 43 38
29 25 22
51 56 47
43 42 35
59 67 47
46 45 35
38 37 33
42 45 36
46 50 42
41 36 33
48 53 37
50 42 36
44 50 40
44 48 36
49 49 42
53 48 43
39 45 34
49 48 38
49 41 37
39 37 28
56 52 46
28 33 26
61 62 57
54 47 39
57 44 38
44 47 43
39 37 31
45 45 37
45 41 33
55 49 45
85 82 77
34 42 33
46 45 34
47 44 40
60 54 53
51 51 45
56 60 45
52 51 47
64 55 50
51 53 49
65 61 56
41 43 37
42 49 34
32 48 30
43 49 43
40 42 35
60 54 52
50 46 45
49 47 44
56 59 56
49 62 48
43 47 43
78 64 59
46 46 36
60 50 39
52 47 34
55 60 49
75 68 62
69 52 50
46 75 41
58 59 52
49 55 48
58 59 56
52 49 40
43 50 42
43 37 34
57 37 34
44 47 43
55 61 54
60 58 52
67 41 39
40 43 37
46 51 40
50 48 45
95 93 91
64 52 47
42 35 30
51 55 43
43 40 35
56 57 50
48 40 36
46 43 32
52 52 39
48 46 45
53 45 41
79 76 70
71 53 46
55 52 49
67 59 54
67 48 46
64 39 36
44 39 36
58 49 37
51 54 47
51 54 46
72 60 59
42 41 32
89 89 87
57 46 43
50 50 48
58 62 55
63 61 56
59 72 55
62 71 59
58 46 44
40 33 32
60 52 48
50 55 49
58 50 44
54 48 39
50 45 44
62 49 48
49 51 38
42 41 38
51 54 43
57 52 49
53 49 44
55 50 40
58 47 38
65 66 53
61 52 50
60 49 45
67 68 65
39 39 31
61 58 52
61 51 44
42 43 35
79 41 38
65 53 49
60 59 50
64 60 52
63 48 47
57 53 49
62 44 38
63 48 44
63 59 55
61 52 50
46 44 40
45 37 29
64 59 55
62 51 50
56 45 40
74 60 56
58 55 52
70 51 49
61 54 51
63 52 47
68 66 64
62 48 44
68 58 56
59 53 46
66 64 61
60 58 50
63 66 61
57 57 52
53 50 47
80 65 62
44 40 37
51 40 34
72 56 49
50 45 42
71 49 48
47 34 30
55 47 46
99 88 85
67 60 57
46 42 33
44 42 33
60 50 46
59 48 45
81 71 69
60 56 53
71 64 60
64 55 46
55 52 49
54 44 44
58 48 45
42 25 24
103 97 96
67 60 57
52 55 46
59 45 45
57 51 46
63 54 53
50 47 44
60 55 49
60 53 48
56 43 36
96 74 73
56 40 39
49 33 29
62 47 44
52 41 39
62 61 60
63 41 39
72 59 55
73 75 60
53 39 36
60 47 44
61 54 52
56 39 34
59 33 33
70 58 57
61 58 51
74 51 50
61 52 51
48 44 40
47 48 38
55 48 44
62 50 49
68 48 44
51 39 38
59 48 45
50 42 39
41 31 30
52 43 38
55 47 43
54 48 40
56 48 47
41 32 26
53 32 30
51 44 44
66 49 47
51 35 35
58 39 39
41 34 30
51 43 40
60 48 43
55 34 32
94 88 85
45 36 30
41 26 24
91 75 74
59 51 46
68 63 63
54 45 40
70 51 50
58 46 44
73 43 40
82 45 44
42 26 21
50 46 41
52 37 34
67 38 36
72 49 49
45 36 31
63 60 58
75 48 47
45 38 36
56 37 36
59 58 53
61 50 43
70 65 63
68 69 60
42 38 38
51 42 37
61 55 51
46 41 37
76 64 64
52 20 19
62 38 34
43 30 25
48 39 39
86 59 58
58 24 22
56 37 32
69 37 37
60 46 45
45 38 31
69 39 38
86 43 41
47 29 28
85 61 59
45 36 35
60 51 49
50 44 37
57 46 45
101 45 44
64 53 52
53 42 37
54 51 45
56 28 28
28 18 16
52 39 35
54 35 34
42 40 35
61 49 47
55 41 37
57 38 32
30 17 14
46 45 42
52 39 36
45 31 29
65 61 54
40 35 31
47 38 38
55 49 46
50 56 46
63 57 57
43 31 30
30 18 18
40 35 34
34 20 18
52 38 36
24 15 12
58 44 38
44 42 35
52 41 41
46 35 29
39 29 27
47 41 36
34 29 26
43 40 26
26 7 5
53 11 11
41 10 10
62 10 9
40 8 7
46 12 11
25 7 5
90 23 23
47 12 11
50 11 11
60 14 14
55 14 12
70 18 18
69 18 18
43 10 8
48 12 12
65 18 17
54 14 14
68 16 16
70 18 18
56 13 12
61 15 15
65 18 17
73 19 19
74 17 16
59 16 15
85 21 21
64 17 16
85 20 20
63 16 15
75 20 19
71 17 16
55 13 13
64 18 17
84 21 21
65 18 17
155 23 23
59 15 14
75 20 20
66 18 17
67 17 16
90 24 23
74 19 18
89 23 22
70 19 18
85 22 22
86 23 22
89 22 22
80 20 20
70 20 19
89 23 23
75 20 19
68 17 16
66 18 17
88 24 23
72 19 19
96 24 24
85 23 22
128 23 23
72 19 19
66 18 17
70 19 19
74 19 19
65 16 16
74 20 20
78 20 20
82 16 15
69 18 18
85 23 23
66 18 16
72 19 19
89 25 24
71 19 19
78 21 21
74 19 19
89 24 23
82 22 22
77 20 19
74 20 19
71 18 18
59 15 15
59 16 16
62 17 16
55 15 14
70 19 19
78 17 17
78 21 21
80 22 21
49 11 10
66 18 17
79 21 20
65 18 17
57 15 14
68 18 18
100 27 27
46 12 12
67 17 17
48 12 12
72 20 19
52 11 11
65 17 17
54 15 14
57 15 14
77 20 20
62 17 17
49 13 12
77 18 18
51 14 13
44 12 12
58 16 15
54 14 13
45 12 12
69 19 18
50 13 12
39 10 9
0 0 0
0 0 0
0 0 0
0 0 0
0 0 0
0 0 0
0 0 0
0 0 0
0 0 0
0 0 0
0 0 0
0 0 0
0 0 0
0 0 0
0 0 0
0 0 0
0 0 0
0 0 0
0 0 0
0 0 0
0 0 0
0 0 0
0 0 0
0 0 0
0 0 0
0 0 0
0 0 0
25 50 27
30 57 32
22 38 22
25 45 25
30 54 31
31 54 31
23 44 25
27 51 29
17 38 19
21 37 21
24 44 23
26 47 27
43 78 45
29 54 30
29 52 29
25 49 28
29 56 31
27 47 27
29 54 31
25 48 27
26 46 26
27 50 28
25 49 27
29 55 31
35 62 34
23 43 24
26 48 27
31 58 33
31 69 35
32 59 33
27 50 28
31 55 31
29 52 29
23 44 24
34 67 38
34 67 38
36 67 38
26 50 28
36 65 37
24 46 26
28 52 29
35 68 38
33 73 37
27 46 25
40 77 43
37 66 37
34 63 36
31 59 34
35 66 37
35 66 37
29 56 31
27 51 27
35 67 37
36 68 39
32 59 34
33 58 32
29 56 32
30 55 31
34 63 35
38 73 41
30 56 32
27 53 30
27 46 26
34 61 34
33 63 36
26 47 27
28 47 25
39 74 42
34 62 35
39 72 40
38 71 41
39 74 42
30 59 33
36 73 38
34 65 36
41 78 44
33 73 34
31 57 32
26 50 28
41 74 42
30 53 28
32 61 34
28 54 29
36 65 36
26 49 27
28 50 28
23 47 24
36 60 33
30 55 30
29 56 31
19 33 18
29 55 31
32 58 33
24 40 22
24 40 22
24 46 24
32 57 32
17 36 19
27 50 28
21 37 21
32 57 31
27 50 26
29 48 26
20 37 20
26 42 22
18 37 18
14 27 14
17 40 17
26 47 26
23 45 24
19 46 21
16 17 9
22 36 19
20 34 17
14 37 15
25 32 24
34 27 21
50 40 32
34 43 33
37 32 28
44 45 39
50 45 36
48 47 43
52 40 37
50 52 49
41 49 36
43 49 39
38 36 30
38 53 38
54 41 34
53 27 23
40 46 38
45 43 36
34 45 31
41 38 30
34 42 34
50 43 38
32 36 30
28 26 25
50 41 36
50 44 43
76 74 60
56 71 50
44 38 32
27 28 18
41 44 37
52 40 32
53 55 48
36 41 32
46 48 40
42 55 41
57 51 42
48 43 38
49 47 42
40 37 31
55 50 46
40 44 35
40 45 37
42 48 42
50 58 50
51 48 43
51 41 33
32 36 29
52 60 41
41 41 28
36 43 36
61 68 57
55 53 47
57 42 35
38 36 28
41 44 38
57 53 48
55 54 47
35 45 34
61 71 60
47 49 38
45 41 38
34 50 34
58 56 52
55 49 42
60 43 39
45 46 36
50 53 47
58 49 45
54 46 39
66 60 51
39 43 36
73 60 56
52 62 46
62 60 58
44 53 40
45 44 41
53 48 40
39 47 38
55 50 43
42 43 35
40 46 37
41 40 37
48 45 38
49 67 40
54 51 49
65 62 55
67 67 63
43 45 33
58 57 52
45 49 42
54 56 49
49 45 41
67 53 45
50 47 40
53 46 42
51 44 42
60 46 41
80 76 66
66 55 47
60 51 48
54 45 43
50 62 49
55 56 50
57 47 45
71 56 50
37 38 34
78 70 60
47 46 41
54 50 47
45 47 43
54 53 46
66 55 52
45 47 41
50 40 33
54 59 50
71 60 59
63 66 58
51 43 40
73 51 44
57 50 48
46 40 37
42 40 32
55 46 37
50 47 41
67 58 51
53 49 42
70 46 46
53 53 51
32 25 22
49 46 44
59 59 54
61 55 52
43 35 29
66 44 42
90 89 86
54 53 44
67 66 44
77 66 58
60 64 58
70 55 41
44 49 34
51 49 43
69 57 46
71 80 64
59 55 47
53 50 46
51 44 37
86 60 55
64 53 49
60 53 46
54 49 47
67 57 48
53 46 44
55 48 47
56 44 41
57 49 45
56 41 37
55 52 41
48 38 36
69 66 62
55 54 48
67 62 58
71 57 55
76 46 42
66 51 44
56 39 31
52 50 45
51 50 46
64 52 47
57 50 44
56 50 45
73 65 62
45 49 43
70 41 37
51 44 43
67 51 45
69 55 50
58 39 38
68 49 45
59 62 54
48 39 33
56 44 42
81 57 52
63 51 50
46 37 35
63 52 48
57 57 53
59 44 40
63 58 51
63 53 51
57 52 50
66 62 60
62 54 48
54 42 40
75 66 61
66 49 45
53 41 37
63 49 48
58 51 49
61 54 54
85 83 81
35 37 35
58 54 52
51 54 47
60 55 52
59 51 50
47 34 28
64 57 52
59 48 47
65 55 51
39 33 25
51 37 34
55 53 46
55 49 47
49 49 42
68 64 58
56 49 45
52 47 43
64 55 50
48 45 41
70 56 52
50 58 42
68 54 45
56 51 49
67 52 52
53 35 31
54 48 45
50 46 41
55 44 44
56 49 46
46 46 41
60 50 40
39 35 30
62 49 43
60 57 48
63 62 59
64 42 41
43 35 29
76 53 53
46 37 36
61 54 50
67 45 42
54 46 44
57 44 43
58 36 34
59 55 44
96 76 73
58 49 44
71 65 55
81 60 56
72 48 46
68 52 50
56 42 40
50 41 40
65 47 43
43 44 39
59 39 35
64 45 42
63 50 48
61 51 50
45 34 31
40 30 29
46 45 41
41 32 21
40 36 31
59 49 48
48 38 35
55 50 50
49 38 35
51 35 33
51 35 28
50 36 33
75 60 58
53 46 38
42 44 35
38 35 25
73 44 44
43 26 23
38 34 29
41 25 19
52 36 34
44 34 34
61 44 43
46 33 31
56 50 47
51 37 37
64 45 43
57 39 32
62 33 26
69 55 52
48 34 25
55 42 42
57 48 42
59 62 50
71 38 38
41 27 22
79 47 46
51 30 25
48 35 33
48 36 34
87 37 36
76 30 27
41 25 18
86 52 46
46 32 30
49 41 39
69 89 58
50 39 36
83 41 40
43 28 25
55 47 40
59 41 40
45 29 28
45 41 37
54 34 33
48 33 30
52 42 39
52 41 39
66 54 53
51 43 39
48 40 32
54 41 38
57 19 19
45 27 27
64 52 48
54 44 44
55 48 48
57 41 33
51 44 41
53 32 25
31 26 23
44 34 29
50 30 29
66 48 48
35 27 21
36 27 22
72 62 60
43 27 22
43 37 36
50 39 37
68 36 32
32 16 10
37 8 8
38 9 9
40 10 10
55 13 13
35 9 8
45 11 11
48 12 12
45 13 11
52 10 10
58 13 13
42 10 10
63 15 15
48 12 11
53 12 12
59 13 11
59 15 15
60 16 15
70 17 16
50 12 11
79 17 17
91 23 22
69 18 17
37 10 9
80 21 21
60 14 14
60 16 16
75 18 18
91 21 21
66 17 17
71 20 19
77 21 21
67 18 17
55 15 14
87 21 20
76 20 19
75 19 19
77 18 18
84 19 18
98 26 26
73 20 19
85 23 23
68 18 18
98 26 26
92 24 24
79 22 21
104 26 25
80 21 20
59 15 15
58 14 13
77 21 20
81 22 21
63 16 16
96 22 22
80 22 21
92 25 25
64 18 17
72 18 18
94 25 25
75 20 19
87 23 22
54 14 14
66 14 13
62 17 17
83 24 21
85 23 22
59 16 15
87 24 24
77 19 18
91 24 24
84 23 23
80 21 21
89 25 24
84 22 22
94 26 25
63 17 16
62 17 16
61 17 17
74 19 19
68 19 17
53 14 13
78 19 18
73 19 18
56 15 14
60 15 15
76 20 19
81 22 21
62 17 16
63 17 16
66 19 17
59 16 16
71 18 18
71 18 18
65 17 16
63 18 17
53 13 13
63 16 16
114 31 31
74 20 20
66 18 17
55 15 14
58 16 15
55 13 13
65 18 17
76 21 21
50 13 12
59 16 16
73 20 19
67 18 18
65 18 18
73 20 20
61 14 14
63 15 15
62 16 15
55 14 14
56 15 15
0 0 0
0 0 0
0 0 0
0 0 0
0 0 0
0 0 0
0 0 0
0 0 0
0 0 0
0 0 0
0 0 0
0 0 0
0 0 0
0 0 0
0 0 0
0 0 0
0 0 0
0 0 0
0 0 0
0 0 0
0 0 0
0 0 0
0 0 0
0 0 0
0 0 0
0 0 0
0 0 0
13 13 7
29 55 31
25 47 26
21 33 19
30 50 28
22 35 20
20 40 21
27 50 28
26 49 28
29 50 29
31 59 33
24 46 26
30 55 31
21 39 22
24 47 26
26 55 28
31 58 31
31 59 32
26 51 29
27 49 28
30 52 30
22 38 22
20 34 19
27 55 30
33 63 36
26 47 26
34 61 35
29 55 32
34 67 37
29 53 29
33 62 35
34 64 35
35 63 35
28 53 29
23 36 20
30 57 32
33 62 36
34 65 37
29 52 29
28 46 26
51 95 54
34 67 38
34 63 35
42 81 46
31 59 33
36 69 39
30 57 32
35 66 38
24 47 26
29 53 30
38 63 35
36 68 39
37 70 40
32 58 33
41 74 41
27 52 27
36 72 39
33 60 34
36 64 36
28 53 30
40 77 44
31 56 31
40 80 42
35 71 39
32 61 34
29 55 31
35 68 37
34 66 38
30 57 32
35 61 34
34 66 37
31 62 34
33 59 32
29 57 32
33 63 35
29 57 31
33 61 34
34 68 38
33 60 32
28 54 30
35 65 36
45 74 42
34 64 35
31 62 33
28 54 30
31 56 31
31 59 32
32 58 32
26 49 26
28 48 27
30 59 32
30 60 33
23 43 24
22 40 23
33 62 35
28 49 26
22 40 22
31 57 32
26 50 27
40 75 41
31 51 26
23 50 25
22 36 19
21 40 22
27 48 27
27 40 22
19 38 18
16 31 16
23 40 22
27 54 30
20 37 20
23 45 23
19 38 18
22 40 21
19 32 18
20 31 16
36 38 33
22 30 21
45 31 23
56 41 40
25 21 19
43 30 28
35 30 26
32 33 31
42 43 41
38 45 36
39 40 31
48 43 36
40 45 33
44 36 28
39 43 29
32 24 21
53 57 52
44 45 33
49 40 34
35 42 29
36 42 35
60 51 48
44 50 44
39 42 37
47 50 39
49 46 43
54 42 35
50 48 38
44 41 36
17 24 16
46 45 37
34 43 34
27 34 24
57 55 45
44 45 39
49 51 42
48 31 25
44 41 39
54 45 39
60 51 46
45 39 33
51 50 44
51 46 43
27 28 20
34 35 33
45 52 44
74 44 41
43 37 32
50 51 42
47 48 42
72 57 51
49 44 33
69 57 48
59 46 42
61 52 50
41 44 37
47 45 41
52 47 40
44 47 40
52 52 48
87 44 36
37 39 32
70 74 56
58 51 47
57 67 48
35 45 29
87 84 84
42 37 31
45 47 40
50 54 46
45 51 42
44 37 33
50 50 43
38 39 31
46 58 46
37 45 37
56 60 48
43 41 33
47 68 43
46 49 45
56 42 36
38 40 34
47 44 40
82 128 84
53 47 44
53 52 43
51 53 45
64 42 35
124 65 59
36 39 35
41 47 40
78 64 57
51 44 36
62 57 53
52 40 37
49 57 43
45 42 33
55 48 44
50 54 49
79 40 36
46 43 37
53 49 44
56 64 51
63 63 57
41 47 31
75 56 52
48 44 34
62 51 42
42 45 37
37 27 21
74 70 59
61 55 54
56 54 47
45 32 27
49 53 47
42 43 37
49 49 47
40 34 32
55 39 36
44 33 27
55 51 44
55 42 36
58 55 42
61 51 41
44 39 33
46 41 38
49 44 36
52 53 45
70 62 59
53 44 38
46 46 43
54 47 44
121 59 55
52 44 40
55 53 49
56 52 46
55 60 48
56 38 34
61 57 47
45 34 24
54 40 39
61 44 39
54 61 50
51 48 39
75 59 55
48 52 47
38 32 29
46 37 32
72 52 49
57 50 45
43 42 36
39 54 38
63 48 46
66 44 44
79 75 72
50 50 44
64 54 53
47 48 41
54 48 46
56 54 43
52 42 37
61 49 40
45 44 41
88 76 68
50 39 32
54 46 42
50 44 39
66 54 51
59 59 54
57 47 43
63 62 57
57 47 46
63 52 46
55 48 40
57 49 48
55 48 45
48 55 46
50 50 40
58 56 49
49 43 38
53 56 50
73 48 44
55 50 46
51 52 46
55 51 47
59 56 55
49 46 37
73 51 47
44 45 40
63 37 35
62 49 44
55 54 48
75 68 64
61 65 47
54 51 48
65 48 44
71 59 55
61 50 49
55 47 42
63 60 54
77 49 48
63 49 48
54 47 42
41 38 28
55 50 45
57 48 43
56 30 29
57 55 54
56 47 45
42 54 32
67 67 55
49 40 39
46 44 37
55 43 39
62 56 49
44 41 39
51 45 42
58 50 44
57 47 42
47 46 45
53 30 28
47 38 33
63 55 54
31 23 19
67 61 55
97 68 46
61 41 39
34 30 28
42 36 35
53 50 46
57 36 32
69 47 45
51 45 42
60 48 47
69 56 56
48 44 39
46 36 35
57 55 50
51 37 33
60 28 27
41 30 24
49 44 41
65 53 41
67 42 37
81 76 70
57 43 37
44 31 29
45 43 36
56 51 44
50 38 34
53 39 37
49 38 31
83 48 45
48 30 29
33 33 24
42 40 33
44 43 33
59 47 42
54 54 45
64 39 39
135 130 129
61 57 53
50 35 32
48 42 33
50 44 40
47 34 30
49 29 21
42 39 34
50 36 32
53 32 32
41 31 31
66 61 54
49 39 36
52 46 35
42 36 35
50 39 35
46 29 29
43 25 23
46 41 38
44 31 31
48 44 33
49 28 25
38 34 31
45 34 33
40 40 30
72 33 32
47 42 37
50 30 28
52 39 34
53 41 39
64 63 60
69 36 31
55 52 44
65 40 31
49 37 36
27 15 8
76 46 42
52 36 29
61 46 43
49 47 43
60 44 40
50 43 36
51 49 41
62 47 40
74 48 45
50 40 39
72 51 51
44 29 29
48 35 35
46 36 33
58 53 51
43 35 31
74 66 64
39 33 28
43 22 20
37 46 34
180 51 36
54 41 33
45 29 29
50 48 40
26 13 8
61 54 53
55 42 39
50 41 34
49 39 36
44 31 28
37 25 24
58 58 42
52 34 33
44 31 30
39 35 34
43 38 38
40 25 24
28 25 25
31 24 19
36 20 20
32 25 24
55 30 27
69 30 30
26 9 8
31 20 20
28 6 5
49 8 8
42 10 9
31 5 4
44 10 8
64 14 14
58 15 14
49 13 12
62 14 14
33 9 8
46 12 11
51 12 11
70 14 14
64 16 16
72 18 16
116 31 31
68 15 15
74 17 16
63 17 15
67 17 17
65 17 17
61 17 16
87 22 21
62 16 16
61 16 15
78 21 19
59 15 15
72 19 18
67 17 17
67 18 17
49 12 11
75 20 19
67 18 18
76 19 19
81 21 21
81 21 21
80 20 20
69 17 16
81 21 21
119 22 22
96 19 19
68 16 16
62 20 15
47 12 12
72 19 18
55 15 14
68 18 17
76 20 20
78 21 21
82 22 22
83 22 21
70 19 19
78 21 21
63 16 16
97 22 22
85 24 23
81 22 21
84 22 21
81 21 21
77 20 19
69 18 18
74 20 20
74 20 20
74 19 19
84 21 21
84 22 22
92 23 22
56 14 14
87 22 22
65 17 16
74 20 20
94 25 24
80 21 21
63 18 17
76 20 20
99 26 26
66 18 17
68 18 18
88 24 24
65 18 17
74 20 20
80 21 21
98 25 25
76 21 20
58 17 15
74 19 18
69 19 19
65 11 11
85 22 22
76 19 19
57 16 15
52 14 14
65 19 18
67 18 18
62 17 16
72 20 19
52 19 14
54 15 14
69 18 18
69 19 18
58 16 15
56 15 15
60 16 15
73 21 20
70 19 19
56 15 15
60 16 15
34 10 9
58 16 15
64 17 17
71 19 19
68 13 12
52 13 13
56 16 15
65 17 17
45 13 12
0 0 0
0 0 0
0 0 0
0 0 0
0 0 0
0 0 0
0 0 0
0 0 0
0 0 0
0 0 0
0 0 0
0 0 0
0 0 0
0 0 0
0 0 0
0 0 0
0 0 0
0 0 0
0 0 0
0 0 0
0 0 0
0 0 0
0 0 0
0 0 0
0 0 0
0 0 0
0 0 0
20 38 22
21 40 22
31 60 34
33 60 34
23 43 24
32 58 33
25 43 24
13 26 13
27 49 28
23 43 24
28 52 30
29 55 30
28 52 30
28 54 31
31 59 32
32 59 34
28 50 29
33 63 36
27 48 27
35 57 32
35 56 32
28 53 29
26 46 26
35 67 38
31 58 33
33 59 34
37 70 40
23 41 23
27 44 25
31 59 33
28 51 29
31 58 33
23 43 24
31 55 31
28 45 26
31 62 34
31 58 32
32 56 31
30 56 31
32 60 33
27 49 27
34 64 37
28 53 30
24 43 24
35 68 38
27 47 26
33 64 36
37 73 41
38 69 39
32 57 32
38 69 40
33 59 33
31 55 31
33 64 36
37 70 39
33 62 33
39 75 41
39 72 41
34 64 36
34 66 37
36 71 39
25 45 25
40 76 43
31 60 33
34 66 36
40 77 44
36 71 39
36 70 39
35 70 39
33 63 35
34 65 37
24 48 26
44 85 48
31 60 34
34 67 37
33 63 36
33 63 36
37 72 40
39 76 41
31 58 32
31 61 33
23 36 19
27 53 29
32 60 34
30 59 33
27 51 28
30 54 31
24 48 25
28 51 29
31 60 33
32 63 35
32 66 35
34 63 35
28 49 28
29 107 31
29 56 31
25 45 24
30 55 31
24 39 20
31 50 28
28 54 29
21 36 20
26 47 26
26 41 22
26 51 27
27 47 26
24 42 24
21 35 20
13 19 9
16 30 15
28 50 27
15 29 16
15 34 15
24 45 25
19 31 17
24 38 21
16 30 17
54 44 36
36 30 27
20 11 7
36 35 25
47 49 45
34 28 25
41 26 14
43 66 43
47 36 34
28 35 28
35 18 15
20 25 19
46 43 37
33 32 27
62 38 30
31 33 28
46 34 33
30 33 26
43 52 40
57 53 48
44 35 30
29 29 25
34 42 31
32 39 32
40 38 33
49 39 35
36 37 30
48 41 38
45 44 32
43 37 33
44 47 41
53 46 38
38 45 32
34 37 31
35 33 29
64 49 41
30 35 30
32 40 29
47 47 41
50 48 43
40 32 27
31 31 23
38 36 24
46 52 42
41 47 38
61 64 59
46 30 26
31 26 22
44 33 24
37 44 32
40 40 26
44 35 29
55 49 44
39 45 36
41 35 27
54 46 45
58 51 46
48 49 42
38 46 39
38 35 31
78 77 76
34 34 32
53 42 36
38 39 32
44 42 31
28 29 26
49 44 39
36 37 27
41 47 34
65 49 40
36 41 31
31 29 25
34 27 21
51 46 40
56 42 37
48 58 45
57 59 51
50 57 50
58 36 33
46 46 41
85 50 43
53 41 41
52 49 42
43 42 36
35 37 31
39 35 27
40 42 39
50 44 41
48 38 35
51 55 48
65 56 50
45 43 38
48 40 37
52 49 43
55 50 45
38 55 32
54 52 40
59 51 47
55 53 43
86 48 39
96 52 46
42 44 36
38 48 38
48 47 35
72 52 38
44 48 33
47 52 42
56 51 45
54 46 42
48 46 39
64 53 47
50 49 40
56 40 36
52 52 49
41 33 27
65 38 38
41 40 33
43 47 36
37 38 32
39 40 35
52 46 41
63 50 49
64 64 55
60 32 28
54 57 49
59 52 46
57 41 37
41 39 38
38 30 29
52 42 36
61 49 41
52 50 42
55 51 46
52 51 44
61 54 51
47 52 46
42 43 37
66 54 50
45 43 35
48 35 32
49 51 48
52 47 41
43 36 29
68 57 48
50 51 44
107 76 56
56 51 48
67 36 36
43 44 35
42 33 30
50 35 31
60 52 40
55 54 48
55 53 45
49 38 33
74 47 45
41 37 33
27 35 24
51 50 40
31 31 23
68 43 36
44 42 35
57 49 45
40 36 33
68 50 47
145 47 43
53 41 40
46 37 34
96 90 86
51 43 38
86 80 80
33 28 23
63 69 52
76 46 42
67 49 44
47 57 42
32 29 26
55 46 43
51 37 34
58 38 36
51 39 31
44 28 27
54 47 43
49 44 40
48 47 39
45 49 36
54 38 32
50 39 37
58 51 49
44 41 35
43 40 38
41 39 33
61 47 41
46 43 38
83 43 38
52 41 38
50 31 30
48 36 35
27 22 22
46 36 34
65 46 39
34 25 16
49 47 40
38 43 34
53 28 21
42 33 33
36 35 23
73 62 61
48 42 28
51 37 31
44 40 32
57 43 43
41 30 29
52 49 41
69 52 50
56 54 46
53 40 36
100 69 50
37 34 27
46 21 19
46 36 35
56 43 41
45 36 32
60 39 34
43 38 33
45 31 25
57 40 37
46 32 28
80 55 52
36 28 25
55 50 45
49 50 47
61 54 45
38 30 24
68 56 53
51 45 34
47 42 37
47 36 34
46 39 35
41 29 28
67 62 45
50 39 30
60 34 33
58 43 40
83 69 65
59 38 37
61 48 47
47 37 37
60 39 37
48 38 31
42 26 23
53 35 32
35 28 22
61 58 57
56 46 44
44 41 29
63 62 60
67 58 46
48 37 31
65 49 43
24 15 15
69 58 56
47 37 37
70 61 60
50 41 39
38 30 27
51 35 30
48 45 44
44 31 31
47 34 28
40 31 28
49 39 37
64 43 42
42 26 25
39 23 22
67 47 39
40 41 32
42 35 32
43 18 18
52 37 36
38 31 30
55 51 41
37 30 25
54 42 41
59 58 57
57 41 40
43 32 30
58 35 32
59 25 23
45 40 35
45 27 27
78 41 39
70 40 35
40 32 31
52 30 28
36 30 27
42 38 36
50 43 42
79 75 75
52 24 23
40 9 9
41 27 25
44 24 24
46 33 27
67 42 39
55 47 46
33 20 20
45 41 38
52 29 28
57 52 49
80 35 29
47 34 32
46 17 17
45 28 28
34 26 21
34 32 26
79 46 44
48 39 39
49 46 45
39 37 33
47 41 38
42 33 32
44 42 40
31 19 19
50 40 25
41 32 29
55 38 32
50 42 37
44 32 28
36 30 27
97 41 41
40 28 28
47 38 37
122 121 121
41 32 31
35 22 14
37 20 20
24 20 19
51 20 18
41 11 10
38 10 10
42 12 11
48 10 10
55 15 14
42 11 9
176 15 15
49 12 11
73 18 18
44 11 10
80 21 20
49 12 12
64 14 13
66 14 14
59 16 15
94 18 17
62 17 16
41 9 8
56 15 14
40 11 10
80 21 21
39 9 8
66 17 17
74 19 19
54 15 13
74 20 18
66 14 14
72 19 18
58 14 14
67 16 15
77 21 20
77 20 19
79 20 19
84 23 22
87 21 21
86 22 22
68 17 16
66 17 17
66 17 16
76 19 18
95 23 23
82 22 22
94 24 24
69 18 17
101 28 27
76 20 19
83 22 22
75 19 19
89 24 23
89 22 22
83 22 21
70 19 19
81 21 21
81 22 22
57 15 15
82 22 20
76 21 20
89 23 23
76 19 18
95 25 25
74 18 17
54 15 14
93 24 23
73 19 19
98 27 26
70 19 19
86 23 22
78 21 21
86 22 22
93 25 24
89 19 18
43 12 11
63 17 17
78 21 21
86 23 23
83 22 21
70 18 18
94 25 25
72 19 19
64 18 17
81 21 21
83 23 22
56 15 14
74 20 20
68 19 18
60 17 16
85 23 23
54 12 11
69 18 17
67 19 18
53 14 14
49 13 13
65 17 17
73 23 20
68 18 18
71 18 18
63 16 16
73 19 18
50 14 13
54 15 15
67 18 18
75 20 20
56 16 15
71 20 19
63 16 16
53 15 14
74 21 20
46 13 11
46 13 12
83 23 23
54 15 14
61 16 15
55 14 14
64 18 17
78 20 20
82 21 21
29 8 8
0 0 0
0 0 0
0 0 0
0 0 0
0 0 0
0 0 0
0 0 0
0 0 0
0 0 0
0 0 0
0 0 0
0 0 0
0 0 0
0 0 0
0 0 0
0 0 0
0 0 0
0 0 0
0 0 0
0 0 0
0 0 0
0 0 0
0 0 0
0 0 0
0 0 0
0 0 0
0 0 0
16 32 17
24 45 24
28 53 30
23 43 24
29 48 27
27 50 28
35 67 38
25 44 25
27 51 29
33 60 34
23 44 24
27 49 28
23 40 23
30 55 30
26 46 26
19 39 22
35 60 34
23 42 23
25 45 24
29 57 32
41 85 45
26 48 27
20 39 21
30 57 32
31 54 30
28 52 29
29 55 30
47 88 51
32 60 34
26 50 28
29 52 29
38 79 40
22 42 24
32 63 36
24 48 27
30 59 32
30 56 32
34 63 36
42 64 36
38 64 36
32 63 35
30 59 33
25 41 23
43 76 43
29 51 28
34 63 35
28 51 28
36 72 39
26 49 27
41 75 43
40 76 43
39 73 42
34 62 35
38 72 41
30 54 30
31 60 34
35 59 33
41 78 44
34 67 38
33 63 36
37 71 40
41 73 42
35 67 38
31 59 33
41 85 46
38 74 41
35 64 37
42 76 43
31 62 33
36 71 40
39 73 40
34 63 35
37 74 40
30 57 32
31 58 33
31 63 34
36 60 33
29 53 30
36 71 39
29 56 31
32 61 34
27 52 29
32 59 33
31 53 30
24 49 24
28 51 29
30 53 29
27 49 28
23 45 23
23 43 24
27 54 30
29 57 31
24 47 26
31 59 31
29 56 30
23 41 21
25 54 26
34 55 30
30 59 32
34 58 33
27 48 26
25 46 25
29 54 31
24 39 22
23 44 24
29 49 27
25 47 26
20 37 17
19 40 17
24 44 22
33 54 29
29 63 33
17 29 15
17 29 14
14 26 13
18 38 17
31 27 14
39 33 28
22 21 12
30 21 20
25 40 26
42 35 34
25 25 22
31 29 21
49 44 37
33 23 19
53 46 44
49 39 28
22 23 16
28 34 28
34 34 28
36 43 36
37 37 35
36 35 32
30 22 14
66 35 33
42 46 40
35 34 28
39 35 32
44 33 28
14 23 15
38 34 23
44 61 42
49 41 36
59 60 38
39 33 28
45 41 37
40 50 30
49 40 35
52 44 42
34 29 26
51 40 26
49 51 43
76 36 30
49 38 32
51 54 51
34 44 30
30 31 28
72 44 39
50 37 33
34 23 17
37 47 33
31 34 28
33 38 30
42 46 41
36 43 36
51 58 51
46 43 34
41 35 30
68 53 48
38 52 34
43 46 32
56 66 46
39 42 26
41 34 31
39 34 27
30 19 13
64 47 40
65 50 49
44 48 40
46 41 37
49 40 35
46 53 40
51 46 40
37 42 34
55 38 30
44 35 28
47 42 32
39 40 34
33 37 27
55 45 41
47 56 44
36 35 33
54 47 42
29 30 20
54 46 39
32 42 32
36 41 35
56 50 41
21 31 18
71 62 59
64 71 57
41 43 32
63 50 41
34 44 26
60 51 44
47 39 33
51 46 42
40 38 33
48 50 39
39 37 28
42 40 31
44 37 31
45 44 40
54 49 46
49 54 44
44 47 40
38 42 38
43 40 38
39 29 19
90 90 83
49 39 33
32 31 26
45 46 41
52 44 34
41 39 33
34 44 32
48 62 46
42 38 34
67 65 51
52 45 41
47 49 42
53 51 49
43 31 30
60 47 45
54 54 49
58 46 39
56 52 43
59 37 26
99 63 55
43 35 33
108 40 32
44 33 31
55 52 44
41 57 36
63 55 50
56 50 46
54 52 45
54 48 45
61 44 40
46 28 21
45 39 37
50 68 48
55 47 43
53 55 44
76 36 33
47 47 37
33 38 28
49 40 39
59 62 45
48 42 37
45 43 33
55 29 25
64 48 43
48 47 43
33 40 31
40 44 39
50 42 36
48 42 38
54 50 46
71 51 47
44 44 39
49 47 46
45 44 42
38 36 32
51 40 33
42 36 36
64 51 47
65 64 56
31 27 23
43 40 37
59 41 40
44 41 40
77 48 44
55 50 44
61 47 39
50 48 40
85 56 54
35 32 28
48 46 40
51 37 35
42 42 39
65 55 51
66 67 60
52 33 31
56 40 36
49 48 39
51 35 30
45 44 41
60 57 52
39 32 29
59 39 38
118 43 41
46 50 36
54 30 26
56 46 42
50 55 45
53 42 38
60 50 47
56 51 49
44 47 38
62 62 59
53 58 45
73 74 69
40 41 34
68 62 61
46 35 34
67 38 33
48 42 37
36 28 23
47 41 38
55 39 36
71 37 33
76 66 65
43 37 31
55 57 41
87 72 68
60 50 49
51 35 33
55 38 35
57 45 40
48 32 27
64 48 44
59 42 38
67 47 45
31 36 22
79 58 57
34 26 17
47 41 39
50 49 42
47 33 30
51 43 42
51 48 45
33 26 25
49 37 35
50 33 32
60 52 45
45 35 28
42 31 27
59 50 48
62 45 43
48 26 22
42 27 24
96 97 93
77 76 70
64 35 29
53 44 42
44 35 31
33 35 29
73 54 53
45 42 33
53 41 40
31 30 28
48 38 31
51 36 30
61 43 42
60 51 49
40 28 27
56 38 36
39 19 17
60 54 50
65 36 32
47 36 33
40 40 30
48 33 33
72 61 61
53 49 38
43 36 32
48 30 25
29 22 17
38 39 34
50 47 35
43 31 30
39 21 21
63 33 24
43 33 25
55 46 45
62 51 50
53 47 41
63 50 49
54 50 47
50 33 29
45 25 24
42 42 34
41 21 20
40 30 29
53 50 50
41 27 21
39 34 24
39 39 28
41 30 25
45 31 28
36 24 19
47 34 25
48 22 19
50 39 37
50 26 26
62 36 30
51 41 39
48 45 34
48 28 25
36 25 17
52 35 30
40 27 20
39 28 24
63 76 49
27 26 16
58 53 50
37 30 29
46 27 27
41 27 27
57 38 37
35 24 21
62 59 56
50 30 28
52 34 31
48 18 18
46 31 28
59 30 30
46 33 31
72 40 39
83 75 67
48 44 43
33 15 13
34 23 21
54 51 51
39 35 25
50 36 28
39 30 20
42 35 34
41 26 23
37 38 32
48 19 18
54 42 41
42 30 29
63 54 54
35 18 18
45 43 38
47 22 22
63 19 18
39 31 27
31 36 14
45 40 35
39 38 32
40 35 30
40 13 13
57 14 13
40 9 8
57 9 9
47 14 13
50 13 12
50 11 11
32 8 6
51 13 12
44 11 10
44 10 9
54 12 12
42 10 9
51 13 12
50 12 11
52 12 12
58 15 14
68 16 15
72 19 18
95 21 21
65 17 16
60 16 15
54 14 13
72 20 19
70 19 18
64 14 13
95 19 19
101 27 27
67 17 16
75 18 17
77 20 20
88 24 23
97 24 24
63 17 16
54 14 14
84 23 22
73 19 18
68 17 16
93 25 25
85 23 22
73 19 19
89 21 21
68 18 18
69 19 18
89 24 23
60 15 15
72 19 19
92 25 25
77 19 19
112 23 23
82 22 22
78 21 21
74 20 20
87 23 23
83 22 21
82 23 22
76 20 20
63 16 16
74 18 17
100 22 22
78 22 20
75 20 19
74 20 19
76 21 20
76 20 20
74 19 19
56 14 13
86 23 23
78 20 20
80 19 18
79 22 21
90 23 23
77 20 20
96 26 26
70 18 18
78 20 20
109 29 29
68 18 17
55 15 14
76 19 19
105 21 20
55 15 15
70 18 18
56 15 14
74 20 19
87 22 22
69 15 15
65 18 18
64 18 17
85 23 22
45 13 12
82 22 21
66 18 18
90 24 24
35 10 9
78 22 21
68 18 18
56 16 15
45 11 11
68 16 15
74 19 19
70 19 19
41 11 10
72 19 18
70 17 16
136 16 16
81 19 19
45 11 11
47 13 11
62 17 17
50 14 13
73 19 19
68 19 18
69 15 15
82 18 17
69 19 19
47 14 13
41 10 10
0 0 0
0 0 0
0 0 0
0 0 0
0 0 0
0 0 0
0 0 0
0 0 0
0 0 0
0 0 0
0 0 0
0 0 0
0 0 0
0 0 0
0 0 0
0 0 0
0 0 0
0 0 0
0 0 0
0 0 0
0 0 0
0 0 0
0 0 0
0 0 0
0 0 0
0 0 0
0 0 0
11 22 11
20 36 19
24 45 25
25 45 26
37 77 42
19 38 18
29 54 31
35 68 37
23 42 24
30 58 32
35 67 38
21 39 21
23 30 17
29 52 30
22 40 23
29 53 30
21 44 24
26 51 29
25 49 27
33 62 35
32 58 33
28 53 30
24 46 26
35 63 34
18 32 18
26 51 27
33 57 32
26 47 27
33 55 31
36 69 39
22 43 24
25 44 23
38 72 41
29 54 30
29 51 29
35 66 37
30 70 32
24 42 24
30 59 33
25 49 28
30 58 32
29 57 30
36 65 37
37 62 34
29 55 31
33 64 36
36 67 38
35 69 39
33 61 34
37 70 40
34 65 37
29 54 30
35 66 37
35 67 37
33 69 35
33 62 35
34 66 37
43 83 47
29 58 31
35 67 37
32 57 31
35 64 37
41 78 44
35 69 39
34 64 36
34 63 36
35 66 37
34 64 36
41 77 44
37 72 40
31 60 33
37 72 40
29 56 31
28 53 30
38 69 39
43 78 44
33 67 36
33 63 35
40 76 43
35 69 39
30 59 33
36 67 38
32 61 34
36 69 39
25 44 24
45 84 47
36 68 38
37 70 40
36 58 32
30 56 31
26 46 26
43 81 46
22 48 24
31 59 33
20 44 22
34 65 36
25 44 24
31 58 33
30 49 27
21 36 20
19 35 19
25 48 27
24 46 23
29 54 30
23 43 23
24 47 25
21 46 24
28 55 29
22 46 23
22 23 12
22 41 22
12 30 13
25 45 24
21 42 22
15 27 13
24 47 25
19 36 20
28 30 27
19 26 17
36 35 34
23 30 22
42 32 31
44 40 31
36 30 28
45 36 27
12 21 10
30 42 29
43 30 25
9 13 7
31 26 23
47 50 44
48 29 27
33 31 27
39 35 29
43 45 39
26 31 23
43 40 30
44 25 17
63 72 62
45 62 47
34 18 13
41 35 28
30 31 26
62 92 63
53 55 42
32 36 31
38 32 25
39 39 33
49 52 45
52 50 46
33 39 33
37 41 32
47 46 41
47 41 39
33 35 26
57 57 52
29 31 27
50 94 55
41 32 27
54 47 36
44 35 27
42 36 29
29 30 24
34 45 33
48 47 38
39 41 34
29 30 26
51 55 45
29 25 22
50 54 48
36 31 28
42 45 40
57 58 50
63 73 52
34 30 25
43 39 32
25 34 24
45 49 37
43 38 33
53 45 40
61 57 52
50 48 45
53 46 44
83 64 55
53 36 30
46 42 39
48 47 40
79 80 78
79 52 45
43 43 35
52 59 46
28 33 22
52 54 49
80 48 44
50 42 33
51 47 46
58 45 40
55 41 32
55 34 28
51 42 37
75 110 73
59 36 34
71 64 61
55 49 44
48 47 26
86 44 41
54 42 34
46 34 32
46 50 45
60 43 39
57 44 38
43 31 28
63 42 36
53 42 40
43 30 27
46 36 32
41 50 38
56 50 47
39 43 35
43 45 38
35 33 28
73 62 51
50 53 48
66 70 63
35 40 33
79 47 43
59 59 53
53 43 37
56 57 49
47 53 42
39 43 33
56 48 43
46 47 43
63 53 48
58 44 40
47 40 33
53 45 38
49 55 45
46 46 42
60 52 46
42 43 39
46 49 40
31 37 29
39 36 31
46 37 32
56 45 38
58 56 54
55 56 50
50 40 38
64 49 43
39 35 26
54 45 43
53 47 44
61 55 51
50 42 37
63 51 39
33 29 23
52 53 45
83 41 38
47 40 36
44 45 42
38 29 26
29 40 28
54 38 37
48 39 30
85 83 82
41 34 31
68 55 50
59 43 42
52 41 37
68 73 57
53 47 44
37 29 26
42 46 42
47 39 39
71 46 44
63 56 51
43 46 37
53 30 28
52 53 48
60 56 51
70 71 69
33 28 28
64 59 52
63 49 48
42 36 33
43 33 27
56 43 38
43 42 37
59 54 52
86 57 52
47 35 35
52 55 49
52 57 41
61 45 44
44 36 35
68 65 62
48 33 23
39 36 29
56 46 39
44 41 39
33 31 23
59 50 47
67 48 42
55 54 48
54 49 45
79 42 39
55 47 46
50 49 43
41 34 27
52 44 41
69 65 61
59 41 40
44 36 34
76 52 50
57 58 50
69 45 36
55 49 39
69 53 45
57 46 44
59 34 31
73 36 33
50 34 32
56 51 47
66 55 52
60 53 44
52 44 40
39 44 34
68 62 57
53 35 32
76 43 42
61 41 37
100 94 92
53 41 34
46 38 34
63 51 46
40 31 30
57 51 50
41 31 30
74 63 59
53 46 41
41 31 22
62 40 39
45 34 29
51 33 33
83 78 76
43 36 36
51 42 30
41 30 20
53 66 46
47 39 32
27 22 19
42 34 34
62 49 43
63 40 29
54 35 34
52 31 29
44 35 33
68 55 52
51 36 35
70 48 42
53 46 41
25 18 17
62 38 38
48 33 28
61 48 40
44 38 38
60 47 40
62 37 30
63 52 48
60 36 32
74 64 64
106 75 75
45 36 31
59 40 34
30 22 15
81 52 50
42 36 35
52 41 39
64 44 44
56 39 34
52 48 47
56 52 44
48 40 35
56 81 37
53 57 44
42 43 32
61 37 33
60 44 44
52 49 45
47 41 39
51 43 42
36 25 20
46 37 35
42 32 27
50 26 23
46 37 27
36 26 23
72 35 30
60 53 48
61 28 26
55 45 40
51 41 40
65 69 45
37 26 25
77 44 43
42 42 39
73 41 34
71 45 44
50 40 38
76 33 27
55 30 27
30 30 23
70 37 32
58 51 46
36 25 23
42 44 37
55 41 41
78 39 36
40 18 14
49 34 31
64 31 29
37 25 20
43 43 31
42 33 31
50 33 31
42 26 24
45 36 26
67 33 32
79 76 73
60 53 50
45 27 26
36 23 20
25 24 20
48 28 25
35 32 25
51 31 27
42 33 24
35 18 18
26 18 15
30 18 13
44 38 32
35 29 28
42 38 38
45 38 34
32 25 25
35 18 15
47 38 35
42 37 31
30 24 18
39 25 17
25 14 8
47 43 33
21 23 12
55 68 52
67 47 47
42 10 9
29 7 6
48 12 11
60 16 16
39 10 9
43 11 10
50 12 12
61 15 14
45 8 8
39 7 6
54 13 13
67 20 17
57 15 15
67 16 15
62 16 15
70 13 13
61 16 15
61 14 13
60 17 16
61 15 14
52 13 12
64 17 17
61 14 14
67 17 17
72 17 17
90 24 23
82 22 22
73 20 19
65 18 17
75 20 19
75 20 19
74 19 18
71 20 19
75 19 18
68 17 17
59 15 14
60 16 16
64 18 17
84 23 22
64 17 16
79 22 21
92 22 21
97 27 26
70 19 18
90 22 22
90 24 24
95 25 24
100 26 26
100 27 27
81 24 21
79 20 20
73 19 17
72 19 18
77 21 20
59 16 16
73 19 19
74 19 19
84 22 22
88 19 19
70 19 18
77 20 20
80 22 21
71 18 18
85 23 22
115 31 31
81 22 21
67 17 17
62 17 17
80 22 21
79 20 19
86 24 23
71 20 19
64 17 17
72 21 19
47 13 12
67 19 18
66 19 17
69 17 16
79 21 20
78 21 20
76 20 19
93 25 25
71 18 18
49 13 12
76 20 20
77 21 21
72 18 18
63 18 16
72 19 19
76 19 19
64 17 17
68 18 18
84 24 22
67 17 16
112 30 30
71 19 19
55 15 14
91 22 22
58 16 15
72 18 17
79 20 20
78 21 21
83 22 22
94 25 25
68 19 19
73 17 17
45 12 12
73 20 19
70 18 18
72 20 19
66 18 17
54 13 13
68 18 17
58 16 15
73 19 19
103 23 23
31 9 7
0 0 0
0 0 0
0 0 0
0 0 0
0 0 0
0 0 0
0 0 0
0 0 0
0 0 0
0 0 0
0 0 0
0 0 0
0 0 0
0 0 0
0 0 0
0 0 0
0 0 0
0 0 0
0 0 0
0 0 0
0 0 0
0 0 0
0 0 0
0 0 0
0 0 0
0 0 0
0 0 0
20 37 21
23 40 23
28 45 25
30 56 32
27 44 25
26 44 25
23 39 22
19 35 20
29 54 31
30 56 32
36 69 39
29 55 31
26 50 28
26 46 25
23 43 24
27 52 29
25 46 26
29 53 30
22 42 22
24 47 26
37 69 40
32 61 34
35 65 37
27 52 30
26 47 27
29 52 30
25 48 27
29 56 31
21 42 22
28 51 28
23 45 25
20 37 20
36 65 37
31 60 34
31 53 30
26 47 26
30 58 33
30 53 29
37 70 40
28 51 27
30 57 31
35 67 38
28 53 30
32 58 32
32 61 35
48 92 53
35 67 38
40 79 43
29 52 30
32 58 33
32 59 33
34 64 36
37 71 41
30 59 32
29 56 31
39 67 38
32 63 34
29 55 31
30 54 31
35 67 38
33 62 34
34 63 36
37 71 40
30 58 33
36 72 38
35 65 37
37 72 40
39 70 39
36 77 39
35 69 38
31 55 30
31 53 30
34 67 37
34 65 37
41 78 44
36 68 39
30 58 31
40 71 40
36 72 40
38 65 36
32 63 34
31 56 32
37 73 41
30 57 32
26 51 28
30 53 30
31 59 33
32 57 31
28 55 30
37 72 41
33 69 36
28 51 29
28 48 26
25 49 26
31 51 27
30 57 32
34 65 36
25 45 26
29 53 29
35 63 35
25 49 26
26 41 21
31 57 31
27 49 27
26 47 26
21 31 16
23 42 24
23 33 15
44 63 32
24 43 22
29 54 30
25 43 24
19 35 19
10 23 11
15 29 15
18 32 18
19 31 18
35 35 26
32 38 30
48 35 33
49 37 35
57 36 30
30 29 25
32 37 30
26 34 24
69 48 44
32 49 33
33 37 31
41 32 25
26 34 21
35 36 31
49 46 41
30 36 30
43 46 32
42 40 31
46 43 30
32 34 30
30 35 27
38 29 25
25 30 25
49 51 44
33 27 23
38 32 28
48 41 37
39 40 30
32 28 22
38 45 38
49 28 22
35 41 33
46 36 32
54 47 35
42 54 39
37 34 29
36 42 30
54 54 49
46 42 35
52 48 46
61 55 45
54 57 54
44 49 43
52 49 41
51 49 39
42 35 32
49 47 36
37 49 34
48 45 39
53 49 47
46 50 42
33 36 26
58 48 39
41 43 35
46 41 36
62 57 49
52 43 36
37 51 36
43 39 35
52 59 50
37 51 36
27 34 27
50 46 38
58 57 52
32 39 31
40 42 28
44 70 37
54 51 46
56 52 48
47 50 40
50 53 48
36 50 36
45 57 42
86 53 50
67 69 67
39 42 32
39 36 30
58 51 47
33 42 30
44 52 36
46 47 43
50 52 41
49 51 41
44 47 39
38 36 34
45 63 42
40 39 33
47 39 38
63 54 48
54 56 48
60 42 36
37 39 33
55 54 46
40 34 30
44 41 39
52 64 49
53 52 47
43 30 27
49 40 31
49 53 44
66 51 45
49 51 47
44 46 41
42 39 36
40 41 37
91 56 49
56 46 38
34 32 21
43 40 33
55 62 50
59 54 48
46 72 48
52 49 36
49 50 42
55 45 40
58 66 53
58 64 52
41 42 28
49 42 39
50 57 46
38 38 30
67 66 60
39 37 34
60 58 49
41 43 37
53 43 43
58 53 49
41 41 39
62 43 39
121 66 64
66 57 52
41 39 34
46 44 41
43 42 36
49 39 36
63 59 53
53 46 39
49 49 43
54 50 48
48 44 42
41 45 34
70 47 46
42 37 27
96 46 45
38 40 34
37 40 37
51 39 37
46 40 33
49 47 44
63 53 50
63 39 38
73 62 52
51 45 44
71 50 40
54 52 49
63 45 42
51 46 39
74 44 41
41 39 32
56 42 39
53 56 52
42 40 36
49 52 42
52 46 42
60 54 48
58 55 53
60 57 48
46 41 35
49 44 39
60 55 49
61 55 52
55 50 49
58 47 45
64 50 46
57 52 44
96 100 90
41 44 37
57 47 44
38 33 28
46 28 25
57 48 41
29 23 18
57 55 52
59 50 42
69 61 53
63 61 59
51 49 43
65 58 54
52 51 45
58 28 26
38 34 33
68 53 49
47 48 42
53 53 47
69 63 59
45 31 23
48 42 37
45 41 36
65 48 42
51 46 43
80 43 42
79 57 51
64 31 27
50 44 43
50 41 38
57 49 45
62 49 44
55 52 46
60 47 46
51 47 44
47 41 35
61 51 49
59 53 49
50 48 45
56 45 40
57 54 50
45 44 38
62 47 47
42 35 32
69 39 35
54 48 43
54 40 39
50 39 33
58 48 46
68 41 38
65 60 58
52 40 38
64 37 35
61 71 50
47 38 28
42 31 28
52 41 40
55 51 47
67 53 51
45 41 36
62 51 49
53 33 31
54 45 43
38 33 28
73 61 58
42 33 33
63 36 33
54 50 39
74 54 51
56 45 42
49 35 29
43 25 25
52 42 39
42 40 38
47 39 36
55 42 39
220 216 216
51 39 38
113 59 55
47 34 31
47 29 24
62 52 50
42 37 32
45 30 28
25 33 21
45 38 37
64 46 44
46 38 37
38 42 36
59 43 39
76 37 35
66 48 45
61 60 55
49 46 41
36 33 25
44 43 33
52 46 41
65 39 35
38 36 34
60 32 29
70 41 39
73 55 53
46 31 31
47 29 26
44 30 27
60 41 36
50 40 31
150 145 143
32 37 30
50 35 32
76 40 40
66 53 48
49 41 36
42 36 34
53 43 35
54 44 42
79 67 53
88 82 81
45 33 26
40 24 23
52 35 32
56 38 37
58 47 47
75 50 48
45 21 20
43 36 32
164 148 148
52 31 29
42 39 34
61 44 32
50 34 30
76 35 33
53 37 34
63 39 37
39 33 28
33 20 20
53 36 36
85 44 43
38 28 26
44 23 21
38 34 27
48 37 33
45 40 36
46 34 30
43 23 21
31 16 13
58 57 47
41 21 15
34 23 19
58 44 39
54 65 47
44 40 40
39 33 26
41 44 35
49 30 27
46 40 38
48 36 22
80 78 75
36 33 32
24 40 23
42 31 31
60 31 31
69 64 63
37 9 7
35 8 8
29 6 5
56 13 13
82 20 20
63 15 14
58 14 13
37 6 5
60 14 13
64 16 15
47 11 10
58 11 11
66 16 15
51 12 12
70 18 17
51 13 13
71 19 18
57 12 12
54 11 11
75 21 19
54 13 13
65 18 17
58 16 16
80 18 18
60 15 15
64 17 17
73 19 18
86 21 21
77 20 20
67 16 16
64 15 15
62 18 15
74 21 20
82 20 19
62 17 15
67 17 17
102 27 27
81 18 18
69 17 17
79 21 21
72 20 19
74 21 20
63 17 16
67 18 17
84 20 19
92 25 25
91 23 22
90 23 23
95 23 23
70 20 18
78 21 20
72 19 19
74 21 20
82 19 19
83 21 20
71 17 17
91 24 24
80 21 20
77 20 20
88 21 21
76 20 20
84 23 22
73 19 18
96 26 26
78 20 20
76 21 20
84 22 22
60 17 16
85 23 23
76 20 20
59 16 15
86 21 21
64 17 16
81 20 20
78 21 21
77 21 20
81 21 21
66 18 18
57 15 15
83 23 23
79 22 21
62 16 15
89 24 24
64 18 17
74 20 19
74 20 19
71 19 18
59 16 15
78 20 20
63 17 17
55 14 14
76 20 20
67 16 15
61 16 16
63 12 12
69 19 18
51 13 12
54 15 14
79 20 20
68 17 16
52 14 14
63 14 14
55 15 14
66 18 17
68 19 18
50 13 13
66 18 18
64 16 15
66 18 18
86 24 24
58 17 16
49 13 12
57 15 15
68 19 18
71 19 18
49 14 13
75 20 20
69 18 18
0 0 0
0 0 0
0 0 0
0 0 0
0 0 0
0 0 0
0 0 0
0 0 0
0 0 0
0 0 0
0 0 0
0 0 0
0 0 0
0 0 0
0 0 0
0 0 0
0 0 0
0 0 0
0 0 0
0 0 0
0 0 0
0 0 0
0 0 0
0 0 0
0 0 0
0 0 0
0 0 0
16 28 16
24 47 26
33 56 32
26 47 27
26 42 24
28 42 24
31 59 34
25 49 27
34 63 36
35 68 38
27 47 27
35 60 35
21 40 23
21 38 21
24 44 25
36 68 38
31 52 29
23 37 21
21 41 23
27 51 29
22 39 22
31 56 32
37 72 41
41 79 45
32 59 34
25 48 26
25 43 25
21 37 20
30 56 32
31 60 34
30 55 31
31 59 34
36 68 39
28 52 29
33 62 35
22 40 23
31 58 33
26 51 29
37 71 40
31 58 33
39 75 43
26 47 26
29 53 29
33 65 37
31 59 34
36 72 40
33 59 33
41 79 45
28 53 29
29 54 30
38 70 39
37 71 40
43 77 44
30 56 31
39 73 39
35 62 36
32 66 36
35 68 38
34 63 36
32 61 34
35 68 37
45 70 38
34 63 35
34 68 37
34 63 36
37 70 40
36 70 40
34 63 36
38 74 41
33 60 34
32 61 33
31 60 34
27 50 28
33 61 34
35 65 37
38 74 42
30 58 32
28 56 31
31 60 33
32 63 34
38 81 43
32 55 31
35 66 37
31 56 31
40 75 43
32 65 34
32 61 34
44 82 45
32 57 33
33 60 34
30 54 30
38 69 38
29 56 32
33 63 35
27 53 27
28 52 29
27 50 28
31 60 33
20 38 21
20 38 20
29 55 30
29 53 30
30 57 31
27 57 29
29 57 31
30 58 32
24 42 23
22 45 21
27 50 26
27 50 27
26 44 24
14 25 13
21 36 20
18 29 15
19 35 19
20 37 20
21 30 16
36 30 28
40 27 24
37 47 38
26 28 24
45 38 36
44 41 39
16 20 14
45 26 22
49 54 45
35 36 30
40 34 31
39 39 34
47 46 40
48 43 40
35 36 31
59 58 48
25 33 24
33 39 32
47 49 45
36 32 25
33 42 29
52 43 38
55 44 35
57 57 46
34 31 26
25 36 25
47 53 41
29 34 28
40 34 26
38 37 37
62 53 47
40 40 35
32 33 29
38 33 26
53 52 46
59 54 47
25 49 26
48 48 38
34 46 34
44 48 42
43 49 43
38 46 33
48 42 41
50 62 45
45 42 35
45 55 45
44 40 35
62 94 60
44 44 35
49 55 47
40 46 40
60 69 53
51 52 47
65 49 47
51 48 43
30 31 27
62 50 46
55 60 50
49 46 39
39 46 36
49 48 45
36 42 33
51 43 39
45 41 35
61 51 48
48 44 40
42 36 31
61 57 50
83 76 74
48 54 44
50 45 39
37 42 37
53 56 45
64 59 55
36 33 31
83 47 40
71 57 53
47 47 42
32 32 27
41 30 29
53 48 43
46 44 40
42 46 40
41 43 38
55 58 49
68 64 62
50 57 47
53 53 49
45 43 37
49 42 37
56 46 41
35 39 31
63 55 44
61 58 53
66 69 56
37 39 33
49 57 46
43 47 40
42 40 32
52 48 46
41 42 31
56 55 49
42 43 34
48 46 38
52 44 42
48 57 41
61 66 53
42 53 42
57 44 41
58 60 48
67 52 46
53 60 50
39 45 32
66 70 60
60 53 48
47 45 34
52 53 50
42 39 33
52 41 37
63 68 58
59 60 53
34 37 30
64 56 50
49 41 38
42 28 25
62 61 55
61 59 52
61 55 53
37 41 34
48 46 44
35 24 20
74 58 54
54 52 44
78 47 44
53 39 32
52 49 47
36 40 32
43 41 34
46 49 43
72 56 54
38 34 30
51 52 49
60 60 56
54 39 37
42 45 39
41 42 38
61 40 40
63 51 48
54 51 47
69 63 57
52 49 44
48 44 42
47 34 30
61 60 56
42 41 35
47 50 44
40 41 34
52 48 45
57 46 43
54 55 50
57 50 49
54 50 40
54 48 43
61 49 46
47 38 31
40 38 31
43 46 40
45 40 39
108 104 103
68 68 64
68 57 55
53 52 49
53 46 45
68 39 37
46 40 39
79 40 30
66 44 42
44 36 33
46 42 39
70 43 41
52 46 42
56 45 40
36 33 29
55 55 50
41 37 32
65 62 55
45 32 28
53 53 50
61 46 43
54 33 32
53 31 29
39 37 31
67 53 49
59 60 55
63 43 39
58 71 45
55 42 38
44 42 41
48 48 43
61 41 39
61 45 44
55 55 49
87 66 61
41 36 32
58 47 45
55 41 36
65 59 54
55 41 40
59 46 43
55 52 47
47 35 33
51 53 46
59 47 39
49 39 35
45 41 39
70 63 59
71 55 49
55 38 34
76 51 49
56 44 40
55 52 48
50 50 47
43 38 36
50 45 43
49 46 41
56 43 41
77 62 60
65 52 48
64 43 36
47 34 27
93 91 88
53 52 40
64 52 48
67 52 43
49 39 32
49 41 41
54 47 42
52 45 40
44 34 31
67 47 46
51 41 38
52 48 47
49 30 26
55 46 44
33 31 28
44 41 39
56 49 48
61 44 44
71 49 46
59 39 35
58 33 30
59 48 41
42 28 27
51 33 33
40 34 33
62 61 48
72 66 64
55 42 38
54 60 44
42 31 28
46 39 39
57 42 40
41 39 34
47 28 26
84 55 53
48 43 40
55 41 40
66 36 36
55 41 37
55 60 45
50 39 33
50 30 28
36 24 19
61 53 51
49 38 35
51 31 25
49 39 28
26 24 19
74 43 42
42 32 31
56 32 30
37 22 15
58 40 33
46 31 31
63 33 31
37 31 31
44 31 30
55 42 42
44 36 32
60 55 50
34 30 25
47 33 33
52 44 40
70 57 56
42 28 25
62 46 46
34 32 22
48 45 40
70 54 52
47 37 35
31 16 16
41 25 18
39 35 30
51 47 33
43 36 35
51 49 49
46 31 28
48 31 30
37 34 26
32 32 24
22 16 13
62 38 38
47 47 44
41 32 27
119 115 115
42 26 25
57 51 48
61 60 53
40 28 25
69 47 46
85 36 35
90 91 84
38 22 18
50 40 40
77 67 66
39 22 21
50 39 32
45 45 39
45 27 22
36 25 25
42 39 38
43 35 33
59 32 30
42 30 26
86 33 26
29 30 22
26 27 25
58 25 25
43 12 11
32 8 8
56 10 8
68 17 17
41 10 10
64 14 13
51 7 7
73 16 16
64 16 16
55 14 13
36 9 7
52 14 14
53 12 12
49 11 11
54 14 13
53 15 14
47 12 11
76 20 20
53 15 14
61 12 12
75 20 19
77 21 19
55 13 12
57 14 14
77 19 18
62 17 16
57 16 15
87 21 21
70 18 18
76 20 20
78 20 19
90 23 23
69 18 17
97 26 26
71 16 15
68 19 18
85 23 22
78 20 20
86 23 23
69 17 17
74 19 19
61 16 15
82 22 21
88 20 20
55 15 15
74 19 18
108 29 29
106 27 26
74 19 19
92 25 24
98 26 26
99 27 27
104 28 27
100 27 27
69 18 17
74 19 19
85 23 23
73 19 19
74 19 19
86 24 23
65 17 16
73 20 19
77 21 21
97 27 26
78 21 20
86 23 23
69 18 18
100 27 27
76 21 19
86 22 22
74 19 18
91 24 24
85 23 23
100 22 22
66 18 17
76 20 19
88 24 23
77 21 21
56 15 15
74 19 19
67 18 17
66 17 17
95 26 25
78 18 18
69 19 18
55 14 14
65 18 17
76 21 20
59 17 16
67 20 18
86 23 23
60 16 16
74 21 20
94 24 24
75 20 20
42 12 11
86 23 22
81 23 22
67 17 17
77 21 21
71 20 19
78 19 18
58 17 16
64 15 15
77 21 21
63 16 15
71 19 19
80 22 22
59 16 16
57 14 14
45 13 11
85 23 23
77 20 20
73 17 17
59 16 15
76 21 20
69 18 17
64 18 17
0 0 0
0 0 0
0 0 0
0 0 0
0 0 0
0 0 0
0 0 0
0 0 0
0 0 0
0 0 0
0 0 0
0 0 0
0 0 0
0 0 0
0 0 0
0 0 0
0 0 0
0 0 0
0 0 0
0 0 0
0 0 0
0 0 0
0 0 0
0 0 0
0 0 0
0 0 0
0 0 0
20 40 23
21 40 22
25 47 26
36 72 40
32 65 35
28 47 26
23 44 24
28 50 29
28 52 30
26 47 26
27 48 27
31 57 33
32 60 34
22 42 23
27 49 27
35 67 38
30 53 30
37 54 31
28 49 27
28 56 31
32 60 34
25 47 26
26 50 27
20 35 20
31 57 32
32 58 33
34 59 34
33 60 34
25 49 27
25 48 27
34 67 38
27 51 28
29 55 31
27 53 29
29 50 29
32 58 33
26 45 25
33 65 36
32 63 36
31 57 32
39 77 43
37 67 39
31 59 33
28 51 27
34 64 35
29 54 31
32 63 34
32 60 34
31 58 32
32 62 35
28 50 28
41 77 44
32 55 30
39 73 41
28 57 31
32 62 35
33 53 29
34 64 36
37 59 33
33 64 36
33 57 32
34 62 35
25 51 28
39 71 41
40 76 43
40 75 43
37 70 39
41 77 42
37 83 40
40 81 43
32 65 35
30 57 31
28 56 31
38 74 42
32 62 34
34 68 37
25 46 26
34 59 33
36 65 37
32 62 35
31 61 34
39 75 42
32 64 36
41 80 45
33 63 36
36 66 37
34 67 36
33 62 35
28 45 25
35 68 36
35 68 38
33 62 34
36 66 37
30 50 27
32 63 35
25 48 26
36 73 37
31 60 33
28 53 30
21 36 20
25 44 24
29 52 29
34 49 27
33 60 35
26 44 25
24 41 22
26 46 26
30 56 32
21 37 19
21 38 21
18 35 18
17 33 18
17 28 15
22 35 18
19 36 19
13 19 9
20 41 21
31 47 30
32 32 29
22 22 18
36 34 27
28 24 18
12 21 12
56 47 44
46 41 40
40 37 34
26 26 20
36 30 26
55 52 48
42 26 23
46 51 42
40 45 39
31 33 23
41 41 34
36 36 28
28 41 28
47 51 47
48 36 33
44 33 31
63 55 48
31 41 30
71 45 42
56 33 30
39 37 31
46 52 42
65 56 52
45 43 37
41 38 34
55 47 42
48 42 41
39 42 35
34 36 31
53 45 41
62 44 40
44 52 44
47 46 43
63 55 48
84 89 82
50 50 45
41 42 36
42 43 40
48 48 34
57 59 44
31 37 30
49 45 40
27 28 23
70 59 53
45 43 38
33 33 23
57 55 51
51 48 43
35 38 30
55 54 47
69 65 59
53 53 46
43 45 37
51 57 49
60 49 41
60 51 45
37 38 33
46 43 34
52 42 33
32 33 29
42 46 37
52 53 47
67 58 54
57 57 52
44 29 25
42 47 40
46 39 34
54 65 51
67 67 62
42 43 38
30 36 30
57 54 50
37 45 35
49 48 45
88 47 41
60 67 56
41 36 29
41 36 35
60 49 43
43 46 41
63 55 50
61 45 39
48 47 38
65 51 43
56 57 46
71 70 64
65 51 44
32 35 25
75 63 61
63 59 54
52 50 47
49 47 45
53 53 48
46 47 40
44 47 36
72 46 43
62 65 57
53 51 41
47 49 46
55 47 41
63 48 45
57 48 43
52 46 38
64 54 49
42 75 44
66 52 46
71 61 59
57 51 48
61 63 54
41 46 39
65 53 47
60 54 47
47 49 44
56 47 44
81 44 41
60 62 57
38 40 29
37 29 25
53 57 42
56 74 54
47 48 42
52 51 47
46 47 38
50 52 47
36 40 34
52 47 43
60 62 55
68 60 57
61 54 51
66 42 39
79 62 61
67 48 39
52 45 39
53 44 42
45 38 33
38 42 33
89 59 50
50 48 37
63 58 55
63 59 48
60 60 49
59 59 58
51 39 30
60 53 46
55 59 49
59 51 48
57 40 34
62 62 54
61 59 53
54 54 51
45 46 37
69 56 50
55 41 35
97 46 45
54 52 46
66 67 54
49 39 38
66 54 49
57 40 37
49 41 38
70 46 43
53 60 51
52 45 43
62 53 49
50 54 47
77 54 52
49 48 42
54 45 41
58 66 56
57 57 48
48 49 39
36 42 35
64 56 55
57 51 48
59 51 50
66 51 45
52 48 41
52 47 45
51 44 40
47 50 45
58 39 34
53 46 41
52 48 36
68 38 38
59 53 50
43 39 38
70 45 42
63 48 43
46 44 41
48 46 41
59 50 47
55 60 47
60 54 51
41 32 26
63 54 54
42 44 33
56 51 47
52 41 41
53 53 46
44 37 33
53 43 39
49 42 38
64 52 49
48 43 39
83 54 51
63 58 56
68 59 52
50 46 44
57 51 40
58 54 52
74 65 65
54 43 39
47 40 35
48 28 25
54 46 40
41 24 23
56 33 30
51 41 40
54 49 44
35 36 30
43 25 19
54 44 39
56 43 42
67 44 39
55 39 33
63 51 46
54 39 38
39 26 22
36 29 20
63 47 45
82 76 75
61 47 44
45 41 35
47 38 35
67 62 58
62 48 44
54 48 44
59 55 51
84 47 45
120 58 54
44 34 32
53 43 40
39 37 35
65 52 50
60 55 51
49 38 36
68 56 55
69 58 57
59 46 42
58 46 44
61 37 37
94 89 88
60 46 41
43 24 19
83 82 75
41 32 30
57 42 41
49 40 34
70 62 61
54 43 40
50 46 39
39 25 25
60 51 50
63 59 55
66 59 54
47 39 32
44 28 28
255 87 86
186 59 59
53 40 40
45 33 33
44 26 23
45 31 31
53 36 34
40 39 29
49 30 26
48 37 35
48 44 38
45 40 29
88 67 67
38 29 24
52 36 33
58 43 43
44 29 27
77 63 61
46 35 32
56 33 33
68 37 37
49 41 35
58 44 42
55 28 27
50 46 44
65 50 43
50 42 42
67 50 47
60 42 41
46 42 42
46 44 36
45 39 35
51 50 45
62 55 54
57 41 41
65 56 55
45 36 32
35 18 18
51 47 43
28 14 14
40 38 34
46 33 33
46 27 26
57 39 37
37 16 11
61 56 39
49 38 35
42 34 26
38 28 26
36 30 24
49 38 35
52 39 39
68 31 31
44 30 30
33 16 16
42 20 14
40 46 36
44 35 35
40 32 25
53 38 35
56 34 34
35 36 30
40 35 31
45 32 27
53 33 29
44 15 14
40 8 8
42 12 9
34 10 8
55 14 13
62 14 13
51 13 13
61 16 14
52 13 13
116 31 31
54 14 14
63 15 13
59 14 14
61 14 13
48 12 11
68 18 17
84 24 21
87 18 17
75 21 20
57 15 14
70 21 17
77 18 18
65 16 14
55 14 13
70 17 17
57 16 15
75 20 20
69 19 18
88 21 21
78 20 19
80 22 21
78 18 18
86 23 23
59 15 14
64 16 16
56 16 15
98 24 23
83 22 21
67 17 16
84 23 22
119 24 24
80 22 22
71 20 19
70 16 16
90 24 24
95 23 22
90 24 23
84 22 22
90 24 24
91 25 24
87 23 22
90 20 19
91 24 24
59 15 15
76 20 19
75 18 17
76 20 19
80 21 21
73 20 19
87 22 22
69 19 18
78 24 21
86 24 23
52 16 13
79 20 20
64 17 16
87 24 23
75 20 20
97 22 22
80 21 21
58 16 15
98 23 22
84 21 21
60 17 16
94 31 25
89 25 24
69 19 19
94 21 20
71 20 18
80 21 21
77 21 21
47 13 13
67 18 18
65 17 17
76 20 20
76 20 19
78 21 19
65 16 16
73 19 19
75 20 20
57 15 15
70 20 19
60 16 15
50 12 11
71 18 18
65 17 17
76 20 20
63 18 17
47 13 12
59 15 15
51 13 13
53 14 13
68 18 18
76 19 19
60 17 16
67 19 18
73 20 19
74 18 18
57 16 15
58 16 15
55 15 15
55 15 13
73 19 19
53 14 13
66 18 18
69 19 18
69 19 19
31 8 8
0 0 0
0 0 0
0 0 0
0 0 0
0 0 0
0 0 0
0 0 0
0 0 0
0 0 0
0 0 0
0 0 0
0 0 0
0 0 0
0 0 0
0 0 0
0 0 0
0 0 0
0 0 0
0 0 0
0 0 0
0 0 0
0 0 0
0 0 0
0 0 0
0 0 0
0 0 0
0 0 0
12 19 11
30 58 33
28 53 30
29 53 31
32 50 25
43 48 27
27 52 29
21 41 22
31 60 34
27 49 28
31 60 34
27 50 25
35 68 39
29 47 27
21 39 22
25 47 27
23 45 26
26 47 27
31 55 31
34 63 36
29 60 31
26 49 28
35 67 38
25 47 26
27 48 27
33 61 35
34 64 37
31 55 30
29 58 32
30 57 32
37 67 38
29 56 32
28 55 31
31 59 33
36 67 38
27 53 27
34 64 36
38 61 34
24 44 25
31 54 31
30 62 33
32 57 32
34 72 38
33 63 35
28 49 28
34 62 35
27 50 28
29 55 32
26 48 28
41 105 45
31 58 32
35 66 37
33 60 34
37 67 38
32 62 34
38 71 40
37 66 38
32 59 34
37 73 41
36 61 34
37 71 40
32 59 33
32 63 35
30 56 31
23 39 22
35 66 36
39 76 43
43 74 42
31 60 34
28 56 32
38 71 40
33 60 34
28 53 30
39 75 42
33 61 35
39 72 41
35 58 32
31 58 30
39 79 43
34 66 37
38 73 40
37 70 40
33 66 36
27 59 30
30 58 32
47 52 29
34 65 37
28 53 30
35 64 36
30 53 30
31 62 34
30 61 32
28 52 29
25 46 26
34 61 34
29 55 30
31 56 31
31 50 28
30 56 31
30 54 30
28 52 27
27 44 24
26 48 26
28 48 26
30 54 30
24 47 26
20 42 21
22 57 25
24 45 25
21 40 21
21 37 19
25 41 22
16 33 17
34 62 35
20 40 21
20 33 15
17 33 18
30 43 28
35 34 31
40 42 38
36 28 17
11 14 7
34 39 24
36 27 24
29 32 24
41 39 31
37 35 27
53 47 44
29 31 24
55 52 45
41 44 40
43 42 34
32 31 26
33 41 32
20 25 14
45 39 34
46 47 39
34 34 30
40 31 28
28 28 19
56 53 46
62 38 33
37 26 18
53 57 50
32 30 23
57 47 41
31 30 25
46 40 36
41 40 27
55 42 36
36 40 36
56 57 45
45 51 43
49 45 40
46 40 35
59 52 44
44 39 36
48 50 46
47 55 45
65 64 58
25 38 26
55 56 51
53 55 48
59 43 36
51 54 45
43 39 26
53 48 41
47 49 44
63 60 53
42 39 36
41 38 34
45 48 39
65 66 60
51 46 40
49 53 42
31 34 24
50 56 49
44 47 38
46 51 42
41 40 35
47 52 44
44 48 39
53 52 44
52 42 34
63 48 41
48 45 35
51 49 43
55 55 51
36 42 35
38 50 38
41 44 38
50 55 47
49 45 39
58 44 42
77 55 52
53 51 46
64 58 50
55 52 47
53 56 49
58 55 49
39 47 37
41 45 36
55 57 51
62 64 55
51 59 41
46 43 38
47 44 41
48 51 45
53 54 49
52 51 44
46 48 40
43 40 35
40 41 33
42 42 37
42 53 43
50 54 46
53 55 47
60 52 50
62 50 41
65 63 56
46 65 48
74 45 43
58 63 58
63 50 46
44 47 43
57 53 49
72 70 66
57 55 52
44 44 39
48 56 44
67 53 47
62 58 54
49 46 39
45 46 44
56 51 48
54 46 44
79 65 59
70 45 44
61 54 48
56 51 47
63 58 52
54 57 49
58 53 48
43 39 36
52 52 47
59 51 48
59 56 52
67 43 36
64 58 56
66 53 52
70 66 63
52 43 42
62 63 59
52 39 34
45 51 45
75 68 66
65 55 51
47 28 23
39 41 34
43 42 39
58 65 54
47 45 43
51 50 47
50 50 48
47 47 43
55 50 46
44 47 40
77 72 68
47 37 35
43 44 40
55 41 36
58 57 55
54 47 46
59 66 55
50 45 41
65 59 50
42 41 35
53 53 49
60 54 52
51 46 45
57 52 44
66 57 56
72 63 60
67 53 46
61 59 56
42 39 34
66 48 43
58 51 47
68 62 59
34 32 29
53 49 41
55 49 45
65 55 54
57 60 55
56 49 45
66 60 54
55 61 48
82 49 48
58 69 56
73 67 65
47 29 25
51 50 45
57 52 45
76 72 65
57 63 49
61 54 49
79 56 50
65 63 57
62 67 56
60 50 43
40 44 37
46 46 42
67 66 64
69 63 53
57 44 40
55 52 45
52 42 41
63 50 47
57 48 47
44 45 38
51 44 42
57 47 46
91 88 85
45 33 32
53 41 35
58 45 43
67 54 52
52 33 27
62 58 51
47 47 40
74 59 55
46 36 27
70 56 56
61 56 52
47 45 43
55 41 37
62 49 40
57 51 47
111 66 65
44 46 38
60 53 49
59 60 52
45 35 29
49 38 34
65 49 47
54 55 44
72 63 60
59 57 53
45 40 32
56 48 46
52 53 44
52 49 47
56 31 23
58 56 52
62 56 53
72 66 65
67 46 45
60 40 40
41 35 30
45 47 41
53 41 39
73 57 52
46 37 37
51 45 43
46 41 34
45 35 33
67 58 56
58 50 48
44 36 32
65 48 47
63 46 46
56 42 41
50 36 31
40 35 30
53 55 47
71 51 46
51 46 42
47 44 39
41 30 29
62 61 57
65 56 51
55 39 37
73 67 65
52 45 43
63 39 37
79 54 47
79 67 65
62 57 53
37 17 16
63 56 51
51 45 45
49 36 31
59 50 44
71 49 48
42 44 40
39 18 18
45 48 32
41 26 25
58 49 46
46 38 31
60 51 47
32 17 15
36 30 25
57 33 24
43 29 28
39 32 30
37 28 24
57 45 43
88 71 70
66 45 40
62 43 42
37 28 25
44 30 30
56 45 42
44 29 28
58 42 38
57 49 47
58 44 39
59 41 39
74 42 41
30 17 16
48 24 24
99 51 46
60 48 48
81 55 54
54 46 42
84 38 30
34 21 21
54 52 50
38 42 32
68 39 38
76 58 58
49 44 39
58 52 48
42 26 24
52 31 20
44 40 39
58 38 38
51 21 21
48 19 15
41 31 31
40 36 33
33 30 26
71 32 28
39 25 24
53 38 37
48 28 27
51 46 44
37 34 28
50 24 24
44 35 33
53 44 44
46 21 15
48 36 36
37 8 8
26 19 11
61 14 13
47 11 11
71 10 9
35 9 8
67 16 15
44 10 9
47 13 12
36 9 8
63 16 15
40 9 9
56 13 13
55 14 14
49 12 10
77 20 20
66 16 16
61 15 14
69 15 14
62 14 13
73 18 17
60 15 15
70 19 18
70 19 18
67 16 15
65 18 17
75 19 19
79 20 19
71 18 17
62 17 16
74 19 19
73 19 19
67 21 17
75 19 19
91 24 24
75 20 20
72 19 19
74 21 20
68 17 16
90 24 23
91 25 24
71 18 18
71 19 18
87 23 23
96 26 25
74 20 19
116 26 25
79 23 21
97 24 23
77 21 21
86 22 22
101 27 27
88 24 24
71 19 19
96 26 25
98 26 26
96 22 21
62 16 16
88 23 23
94 25 25
104 22 22
96 25 24
78 20 19
75 21 20
89 23 23
70 18 17
68 19 18
82 21 20
71 19 18
68 19 18
77 20 20
75 19 19
77 20 20
75 21 19
83 22 22
81 22 22
103 27 26
81 21 21
62 17 17
80 21 21
82 22 21
76 21 20
89 21 20
87 17 17
59 16 15
59 16 15
76 19 19
77 20 20
67 19 18
85 22 21
62 16 16
68 18 17
73 21 20
58 16 15
81 16 16
57 15 14
37 10 9
91 24 24
52 14 13
48 13 13
74 19 19
54 15 15
54 14 14
57 16 16
63 15 15
69 17 17
64 18 17
51 13 13
59 16 15
65 18 17
49 14 13
85 22 22
64 18 17
57 15 15
48 13 12
65 17 17
66 18 18
60 16 16
63 17 17
0 0 0
0 0 0
0 0 0
0 0 0
0 0 0
0 0 0
0 0 0
0 0 0
0 0 0
0 0 0
0 0 0
0 0 0
0 0 0
0 0 0
0 0 0
0 0 0
0 0 0
0 0 0
0 0 0
0 0 0
0 0 0
0 0 0
0 0 0
0 0 0
0 0 0
0 0 0
0 0 0
15 28 16
24 41 24
21 37 21
22 40 22
23 45 25
27 54 28
28 49 28
22 41 23
28 54 30
33 64 35
27 47 27
28 48 28
27 51 29
30 58 33
28 50 28
58 112 64
25 47 26
28 54 30
33 60 34
27 47 26
23 40 23
29 54 31
31 49 28
33 65 37
32 62 35
31 60 34
34 66 37
38 70 40
29 53 30
36 66 37
31 59 33
30 56 31
35 65 36
33 60 34
28 50 27
29 56 32
31 59 34
29 57 31
36 70 40
31 59 32
30 56 32
31 59 33
33 59 33
34 65 37
31 57 32
26 51 29
37 74 41
38 72 41
29 56 31
54 71 39
45 84 48
34 66 38
37 72 40
40 77 43
34 63 35
34 67 38
34 65 36
37 65 38
30 56 31
24 48 26
40 69 39
25 54 27
30 57 32
42 76 43
30 59 33
36 66 37
36 70 39
37 74 40
33 55 31
35 69 38
31 61 34
36 67 38
31 63 34
36 69 39
35 65 36
38 89 42
38 69 38
41 80 45
36 67 38
34 63 36
35 67 38
33 60 34
28 53 30
31 59 33
31 63 34
37 69 39
28 53 30
25 44 25
33 63 35
28 50 28
36 70 39
29 53 29
32 61 34
35 55 31
33 58 32
36 56 31
22 43 22
23 42 23
31 59 32
29 53 29
33 62 34
32 60 33
26 49 28
25 49 27
29 48 27
26 53 28
25 45 25
28 52 28
26 44 24
21 41 21
19 29 15
26 52 26
15 28 15
17 32 16
15 30 16
18 24 12
19 32 18
35 36 29
39 39 36
33 36 29
43 43 39
42 48 38
52 48 41
43 39 35
35 38 31
51 48 45
37 38 36
40 46 38
35 32 30
29 36 27
59 48 46
49 49 43
44 51 44
45 44 41
29 44 30
39 46 34
48 44 41
33 39 27
39 59 40
40 48 40
31 36 31
32 36 27
54 35 30
46 39 30
49 40 38
51 49 44
44 44 41
47 50 46
53 46 42
53 58 50
27 39 25
44 47 44
48 49 40
41 41 31
35 37 31
53 54 47
35 40 32
48 38 31
61 50 46
38 39 32
57 50 44
52 40 36
55 52 49
47 52 42
55 54 49
28 29 23
59 60 51
61 62 54
40 33 29
53 41 31
33 32 27
54 52 51
35 43 34
40 38 33
53 47 41
32 37 31
54 55 42
46 52 44
53 57 52
43 45 39
69 70 64
55 54 49
44 46 40
47 47 42
61 51 45
47 46 42
60 50 48
59 61 57
60 58 50
65 64 60
46 46 41
54 69 51
56 60 56
53 55 50
66 58 55
50 51 44
44 54 39
38 41 36
56 59 52
53 49 44
42 51 42
45 37 33
49 40 38
57 47 46
45 46 39
53 50 45
90 57 54
72 69 64
63 51 48
39 30 25
64 59 57
57 63 55
49 54 39
66 49 47
58 37 29
76 80 72
54 56 51
62 48 45
62 60 47
62 58 56
45 46 42
51 56 43
52 54 47
47 50 42
53 53 47
60 47 44
67 58 57
38 32 28
79 93 71
44 44 40
44 42 38
62 54 49
59 57 51
59 47 44
83 64 58
64 63 59
55 40 37
52 43 36
64 61 56
64 59 55
60 46 43
45 43 37
59 52 46
65 49 44
43 44 42
44 53 41
47 47 42
47 57 43
56 51 43
66 56 54
54 45 42
70 63 59
52 57 48
56 57 51
50 36 30
55 54 49
66 62 57
68 64 62
45 46 38
53 56 51
57 58 55
61 54 52
54 58 50
54 52 48
40 37 31
52 56 46
49 53 46
43 38 36
75 65 61
76 68 65
67 64 59
55 61 46
69 44 37
67 65 59
65 56 55
54 55 51
67 58 54
91 62 55
53 49 47
70 65 64
76 75 73
79 63 52
53 49 43
67 49 47
69 63 59
61 51 49
57 49 47
67 64 59
74 69 64
49 46 42
55 52 49
51 45 41
51 45 41
72 77 68
70 41 38
51 44 40
55 53 49
47 61 40
56 58 54
54 50 47
56 51 45
57 53 48
67 51 45
63 59 56
55 52 47
53 47 47
64 54 52
68 64 56
94 86 83
63 63 54
56 43 42
70 66 58
42 37 34
47 34 29
52 39 36
51 40 35
69 57 51
68 55 54
62 54 49
46 36 35
60 53 50
61 49 46
54 48 45
58 38 38
74 63 59
70 44 43
61 49 46
65 60 50
65 64 53
64 52 51
58 41 36
63 55 53
46 42 37
67 59 53
54 38 36
77 58 55
69 66 61
58 46 44
61 54 52
53 44 44
72 43 40
58 51 50
65 61 58
54 42 39
63 50 44
71 63 61
47 40 38
57 49 47
37 31 27
67 50 49
62 53 49
54 49 48
55 46 41
46 40 35
110 47 43
45 37 33
69 49 47
60 45 45
67 50 47
50 35 32
53 40 36
74 61 61
63 51 47
66 76 54
53 47 46
59 59 50
55 43 38
76 66 65
53 46 44
83 49 49
51 54 45
51 47 40
53 48 45
61 52 49
59 47 42
50 44 39
45 35 23
57 46 41
51 42 38
33 24 22
54 44 40
51 45 40
64 48 46
81 76 75
80 43 43
43 43 39
60 44 41
63 51 51
66 46 44
47 34 33
67 62 59
56 51 47
43 41 35
44 28 22
45 37 36
55 52 45
66 43 41
49 38 33
72 38 36
63 61 56
114 109 108
52 44 39
51 33 26
81 58 54
54 46 42
51 27 26
58 85 54
61 53 45
55 44 43
45 43 37
52 43 38
46 18 18
49 41 40
60 47 45
80 59 55
41 36 33
41 33 29
55 47 44
54 42 40
46 65 40
62 49 45
40 37 34
114 102 101
39 31 20
52 38 33
62 45 44
64 55 52
40 42 38
55 34 34
59 47 44
49 35 34
55 38 38
57 67 49
36 33 29
49 42 42
58 41 39
80 46 46
38 19 15
73 56 54
61 48 47
37 28 24
73 34 31
51 38 35
53 34 28
37 37 33
65 39 32
29 19 16
65 58 54
59 54 54
44 38 38
40 28 25
38 14 14
23 14 9
46 38 38
45 34 31
23 6 3
49 11 11
43 9 9
46 11 10
53 15 13
60 15 15
111 30 30
77 21 21
69 19 17
53 13 13
58 16 15
43 11 11
147 18 17
54 14 13
80 20 19
56 15 14
53 14 13
71 16 16
81 21 21
121 32 31
62 17 15
67 16 16
79 18 18
73 19 19
74 20 19
51 11 11
72 19 19
67 14 14
72 18 18
71 19 17
177 25 24
82 22 22
73 18 17
77 20 19
118 27 26
99 27 27
72 20 19
84 23 22
82 19 19
84 22 21
69 19 19
69 18 18
98 25 25
99 27 26
75 20 19
72 19 18
64 17 17
75 19 19
97 26 26
77 20 20
87 23 22
88 23 23
83 22 21
87 22 21
92 25 24
87 23 23
90 22 21
117 23 22
89 23 23
85 23 23
82 22 22
87 23 23
146 40 40
78 21 20
87 21 21
76 20 20
51 14 13
83 21 21
81 22 21
96 24 24
75 20 19
66 19 18
77 21 20
80 22 21
71 19 18
93 24 24
58 16 16
73 18 18
78 21 20
88 24 24
101 23 22
62 17 15
71 20 19
94 24 24
65 17 17
77 19 18
64 17 17
68 19 18
95 26 26
56 15 14
77 21 21
62 16 15
66 19 18
57 14 14
61 17 17
59 13 13
69 18 18
53 15 14
46 12 12
68 17 17
57 15 14
64 17 16
78 22 21
65 17 17
56 16 15
57 15 14
49 12 12
69 17 16
73 20 19
70 18 18
75 20 20
50 13 13
48 13 12
73 18 17
75 20 20
61 17 16
68 18 17
32 9 9
0 0 0
0 0 0
0 0 0
0 0 0
0 0 0
0 0 0
0 0 0
0 0 0
0 0 0
0 0 0
0 0 0
0 0 0
0 0 0
0 0 0
0 0 0
0 0 0
0 0 0
0 0 0
0 0 0
0 0 0
0 0 0
0 0 0
0 0 0
0 0 0
0 0 0
0 0 0
0 0 0
14 22 13
21 36 20
29 59 32
33 60 34
25 52 27
27 52 29
29 54 30
30 57 32
30 56 32
24 45 24
27 52 30
28 53 30
31 60 33
37 69 39
25 49 28
23 39 22
33 61 34
29 54 31
24 46 26
26 46 26
38 74 43
35 69 39
25 44 24
28 53 30
29 57 31
35 66 37
29 56 32
25 48 27
30 55 32
30 60 31
33 59 34
35 67 38
31 61 34
37 60 33
31 60 34
33 57 32
34 63 36
38 70 40
28 52 29
38 71 41
34 64 37
35 65 37
31 53 30
35 66 38
35 65 37
36 68 37
29 55 31
31 57 32
25 50 27
34 59 32
38 72 40
34 65 36
28 53 30
32 61 34
31 62 34
31 58 33
37 70 39
29 53 30
33 63 35
38 65 37
32 59 33
37 69 39
33 61 35
31 63 32
37 70 39
36 67 38
33 62 35
44 82 47
38 72 41
43 77 44
26 50 28
32 61 35
31 61 35
31 59 33
38 69 39
35 66 37
36 69 39
30 58 32
28 54 30
40 74 42
40 79 43
33 69 37
32 59 33
28 54 30
32 66 34
33 66 36
28 51 29
30 54 29
35 61 35
26 50 27
33 61 34
33 64 36
34 60 33
39 73 41
41 77 44
33 57 31
38 68 38
32 62 35
37 105 41
32 60 33
25 48 27
30 57 32
22 29 15
29 55 30
24 46 25
35 62 35
27 47 26
23 45 23
25 46 24
33 56 29
23 51 22
17 28 14
19 36 20
23 29 14
22 35 19
16 20 10
21 49 21
61 69 62
35 35 28
56 38 32
14 20 13
19 27 19
74 52 49
50 51 41
31 26 23
36 40 36
49 53 48
57 58 53
41 45 33
43 48 40
54 51 49
50 53 51
36 35 29
50 47 40
50 46 43
51 41 38
50 42 30
29 46 30
35 37 32
43 46 36
53 54 49
33 38 29
36 38 31
46 42 37
62 61 57
47 41 36
53 51 48
46 28 21
45 55 43
42 46 35
45 43 33
44 57 37
53 63 52
24 23 20
53 51 45
44 43 40
50 48 45
35 44 33
29 35 24
43 44 40
65 53 47
36 45 34
55 55 44
52 55 44
67 37 31
45 43 39
57 51 45
42 50 42
52 44 37
42 58 41
50 61 49
44 42 37
53 40 39
30 39 24
45 49 42
60 46 43
77 34 30
45 45 38
77 58 55
52 53 46
71 57 50
48 45 44
23 30 21
76 52 45
48 53 43
57 56 49
59 48 43
58 41 36
58 51 45
37 46 37
40 46 36
61 69 60
69 64 61
36 41 35
39 37 33
53 51 49
41 40 38
59 56 46
43 45 38
56 51 46
62 58 55
61 60 55
57 61 54
63 64 56
49 80 52
44 48 44
88 75 73
68 63 53
44 53 43
63 67 50
57 69 55
62 57 54
67 56 54
60 57 52
54 58 53
53 50 41
49 43 40
57 58 55
47 38 31
50 49 44
58 52 50
61 70 59
54 55 50
80 77 67
52 45 41
52 52 44
60 38 37
69 58 49
41 43 38
56 47 43
61 57 54
62 56 52
43 42 37
66 42 40
70 52 45
56 68 53
82 56 46
97 94 92
61 55 54
59 51 47
73 77 70
51 46 43
54 55 52
76 71 60
53 57 47
51 52 48
57 61 56
65 52 48
60 61 56
56 60 54
64 63 59
56 53 47
54 52 48
72 74 68
65 64 60
50 37 34
41 30 26
45 71 43
62 51 48
49 45 40
36 36 32
64 53 51
62 66 56
44 45 37
70 63 57
56 57 52
53 48 45
64 66 58
69 62 58
53 48 45
60 50 45
66 66 60
102 49 44
69 62 55
42 36 34
71 42 36
62 61 58
57 55 51
53 49 45
57 51 46
59 51 49
62 54 52
48 41 40
56 51 47
66 65 56
46 46 43
69 67 67
40 39 35
44 41 39
51 35 33
57 56 53
41 40 34
62 59 55
68 65 61
59 47 46
73 65 59
64 58 53
76 70 66
61 48 45
55 50 45
80 66 64
78 75 56
113 106 104
63 68 62
55 53 46
69 54 52
61 46 42
72 65 64
60 53 51
63 51 47
78 57 56
50 51 46
67 60 59
62 51 45
47 40 37
51 42 35
78 61 59
53 50 48
47 41 36
61 58 56
56 54 45
68 62 56
76 51 50
53 56 47
77 72 71
61 55 51
58 34 32
73 47 41
57 42 36
67 64 58
61 52 51
57 48 47
65 58 55
48 34 28
46 37 30
66 61 56
51 41 39
73 54 51
59 59 50
58 50 47
81 77 73
48 45 41
54 39 36
63 48 41
53 45 43
51 40 39
97 67 58
55 60 48
48 41 37
52 43 39
84 69 62
61 45 44
77 69 66
62 52 51
58 48 47
66 62 60
63 47 47
57 51 50
95 89 87
69 60 58
44 36 33
53 43 40
59 36 35
48 45 35
51 51 47
78 70 68
70 60 58
57 44 42
93 52 47
59 53 52
46 45 36
69 63 60
54 51 45
73 62 58
53 42 40
98 78 73
62 52 50
51 47 42
51 49 45
60 48 45
64 67 59
83 58 58
67 42 40
55 53 51
38 27 26
78 76 76
50 43 37
55 34 32
69 68 55
67 53 47
60 66 56
45 34 32
48 42 38
62 52 45
75 66 58
56 54 52
103 95 95
43 36 33
49 30 26
45 40 36
51 38 38
56 38 37
53 45 41
52 24 20
48 43 36
44 38 32
62 42 41
45 36 35
79 55 50
45 42 36
51 38 38
60 38 36
50 41 37
55 35 33
52 31 25
49 39 35
43 27 27
57 54 49
52 39 38
47 27 25
66 46 43
64 50 49
44 40 38
57 46 42
40 29 26
54 48 44
38 30 30
52 53 46
61 43 33
72 65 65
34 25 24
43 35 35
53 44 44
75 65 64
27 15 15
94 72 72
50 39 37
115 110 110
50 43 42
52 51 49
49 38 38
29 18 12
33 29 27
62 48 47
73 75 73
35 35 28
46 33 31
47 28 23
32 31 26
43 30 30
47 41 39
33 31 23
44 33 33
48 33 33
47 36 35
54 19 19
49 11 10
59 15 15
60 15 14
47 11 11
34 6 5
47 11 11
40 8 8
48 9 8
79 21 21
68 17 16
52 14 13
74 19 17
75 19 19
67 18 18
52 13 13
54 13 13
56 13 12
77 29 20
62 16 16
62 17 16
94 18 17
90 24 24
97 26 25
69 19 18
61 15 14
68 18 17
86 23 22
71 19 18
86 22 22
88 23 23
69 19 18
147 40 40
74 19 19
77 21 20
131 36 36
84 18 17
86 23 23
85 21 21
96 25 25
89 24 24
74 20 19
75 20 20
93 24 23
82 22 21
89 24 23
88 25 24
81 21 21
74 19 18
81 22 21
86 23 23
70 19 18
107 27 27
74 19 19
97 26 26
69 19 18
107 29 26
66 17 17
100 26 26
75 20 20
80 20 19
70 17 16
72 18 18
81 22 21
79 21 21
73 20 19
74 22 19
86 23 23
53 16 13
106 29 29
81 22 21
67 17 16
82 22 21
73 18 17
80 20 20
87 24 23
95 24 24
77 22 20
81 22 22
67 18 18
77 21 20
81 26 21
81 22 22
61 17 15
80 22 21
77 20 20
68 18 18
58 15 14
62 15 15
75 20 20
84 22 22
37 10 10
71 19 19
61 17 15
65 18 17
70 19 18
76 21 20
63 18 17
65 16 15
81 23 22
89 24 24
69 19 18
39 11 10
69 20 19
80 22 21
53 15 14
73 20 19
58 16 15
51 15 14
67 18 18
46 12 11
65 18 18
52 14 14
59 16 16
68 16 16
67 19 18
65 17 17
23 6 6
0 0 0
0 0 0
0 0 0
0 0 0
0 0 0
0 0 0
0 0 0
0 0 0
0 0 0
0 0 0
0 0 0
0 0 0
0 0 0
0 0 0
0 0 0
0 0 0
0 0 0
0 0 0
0 0 0
0 0 0
0 0 0
0 0 0
0 0 0
0 0 0
0 0 0
0 0 0
0 0 0
18 34 19
24 45 26
26 45 26
26 48 27
22 38 21
22 41 23
21 40 22
34 63 36
29 57 33
19 29 17
28 43 24
24 43 25
35 64 36
25 49 27
22 43 25
36 68 39
43 47 27
28 52 30
45 67 38
33 64 36
20 38 21
31 54 31
18 33 18
32 58 33
24 42 23
30 55 31
33 61 35
27 55 29
30 57 32
39 74 43
36 66 37
35 68 39
40 76 43
28 52 29
26 49 27
37 69 39
32 63 35
24 46 26
31 67 34
34 62 35
34 64 36
37 74 41
35 64 37
35 68 39
30 55 31
34 68 37
35 67 38
36 64 36
42 82 45
28 56 30
26 53 29
35 65 37
36 68 39
38 68 39
34 65 37
32 61 35
36 68 38
37 67 38
30 63 33
37 63 36
33 60 34
35 66 37
35 67 38
42 80 45
36 68 39
36 70 38
37 74 41
33 68 35
38 71 39
33 62 35
39 76 44
39 76 43
36 69 39
30 62 32
44 82 47
34 63 36
36 70 38
46 67 38
34 65 33
44 66 37
32 64 34
36 67 38
33 64 36
29 57 32
31 59 33
33 58 32
28 54 30
34 64 36
29 55 31
35 59 33
30 57 31
28 53 30
27 54 30
28 48 26
28 50 26
22 41 21
35 59 34
27 50 27
30 54 30
27 49 27
27 48 27
28 55 28
23 38 21
37 69 37
22 42 22
32 61 33
22 38 21
28 49 27
23 41 22
22 41 22
27 47 26
28 53 28
24 37 19
23 42 22
25 44 24
16 29 16
17 32 18
44 47 34
46 49 44
68 47 47
44 45 39
31 31 25
37 46 36
44 43 41
35 38 34
34 43 34
41 41 35
29 26 23
42 44 39
38 42 38
43 48 34
133 57 50
44 54 40
35 32 25
41 47 37
56 54 48
33 31 26
48 53 46
58 55 50
56 53 50
47 41 35
39 47 34
73 66 63
85 87 83
56 51 49
57 57 53
39 41 36
46 36 33
41 50 41
55 53 47
36 41 34
42 50 42
45 40 35
32 41 25
50 47 43
38 42 30
41 46 35
56 58 48
51 49 44
49 50 45
63 61 56
61 65 58
44 50 41
36 35 29
54 54 48
34 47 35
60 53 50
55 48 40
47 48 37
33 41 33
54 56 50
41 43 35
58 50 44
53 50 45
45 46 43
43 40 37
42 49 41
72 56 48
53 62 51
64 58 54
59 57 51
50 48 44
48 50 45
70 56 52
68 61 60
61 58 53
67 67 60
48 42 37
68 64 58
38 30 27
47 51 39
53 46 43
45 47 41
58 52 45
63 62 58
97 65 55
42 40 35
50 44 40
55 56 47
58 54 43
66 57 53
52 56 51
52 44 39
59 63 57
48 50 44
82 63 62
55 53 50
66 59 51
57 62 47
50 51 44
56 71 47
58 57 53
56 50 49
57 62 51
46 44 42
56 53 51
66 69 54
69 63 58
54 51 41
58 66 56
73 60 47
52 54 48
55 54 53
62 63 61
67 60 55
54 48 43
75 82 72
56 48 44
66 62 61
62 73 55
53 43 42
62 61 59
62 61 55
59 63 53
64 61 56
58 57 48
70 63 61
56 62 50
49 54 48
55 49 47
62 63 60
71 72 66
45 38 35
113 114 112
59 54 50
54 52 46
76 68 58
53 44 42
55 53 46
49 51 42
48 45 42
63 66 53
46 43 40
72 71 64
57 55 53
48 48 45
76 75 68
71 49 46
62 59 58
54 53 42
44 39 35
61 60 47
65 66 60
82 55 50
75 62 60
52 49 46
103 61 58
66 60 56
74 59 56
52 49 46
78 75 70
76 66 66
82 68 63
59 53 45
65 72 63
45 43 38
61 56 52
64 48 43
56 59 52
51 44 38
52 46 45
58 61 55
61 64 54
56 53 47
60 55 51
56 55 48
57 51 46
64 59 56
70 68 65
55 43 40
52 44 37
74 66 65
84 61 57
62 56 49
40 40 36
82 50 46
84 65 57
66 63 62
57 56 53
89 50 49
63 37 35
73 59 58
68 60 52
49 48 44
63 44 41
60 54 49
56 56 52
64 47 46
83 72 71
53 42 38
63 54 50
50 51 47
59 56 50
56 46 42
96 97 92
78 61 61
61 51 48
55 40 39
72 61 57
55 44 38
49 42 40
44 38 34
60 56 53
48 39 37
66 53 53
51 42 42
69 56 54
65 62 58
61 51 46
78 68 66
65 54 51
72 53 51
64 58 55
83 65 61
73 56 54
56 42 41
63 54 50
75 51 48
69 43 41
45 36 33
57 50 47
53 49 48
59 53 52
65 77 59
60 57 56
53 47 42
46 47 43
60 51 47
55 37 36
59 50 49
60 41 40
37 30 24
54 45 44
43 34 28
64 33 30
71 68 64
54 59 49
56 51 45
34 21 15
65 62 60
67 64 60
57 42 42
54 48 45
53 39 38
76 61 60
63 53 52
38 30 27
62 51 50
57 42 41
55 55 46
44 39 37
58 53 53
55 40 39
36 24 22
56 48 45
55 40 38
58 50 49
65 61 52
59 42 41
41 39 29
53 46 43
58 51 48
60 65 49
51 46 44
68 64 63
63 45 40
56 47 47
66 40 38
71 46 39
54 45 42
49 32 31
46 34 32
58 46 46
63 50 47
70 55 53
64 62 54
54 34 34
52 49 49
61 44 39
63 59 52
53 33 31
61 57 39
63 50 48
57 37 37
63 46 45
85 80 79
67 60 56
68 46 44
53 32 30
59 50 48
72 65 64
50 38 38
44 36 35
65 44 38
53 45 41
65 61 58
52 32 26
53 36 35
64 55 55
36 22 17
35 18 15
64 50 44
59 47 46
51 43 31
61 51 49
46 43 39
66 54 52
78 50 49
64 55 49
50 51 45
37 25 22
39 34 25
68 49 45
54 29 29
37 18 14
63 41 41
55 30 29
40 19 14
44 37 35
56 34 34
36 29 26
74 66 66
87 50 48
54 45 35
75 40 40
59 36 34
47 39 38
56 46 44
51 52 34
38 26 16
34 21 19
55 33 33
51 28 27
60 50 48
46 35 31
28 7 6
47 7 6
64 17 16
52 9 9
57 15 14
66 18 17
52 12 11
41 11 10
57 15 14
52 13 13
53 13 13
42 11 9
56 14 14
54 12 11
55 15 14
71 18 18
58 14 13
61 16 15
60 15 15
70 16 16
63 17 16
70 17 16
62 17 16
72 18 18
73 18 16
68 17 17
70 18 17
78 21 21
78 20 19
98 24 24
70 18 17
63 16 16
85 22 21
90 24 24
92 24 24
81 21 21
75 21 20
82 22 21
80 21 20
91 22 22
98 24 24
104 31 28
93 25 25
99 26 26
84 22 21
86 23 23
95 23 23
80 20 20
66 18 17
90 24 21
73 19 19
120 32 32
93 24 24
80 22 21
78 20 20
79 19 18
91 24 24
92 21 20
76 21 20
78 21 20
97 25 25
74 20 20
113 30 30
84 22 21
77 18 18
75 21 20
77 20 19
67 18 17
83 21 20
60 16 15
93 26 25
74 20 20
78 21 20
78 21 21
81 22 21
80 21 21
61 14 14
70 17 17
65 18 16
82 21 20
58 16 15
68 18 18
67 17 16
73 20 20
69 19 18
64 15 14
75 21 20
63 17 17
64 17 17
77 22 21
51 14 13
68 18 18
88 23 23
74 20 19
67 18 18
77 21 21
85 23 23
70 19 19
74 19 18
88 17 16
67 18 18
54 15 14
91 33 25
65 18 17
67 17 17
53 15 14
68 16 16
49 13 12
47 13 12
83 23 23
129 35 35
67 17 16
39 10 10
70 19 19
64 18 17
60 17 16
58 16 15
30 8 7
0 0 0
0 0 0
0 0 0
0 0 0
0 0 0
0 0 0
0 0 0
0 0 0
0 0 0
0 0 0
0 0 0
0 0 0
0 0 0
0 0 0
0 0 0
0 0 0
0 0 0
0 0 0
0 0 0
0 0 0
0 0 0
0 0 0
0 0 0
0 0 0
0 0 0
0 0 0
0 0 0
20 46 21
21 38 22
38 72 41
26 44 25
25 48 27
31 56 32
33 62 35
22 42 23
26 47 27
26 49 28
25 46 26
23 43 24
25 46 25
23 45 24
24 44 25
27 47 27
30 59 34
30 54 30
32 60 34
26 47 26
27 53 30
28 46 25
28 50 29
33 64 36
29 55 31
31 62 34
38 72 41
28 52 30
29 55 32
25 47 26
31 57 32
23 43 24
34 67 38
29 52 29
32 63 36
30 55 31
32 56 32
35 66 37
28 57 30
31 60 34
38 74 42
36 67 38
28 50 29
40 70 40
35 64 35
27 52 29
31 60 33
32 59 34
26 50 27
34 64 36
34 62 35
33 63 35
34 63 35
29 56 32
34 63 36
44 84 47
32 63 36
29 57 32
38 72 40
40 60 33
33 59 32
30 59 33
40 76 40
42 79 44
38 68 38
36 62 34
30 58 32
33 61 34
39 78 44
32 61 34
33 61 34
37 69 39
34 67 36
28 54 30
34 65 36
34 62 35
41 65 36
30 58 33
33 61 34
35 63 35
34 61 35
38 74 41
38 71 41
36 71 39
29 58 30
36 56 31
30 58 32
38 72 41
29 59 32
28 51 29
30 56 31
31 53 30
31 57 33
34 63 35
34 66 37
24 44 23
28 51 29
27 48 26
28 57 30
24 45 25
34 57 29
24 47 24
27 56 30
20 36 19
29 46 26
24 45 25
28 53 29
27 54 29
24 38 21
25 45 24
24 45 22
25 46 26
23 44 23
16 31 17
22 46 23
29 43 25
24 50 24
23 30 21
42 39 34
57 54 50
44 46 37
61 57 55
33 37 30
43 48 40
36 38 27
36 42 36
55 56 54
34 35 29
55 43 38
54 67 53
28 31 28
55 57 51
49 52 48
30 38 27
56 57 52
37 38 29
52 48 40
57 43 36
38 27 24
54 55 52
42 36 32
56 62 50
36 28 18
42 50 38
48 48 41
37 37 28
46 45 40
42 37 32
42 45 37
46 53 45
59 52 48
45 43 35
36 57 37
25 25 24
65 61 54
51 55 50
70 59 53
54 59 52
58 55 45
39 41 37
51 51 48
35 43 33
64 64 54
65 52 47
49 45 41
88 71 59
33 36 28
38 37 35
66 60 56
58 58 56
51 52 42
25 30 24
93 55 49
63 55 51
74 71 67
51 51 45
53 46 39
63 60 57
37 34 29
41 45 32
66 50 45
60 65 58
61 55 51
53 55 51
58 58 55
66 66 62
50 57 48
54 62 44
50 42 40
62 51 46
57 50 44
55 56 50
88 66 63
56 44 40
44 39 34
44 44 39
49 52 42
30 33 24
62 57 53
61 56 52
50 52 45
40 41 33
46 56 45
54 61 51
60 58 51
60 64 51
59 58 53
70 77 66
54 47 45
42 45 39
47 33 32
80 74 70
53 47 44
53 49 45
67 70 63
52 43 36
53 53 48
74 68 62
59 67 56
62 71 61
45 47 39
56 51 42
56 44 38
61 65 58
54 60 53
67 72 65
46 55 42
71 70 68
48 47 44
40 40 36
109 91 78
64 52 44
75 60 56
47 44 36
72 59 56
58 65 52
64 57 54
59 51 50
58 61 56
59 57 52
72 74 64
121 121 118
51 50 44
67 60 58
40 39 34
61 57 54
60 65 60
75 66 63
63 62 50
77 56 52
69 68 64
67 74 68
60 55 53
42 33 29
66 62 50
61 56 51
63 59 58
64 51 48
48 48 39
83 55 55
55 45 44
60 64 53
69 65 58
64 56 50
63 57 54
72 57 54
71 49 45
87 65 62
51 48 45
47 47 40
66 49 48
72 76 64
59 61 53
52 59 52
45 38 35
76 70 68
39 38 33
58 49 47
63 58 53
48 48 36
72 73 64
79 52 49
57 49 46
53 44 35
77 69 63
55 42 38
62 53 46
61 53 50
48 50 45
70 64 55
59 49 46
109 79 69
66 55 51
51 46 44
88 82 80
72 57 56
52 52 47
80 71 69
64 59 55
60 52 46
61 60 57
68 55 54
63 71 58
58 47 43
71 55 53
67 60 55
70 62 55
42 38 32
64 60 57
65 53 49
60 45 41
61 75 57
89 84 81
59 43 42
83 51 50
66 54 52
50 49 43
55 42 40
68 60 59
64 60 54
67 50 46
51 41 40
71 60 58
46 45 37
66 59 57
68 63 60
62 60 57
70 64 62
68 50 48
48 47 42
97 62 59
86 63 55
70 63 63
66 67 59
38 36 27
70 66 54
61 41 40
44 34 32
60 59 49
74 72 70
58 49 46
51 46 45
70 51 48
63 52 49
60 56 54
68 63 61
79 77 75
78 72 67
56 47 44
71 59 57
67 60 58
75 69 61
80 54 52
46 47 43
49 45 45
51 45 44
52 42 39
57 44 42
52 41 35
52 42 39
62 64 57
55 44 42
53 44 41
55 42 41
60 61 55
62 50 50
70 53 50
75 64 62
69 62 60
50 46 46
60 50 49
41 40 40
61 57 53
52 49 44
64 65 57
64 49 49
59 44 39
58 42 39
61 45 43
66 56 54
44 38 30
62 44 43
49 35 35
100 57 49
54 50 44
62 61 60
68 61 58
56 43 40
76 74 71
78 56 53
60 46 46
68 46 46
81 69 64
65 53 49
48 47 43
51 44 40
41 35 34
56 46 42
78 62 59
71 51 50
58 48 47
51 36 35
58 45 43
64 52 49
65 38 37
65 49 44
60 53 53
50 38 35
55 44 42
58 36 36
55 54 47
42 37 31
78 50 47
46 24 22
79 67 65
60 59 48
61 38 36
58 44 42
51 41 39
43 34 34
65 55 51
38 22 18
52 43 38
39 39 34
51 23 20
44 37 37
44 38 38
49 29 29
56 50 46
68 42 34
50 45 43
49 39 39
49 30 30
59 53 51
44 40 37
71 69 60
54 40 34
48 39 39
36 26 21
52 47 45
44 42 40
57 45 45
45 29 27
51 41 37
43 38 34
61 53 53
61 59 57
49 39 35
41 29 28
52 50 37
51 49 47
41 36 34
48 44 43
49 48 40
41 23 22
54 13 13
21 2 1
34 6 5
40 11 9
69 17 17
61 15 15
71 18 18
57 15 14
72 16 16
66 15 14
61 16 15
64 17 16
69 19 18
49 11 11
55 14 13
63 15 15
64 16 16
83 19 19
88 22 21
59 16 15
75 18 18
65 17 17
62 15 14
79 21 21
76 20 19
57 15 14
61 16 16
89 23 23
67 17 16
64 17 16
77 20 20
93 23 22
83 23 22
79 19 18
90 23 23
63 17 17
76 21 20
84 22 21
83 22 22
86 21 21
77 20 19
84 22 21
76 21 20
81 21 21
95 24 24
80 21 21
76 19 19
68 18 17
84 22 21
96 25 25
74 20 19
82 21 21
75 20 18
79 22 21
84 22 22
90 26 24
126 33 33
80 25 22
74 20 20
76 20 20
72 19 19
96 26 25
68 19 18
65 17 16
81 23 22
85 22 22
77 21 20
65 17 17
68 17 17
116 31 30
86 23 23
74 19 19
85 24 23
70 19 19
83 22 22
72 19 18
76 20 19
81 22 21
61 17 16
69 19 19
53 15 14
64 18 17
83 21 20
54 15 14
74 21 20
59 16 15
49 13 13
75 21 20
58 16 15
86 22 22
41 12 11
72 19 19
68 19 18
83 20 19
76 21 20
52 14 13
54 15 15
62 18 17
101 20 19
52 14 13
89 24 23
104 28 28
59 16 16
79 22 21
81 20 20
72 20 20
61 16 16
79 22 21
54 14 14
87 23 22
66 19 16
49 14 13
44 12 10
76 21 21
66 19 18
34 9 9
32 8 8
49 13 13
0 0 0
0 0 0
0 0 0
0 0 0
0 0 0
0 0 0
0 0 0
0 0 0
0 0 0
0 0 0
0 0 0
0 0 0
0 0 0
0 0 0
0 0 0
0 0 0
0 0 0
0 0 0
0 0 0
0 0 0
0 0 0
0 0 0
0 0 0
0 0 0
0 0 0
0 0 0
0 0 0
18 36 21
27 49 28
26 49 28
32 55 32
22 43 24
27 45 25
32 60 35
29 55 31
30 53 30
25 41 23
30 54 31
25 48 27
31 58 33
35 67 38
34 64 36
25 36 20
21 34 19
29 55 31
30 54 31
32 58 31
25 49 27
37 70 40
30 52 30
32 61 33
30 53 30
27 51 29
29 57 32
34 65 37
26 51 28
43 53 30
29 54 31
34 64 36
29 56 32
40 77 43
32 61 34
41 77 44
31 61 33
21 38 22
29 57 32
28 48 27
23 42 22
39 76 42
34 64 36
42 82 46
35 62 35
33 62 36
45 83 47
36 70 39
40 77 42
31 59 33
33 61 34
28 55 30
39 76 43
37 69 38
31 60 33
27 54 30
32 63 36
35 65 37
31 61 34
46 93 50
36 70 39
37 71 40
24 50 26
30 57 32
36 66 38
34 67 36
37 71 40
33 64 36
40 79 44
40 73 42
38 72 40
31 58 32
31 60 33
36 68 38
38 70 40
40 75 40
36 57 32
31 54 31
36 65 37
33 61 34
41 79 43
39 75 42
33 60 34
35 69 39
35 65 37
32 64 35
34 64 36
32 60 34
26 49 26
43 81 46
31 60 33
35 67 37
31 56 29
30 59 33
29 47 25
31 57 32
32 52 28
26 51 28
45 84 47
34 72 37
23 41 22
37 67 38
27 51 28
27 47 26
23 43 24
27 51 27
22 46 23
23 35 19
20 37 19
35 65 37
34 40 22
25 48 25
25 50 26
26 44 25
25 43 24
18 29 14
24 45 25
36 41 32
41 42 36
41 42 37
33 34 32
50 57 43
31 32 30
62 60 58
49 44 42
59 54 51
42 48 40
26 30 20
40 39 34
48 55 48
47 36 31
43 43 39
41 48 40
49 37 35
61 56 50
36 38 33
41 42 30
40 49 39
67 59 49
58 64 55
44 42 38
53 44 37
45 34 32
38 41 31
47 43 39
54 53 49
43 38 36
50 49 47
42 42 31
53 62 53
66 63 60
54 50 45
63 65 61
63 60 57
37 42 33
38 40 31
47 54 43
50 53 45
37 30 27
47 45 42
48 54 46
60 64 60
46 47 40
68 47 43
50 48 43
98 56 49
39 40 33
44 47 38
41 40 30
55 67 51
36 42 31
75 57 48
50 46 45
40 43 35
55 48 43
40 35 31
64 58 55
50 44 39
55 53 50
49 44 39
52 64 49
49 48 43
44 39 37
64 64 59
40 45 37
60 58 52
60 62 55
40 39 33
59 60 52
47 48 41
56 55 51
41 37 36
53 62 53
53 58 52
89 60 55
51 53 49
46 50 44
66 67 63
45 40 34
64 58 51
69 65 57
57 61 52
57 55 47
61 60 56
46 47 40
38 37 33
67 67 62
46 43 38
73 61 57
62 59 53
80 56 53
54 40 36
45 49 43
73 66 60
68 60 56
66 66 63
40 40 33
46 47 42
59 57 53
67 61 57
68 62 57
81 69 49
55 54 49
53 51 48
53 48 39
55 56 52
64 56 48
57 53 44
43 38 34
55 53 48
54 47 45
39 32 29
57 55 51
58 54 51
66 71 59
63 53 47
56 49 46
81 72 66
71 71 66
70 65 63
73 105 72
90 63 61
62 58 57
64 60 53
56 58 51
61 59 58
47 45 43
50 51 46
52 41 39
69 84 68
63 62 54
60 62 57
76 64 62
77 57 55
62 75 58
50 50 47
68 63 53
72 70 66
47 46 39
72 62 60
51 50 47
73 71 67
48 35 34
80 73 67
59 53 49
64 51 47
76 81 76
56 51 47
59 65 53
58 55 52
77 71 60
68 66 61
79 75 66
65 66 62
57 46 40
64 62 59
59 51 48
67 53 50
50 40 37
73 70 66
82 73 70
63 65 60
96 92 88
61 53 46
77 69 66
66 56 49
53 52 46
72 61 54
57 63 53
64 52 50
64 46 43
64 63 55
68 65 63
58 60 55
75 69 63
58 61 55
61 56 52
66 59 56
60 59 57
68 60 59
53 47 44
84 74 73
77 63 61
75 74 71
56 52 48
58 56 54
65 52 51
75 47 46
60 51 47
48 39 36
76 71 67
70 59 57
45 42 39
56 49 47
62 60 50
73 65 63
58 55 49
65 61 51
56 51 47
54 46 43
76 67 64
77 64 60
73 71 67
61 54 52
62 67 56
78 80 77
71 61 60
131 55 52
82 57 53
69 59 56
63 53 52
60 57 55
64 62 56
69 49 48
62 57 53
56 55 46
51 46 43
63 59 55
61 52 51
50 51 43
71 55 51
60 46 44
67 43 37
66 56 55
72 60 59
79 75 70
87 79 76
62 48 46
70 67 66
56 52 45
50 53 41
55 50 47
74 55 52
51 43 39
53 52 50
58 48 45
62 52 49
84 59 58
56 51 43
42 32 32
53 46 43
78 54 52
65 59 58
67 60 58
70 63 56
68 52 50
55 46 45
81 67 65
77 57 54
57 49 45
44 33 28
65 62 58
51 58 50
80 40 37
61 37 36
86 78 77
57 42 37
75 65 57
64 65 47
63 58 55
53 45 44
54 57 47
59 48 47
42 25 20
70 45 43
47 36 35
47 35 33
57 47 47
64 64 53
48 33 31
61 57 54
55 44 42
50 38 32
76 51 48
63 54 48
55 44 44
60 55 54
99 93 93
63 46 44
54 41 38
62 48 47
63 47 45
54 22 19
70 54 54
27 33 20
58 47 41
75 54 51
65 49 45
43 45 38
59 53 51
62 55 53
54 58 46
51 40 38
51 47 46
60 41 40
71 65 63
63 39 37
37 27 23
55 54 44
79 50 50
54 48 48
82 30 30
55 43 43
53 54 47
50 42 42
52 48 44
53 43 40
56 47 47
66 53 48
49 41 36
44 39 33
69 66 62
91 88 88
68 47 44
67 53 49
45 36 35
70 51 49
58 53 50
48 39 36
48 35 35
52 48 48
39 30 27
46 44 38
32 21 21
41 22 21
48 33 33
72 54 52
34 26 26
64 36 35
52 40 39
39 32 30
47 26 26
55 49 45
54 46 45
49 33 31
43 8 7
39 6 6
48 8 8
55 13 13
51 15 13
47 13 11
49 12 12
46 12 11
62 13 12
49 11 10
65 16 15
58 15 15
64 15 14
59 13 13
54 15 14
58 15 15
90 17 16
66 18 17
66 16 15
64 17 16
71 19 19
84 22 22
73 19 19
49 13 12
73 19 18
67 18 18
75 20 19
74 19 19
79 21 21
69 18 17
108 17 17
76 20 20
80 21 20
68 18 18
85 22 22
85 23 22
96 25 25
84 20 20
64 18 17
93 24 24
92 25 25
71 19 19
85 23 23
83 23 22
85 21 20
90 24 24
118 21 21
65 17 16
77 22 21
60 17 16
99 26 26
85 21 21
89 24 24
79 21 20
79 21 20
79 21 21
96 26 25
72 17 16
90 25 24
85 22 22
68 19 18
91 25 24
76 19 19
74 19 19
89 24 24
64 17 17
89 24 24
66 17 17
64 17 16
77 21 21
104 25 24
72 19 18
102 24 23
66 18 17
66 18 17
76 20 19
70 18 17
66 16 16
71 21 19
76 20 18
76 21 20
75 20 20
68 18 18
56 16 15
73 20 19
68 18 17
66 18 18
76 21 21
70 19 19
83 21 21
70 19 19
61 16 16
73 19 19
82 22 21
53 14 13
64 18 16
73 18 18
66 18 18
65 18 17
52 14 13
57 14 13
56 15 14
82 22 22
70 19 19
55 13 12
65 16 16
86 24 23
58 16 15
58 16 15
52 13 12
81 23 22
65 18 18
52 13 13
56 15 15
68 19 18
82 17 16
76 21 20
49 13 13
0 0 0
0 0 0
0 0 0
0 0 0
0 0 0
0 0 0
0 0 0
0 0 0
0 0 0
0 0 0
0 0 0
0 0 0
0 0 0
0 0 0
0 0 0
0 0 0
0 0 0
0 0 0
0 0 0
0 0 0
0 0 0
0 0 0
0 0 0
0 0 0
0 0 0
0 0 0
0 0 0
19 37 21
34 64 37
41 77 44
25 45 26
19 33 18
23 40 23
24 44 25
30 57 33
28 52 29
23 41 23
28 53 30
42 57 32
26 48 27
31 55 31
36 69 39
29 52 28
32 54 31
34 64 36
31 58 33
42 81 46
29 49 28
39 70 40
22 41 22
33 62 35
34 62 35
26 48 27
33 62 35
32 62 35
29 52 30
28 54 30
32 63 35
30 57 32
29 52 30
35 60 33
33 63 36
21 41 22
40 77 44
36 62 35
34 65 37
33 63 36
35 67 38
36 71 39
29 53 30
35 64 36
31 51 29
38 69 39
33 65 36
33 62 35
33 65 36
37 70 39
36 68 38
33 59 34
37 69 39
27 52 29
36 69 39
34 64 36
38 70 40
31 60 33
29 57 32
36 65 37
36 56 32
31 59 33
34 62 35
28 54 29
33 63 36
36 69 39
33 63 36
51 96 55
37 69 38
32 60 32
30 57 32
38 75 42
36 70 39
37 69 39
30 58 33
35 63 36
43 93 48
26 49 28
29 59 32
29 53 30
38 71 40
29 54 30
42 74 40
37 71 40
38 72 40
33 64 36
35 66 37
37 69 39
37 66 38
37 71 40
23 43 23
41 78 43
24 41 22
35 67 38
28 53 30
32 60 33
34 68 36
27 54 30
25 50 28
30 52 29
25 48 27
29 50 27
32 60 34
35 64 36
25 50 26
23 43 22
31 52 29
18 34 18
21 39 21
27 52 28
24 49 27
23 47 24
24 45 25
23 41 22
26 49 27
21 38 21
20 39 22
17 28 13
48 39 36
38 26 21
51 52 47
59 39 33
46 48 38
33 37 25
53 49 47
45 48 45
15 25 14
55 61 53
58 49 48
43 42 37
48 38 34
46 41 33
56 54 49
54 48 38
39 44 39
44 29 24
40 41 39
83 68 60
48 54 49
65 54 46
55 54 44
48 50 46
42 48 36
45 33 25
49 50 45
63 70 63
32 33 27
51 45 41
45 43 38
62 62 58
20 31 20
46 56 47
50 54 49
63 56 54
54 57 52
48 42 36
54 57 46
51 50 43
48 59 46
47 45 40
49 49 44
49 40 35
51 45 34
57 52 40
37 36 33
42 45 38
47 31 26
39 41 31
32 33 25
56 60 49
54 47 43
62 52 45
58 59 55
59 62 58
43 41 34
32 40 29
61 67 60
78 91 72
53 47 41
41 30 27
46 44 41
41 33 32
53 57 51
55 55 39
54 55 48
60 60 53
65 59 56
59 58 51
54 53 49
54 55 50
62 57 50
46 39 36
60 55 47
55 50 48
36 39 36
47 43 39
67 68 62
53 44 39
63 57 55
50 44 39
59 55 49
50 50 46
59 57 48
56 59 52
55 58 51
77 66 59
53 56 51
73 72 70
66 65 59
101 72 66
62 56 46
69 59 51
41 33 30
77 72 58
63 66 60
77 71 66
54 49 45
45 46 40
44 42 39
52 60 47
58 58 56
60 50 48
80 79 73
71 55 50
43 34 32
75 70 64
60 56 54
69 61 57
77 71 69
53 50 48
43 46 41
62 63 58
59 57 53
70 70 65
90 91 89
66 67 61
70 70 66
54 48 42
60 68 60
61 38 34
64 62 57
55 49 47
66 69 66
55 58 52
60 64 56
64 63 58
48 36 34
66 63 54
53 52 48
85 76 70
64 57 54
76 54 49
73 67 65
64 51 49
54 47 46
57 56 52
74 55 54
68 69 61
82 70 66
54 49 44
58 64 53
58 57 52
73 69 64
68 62 58
53 50 49
69 60 60
84 60 59
65 70 62
55 51 46
61 52 50
67 48 42
72 66 57
53 49 41
60 54 52
70 62 60
73 63 61
60 72 56
63 51 48
54 48 45
98 96 96
78 80 77
57 59 57
58 55 52
64 56 54
77 64 63
60 60 56
72 63 62
65 55 53
72 62 56
72 63 59
62 54 53
53 52 47
86 73 72
42 34 31
97 97 93
50 37 35
65 68 64
65 61 55
68 62 58
62 58 51
67 64 63
67 56 51
49 50 47
66 53 53
198 78 74
73 48 45
77 64 61
56 43 42
56 58 53
50 46 39
49 47 46
64 63 52
75 70 65
72 63 62
78 78 72
62 56 52
64 58 58
74 51 50
60 58 54
81 66 61
89 69 68
75 66 65
59 47 39
67 60 59
70 63 61
90 71 63
54 45 42
64 55 52
72 64 56
52 45 42
70 66 58
65 53 52
51 50 47
64 58 56
67 65 56
45 38 37
81 69 64
67 63 54
71 53 51
63 49 47
70 46 43
46 47 42
69 64 64
69 59 58
57 57 51
66 58 54
58 45 44
110 101 100
60 60 55
69 33 31
53 47 44
61 49 49
57 53 52
52 48 47
50 43 40
79 68 65
66 60 58
63 54 50
44 41 39
40 39 35
53 30 29
54 48 47
64 48 46
46 37 35
54 47 46
73 47 43
58 48 45
58 51 45
85 74 70
59 51 46
50 39 39
74 59 55
66 45 43
70 66 66
66 55 55
55 42 40
49 38 38
63 57 55
48 38 37
82 57 52
100 54 50
67 50 49
69 56 51
58 52 49
62 44 41
61 44 41
50 39 35
74 64 61
58 47 43
48 34 31
52 44 40
62 52 52
60 53 51
42 34 29
109 104 103
68 64 61
80 62 57
56 45 44
54 45 40
71 48 44
53 36 34
58 45 43
80 57 54
76 66 64
62 49 47
60 54 52
51 47 40
46 38 33
58 41 39
84 76 76
49 29 28
95 55 53
84 63 63
69 54 54
66 51 51
52 39 36
67 54 54
58 40 30
47 42 42
42 32 30
39 30 29
73 52 49
62 57 51
57 40 33
53 29 27
47 38 37
85 64 64
57 49 43
51 36 33
55 53 53
43 30 28
50 33 29
57 54 52
38 28 26
42 41 33
63 54 51
50 40 40
42 47 34
58 41 39
64 56 54
27 12 11
54 54 47
56 53 52
108 94 94
60 44 43
43 50 35
61 58 57
47 36 30
51 35 33
58 48 42
39 24 23
57 59 52
33 7 6
39 41 36
42 33 29
31 9 8
54 14 13
49 13 12
45 12 11
66 19 17
71 16 16
57 15 15
41 12 9
56 13 13
51 12 12
52 13 12
77 20 20
72 18 17
59 14 13
66 13 13
51 13 13
69 17 17
64 17 16
88 24 23
62 17 16
88 22 21
85 21 20
66 18 17
128 29 29
52 13 12
72 19 19
70 19 19
92 25 25
73 20 20
71 19 18
83 22 22
80 21 21
97 26 26
89 21 21
73 19 18
73 19 19
94 25 25
73 18 18
82 24 22
62 15 15
70 18 18
71 19 18
75 21 20
71 18 18
84 22 21
78 23 21
98 24 24
72 21 19
92 25 25
87 23 23
70 18 18
151 42 41
88 23 22
125 21 21
95 23 23
82 22 22
81 21 21
74 20 19
94 25 25
82 22 22
77 19 18
78 20 20
77 18 17
83 23 22
79 21 20
82 23 22
91 25 23
150 41 41
81 21 21
98 24 23
97 25 24
70 19 19
78 21 20
66 17 17
76 20 20
93 25 25
93 22 22
75 19 19
63 17 17
84 22 22
66 17 17
75 21 20
86 23 23
97 26 25
74 19 19
81 23 22
61 16 16
52 12 11
74 22 20
75 20 19
76 20 20
85 21 20
70 19 18
74 20 20
68 18 18
75 20 19
86 24 23
64 17 16
76 20 19
63 17 17
71 18 18
56 15 14
82 22 22
67 16 16
45 13 12
64 18 17
75 20 19
82 22 21
60 17 16
42 12 11
48 13 12
71 19 19
58 14 14
85 23 23
43 13 11
93 23 23
81 22 22
43 13 12
0 0 0
0 0 0
0 0 0
0 0 0
0 0 0
0 0 0
0 0 0
0 0 0
0 0 0
0 0 0
0 0 0
0 0 0
0 0 0
0 0 0
0 0 0
0 0 0
0 0 0
0 0 0
0 0 0
0 0 0
0 0 0
0 0 0
0 0 0
0 0 0
0 0 0
0 0 0
0 0 0
16 27 15
28 53 30
31 62 34
27 49 28
23 36 20
19 34 19
29 58 32
38 71 41
28 50 28
29 55 31
40 72 41
25 40 23
24 43 24
24 45 25
21 41 23
27 54 30
29 52 29
26 50 29
27 49 28
22 37 21
25 48 25
26 48 27
28 54 30
26 49 28
35 70 38
33 63 36
24 45 26
29 62 33
25 47 27
37 64 37
27 53 28
32 61 34
42 77 43
35 65 37
38 71 40
29 53 30
30 54 31
43 68 38
29 51 28
37 61 34
37 67 38
39 74 42
36 67 38
37 69 39
28 54 30
33 64 36
37 58 33
34 66 38
31 57 32
33 59 32
38 70 40
30 62 33
34 64 36
32 63 36
33 63 35
38 71 40
28 51 29
39 75 42
37 70 40
36 67 38
29 55 31
30 62 33
35 66 38
36 69 39
36 70 39
40 77 44
34 66 37
33 65 36
37 72 41
39 74 42
40 80 43
34 63 36
31 58 33
40 81 44
34 65 36
43 83 47
28 52 29
29 56 32
33 62 35
35 68 37
36 69 39
39 78 43
42 79 44
37 72 40
37 70 39
31 56 30
40 78 44
41 69 39
34 61 34
38 75 41
31 56 32
28 56 31
34 66 37
37 73 40
29 54 29
32 60 34
37 62 34
35 66 37
29 58 32
35 57 32
32 58 33
26 49 26
18 37 19
32 58 33
26 47 27
30 55 31
36 68 39
33 61 33
20 43 21
23 43 24
23 42 24
18 37 19
19 37 18
19 34 18
26 42 22
22 30 15
22 40 21
30 49 26
54 47 40
67 44 35
30 35 30
64 45 43
53 50 45
46 36 31
38 38 37
44 49 43
42 35 24
42 49 42
50 46 39
51 53 48
44 55 44
41 50 42
42 63 41
50 53 50
42 40 33
45 52 45
78 48 44
55 56 49
61 62 58
43 44 33
35 39 35
158 52 37
55 49 44
52 52 47
35 35 25
28 43 28
45 35 30
51 44 39
57 52 48
32 42 32
42 42 39
56 72 55
54 51 40
33 38 31
65 61 51
45 41 33
47 49 41
59 61 57
59 52 45
53 59 51
55 54 51
39 41 31
36 43 36
48 54 45
50 43 38
49 55 49
34 34 27
53 55 48
53 55 51
65 79 60
49 44 39
40 43 36
61 74 60
46 51 45
58 58 52
58 61 53
89 51 48
51 50 46
56 55 50
54 44 40
71 65 56
66 58 51
63 75 62
61 49 45
50 64 45
64 61 58
72 68 59
74 67 60
62 62 58
73 58 55
63 62 57
64 62 56
61 60 58
63 61 59
67 60 54
46 54 43
53 52 45
70 76 67
51 53 49
69 57 47
56 51 49
40 41 36
59 56 54
54 55 51
40 38 33
60 62 58
51 56 50
53 57 52
69 69 65
48 49 42
57 60 56
52 53 51
92 91 88
77 69 66
65 49 46
51 49 46
58 50 47
72 71 67
55 42 41
78 78 72
62 60 57
71 65 60
67 61 53
58 54 49
77 78 72
68 53 51
58 62 56
67 59 55
50 31 29
57 62 49
72 93 73
72 64 55
69 65 61
70 69 65
68 66 62
67 66 63
65 59 55
71 72 69
71 69 67
73 56 50
77 72 68
68 56 52
61 58 55
53 51 43
67 70 60
69 63 62
76 76 74
71 63 62
57 52 51
81 76 73
64 63 62
74 74 68
74 72 69
64 70 53
69 69 63
58 61 54
61 62 53
80 81 79
63 63 57
61 56 54
77 73 70
60 59 55
68 60 55
67 68 60
62 60 58
80 66 62
68 64 60
74 63 60
51 50 45
49 51 42
63 58 55
83 81 79
50 44 41
48 46 44
64 53 48
57 75 53
67 64 63
68 67 66
80 69 68
61 57 52
55 51 46
66 56 53
79 63 59
47 49 46
56 52 49
49 41 39
75 67 66
59 55 48
63 59 55
69 55 52
62 61 59
59 62 55
72 69 67
62 57 55
53 48 46
44 44 40
63 56 54
54 50 50
68 56 48
56 55 53
69 65 61
77 61 58
55 50 48
66 61 58
69 63 59
72 58 56
61 59 57
59 66 53
69 60 57
60 42 41
87 70 67
76 70 66
69 65 63
67 63 57
74 64 63
57 56 53
58 56 51
63 56 54
74 68 65
67 56 52
43 42 39
46 41 39
77 67 58
69 65 65
68 61 55
79 77 75
124 121 120
61 54 52
81 50 44
60 58 58
49 47 45
59 56 53
89 84 82
66 58 54
83 73 72
47 41 41
70 65 64
64 57 53
72 61 57
59 54 45
105 67 63
61 56 55
85 60 58
78 54 52
64 56 51
71 63 61
63 50 45
62 55 50
87 72 67
79 73 71
38 27 27
61 49 46
59 53 49
51 46 45
57 50 49
57 53 49
66 58 57
65 57 51
61 49 46
74 52 48
65 61 54
65 54 53
66 51 49
73 67 63
54 42 39
61 61 59
80 72 70
46 35 35
55 40 36
46 35 35
58 56 52
85 69 68
35 30 26
69 45 44
77 72 67
57 55 52
52 49 38
53 48 48
73 38 38
54 49 47
79 42 34
66 57 55
56 68 52
60 52 50
61 55 49
105 83 71
83 59 58
61 55 49
59 50 44
68 57 56
39 26 22
58 45 45
44 32 31
46 35 34
59 53 49
63 54 51
72 60 58
50 48 47
69 41 41
74 61 61
73 51 49
60 47 46
66 50 50
56 47 47
44 28 26
61 51 48
70 60 60
69 47 47
58 52 43
64 61 57
53 44 42
48 41 39
50 51 44
47 33 31
65 55 48
56 59 52
58 40 40
74 44 41
57 47 46
51 42 40
52 47 45
54 41 40
54 39 39
67 51 45
63 54 52
42 50 39
49 49 44
44 20 16
51 43 38
47 41 36
61 46 45
46 42 42
62 43 42
41 28 28
55 36 34
59 49 48
47 41 39
51 43 41
51 29 27
53 40 39
65 41 40
64 48 47
47 40 40
72 58 58
60 35 34
63 54 49
72 38 38
70 41 35
48 41 38
44 42 35
49 39 38
46 39 39
43 34 30
43 17 17
55 52 51
58 36 36
42 10 9
58 15 15
55 15 14
42 10 9
62 16 16
67 16 16
72 16 16
70 18 18
38 11 9
54 14 12
81 14 13
53 12 12
55 15 14
61 17 16
71 18 17
70 17 17
58 15 15
56 14 13
62 14 14
72 19 18
73 18 18
63 18 17
73 19 19
61 16 15
82 23 22
72 19 18
84 22 22
92 25 24
80 21 21
81 22 21
78 21 21
84 22 22
79 21 21
111 28 28
64 17 17
74 19 19
103 28 27
77 20 20
77 21 20
83 22 22
78 22 21
71 16 15
112 32 30
88 20 20
76 20 20
92 24 23
85 21 21
75 20 20
87 24 22
79 22 21
76 20 19
79 20 20
70 19 19
87 22 22
87 23 22
91 24 24
91 24 24
98 22 22
88 23 23
92 24 24
103 28 27
93 25 25
94 25 25
72 19 19
81 22 22
72 20 19
55 15 14
120 33 32
73 18 18
91 24 23
75 20 19
83 23 23
77 19 19
88 24 23
78 21 20
79 21 21
85 23 22
72 19 19
70 19 19
73 20 19
77 21 20
73 19 18
88 24 24
64 17 17
91 22 21
68 17 17
67 18 18
69 19 18
81 21 20
63 17 16
72 18 17
98 24 23
73 19 18
71 19 19
59 16 15
61 16 16
53 15 14
81 22 22
71 19 18
53 12 12
62 17 16
94 26 25
59 18 16
57 16 15
97 16 16
73 20 19
68 16 16
54 13 12
60 14 13
50 14 13
64 17 17
59 16 16
75 20 19
62 17 17
67 18 17
66 18 17
45 12 12
0 0 0
0 0 0
0 0 0
0 0 0
0 0 0
0 0 0
0 0 0
0 0 0
0 0 0
0 0 0
0 0 0
0 0 0
0 0 0
0 0 0
0 0 0
0 0 0
0 0 0
0 0 0
0 0 0
0 0 0
0 0 0
0 0 0
0 0 0
0 0 0
0 0 0
0 0 0
0 0 0
13 27 13
23 40 23
21 39 21
19 38 20
24 43 24
24 43 24
31 57 33
21 41 23
28 44 25
25 43 25
31 56 32
24 47 26
27 51 29
25 49 27
28 51 28
26 43 25
34 61 35
33 64 36
24 53 27
36 71 38
21 40 21
29 53 30
30 56 31
30 55 31
36 67 39
25 45 26
23 44 25
34 66 38
32 61 35
27 49 27
29 54 30
28 45 25
33 63 35
32 60 34
29 55 31
23 43 25
37 69 39
31 60 33
32 61 34
34 64 36
36 68 38
46 89 51
32 63 36
35 68 37
27 47 26
35 61 35
38 72 41
33 65 37
34 64 36
34 63 36
34 61 35
32 58 33
29 57 32
38 72 40
38 72 41
34 66 36
34 66 38
30 56 31
37 70 39
39 73 41
29 55 31
33 62 34
37 68 39
35 65 36
36 69 39
36 69 39
36 68 39
39 74 42
40 78 44
34 60 34
38 68 38
31 61 34
32 59 33
32 60 34
40 69 39
43 85 45
36 66 37
34 60 33
33 61 35
31 62 33
32 64 34
39 77 42
76 141 81
33 64 36
39 77 42
28 54 30
34 66 37
37 72 39
27 48 27
35 64 36
33 59 33
40 80 45
33 65 36
26 46 25
26 53 28
40 77 43
31 64 35
18 35 17
31 57 32
28 52 29
43 82 46
35 55 30
26 55 27
25 47 25
22 40 19
26 46 25
31 60 33
24 47 26
28 47 25
25 48 26
22 40 22
21 39 20
18 35 18
24 44 25
23 38 21
24 45 24
31 47 26
33 41 33
42 37 32
45 38 32
36 48 36
45 43 36
49 51 48
44 49 43
42 44 38
38 30 24
48 48 42
49 49 44
76 78 75
61 72 56
51 55 45
30 26 20
46 50 39
66 63 60
53 56 47
49 28 22
52 47 47
41 31 25
48 43 38
43 34 30
48 63 47
67 50 44
41 49 42
55 72 56
34 37 30
35 40 35
54 63 55
48 46 36
55 41 36
50 54 44
54 56 48
65 61 58
35 39 32
46 53 35
70 71 64
35 40 35
56 57 53
44 46 37
40 46 40
55 54 45
62 77 61
62 60 55
29 43 29
61 54 52
50 54 42
46 45 33
40 47 36
52 52 44
65 62 57
48 51 43
52 45 40
62 76 58
53 51 49
63 58 55
56 48 45
66 64 64
60 75 57
44 46 38
47 45 40
41 40 39
64 64 59
62 67 58
69 54 50
60 59 54
48 45 37
140 137 135
47 50 39
54 41 37
79 49 43
51 49 45
48 56 38
59 89 56
50 48 44
68 68 64
75 59 53
53 44 41
52 52 49
50 56 46
55 61 54
45 49 43
47 44 37
71 61 55
73 75 71
55 56 51
66 71 59
71 62 59
63 58 54
54 56 51
59 65 59
61 65 61
69 67 61
65 66 61
78 70 68
42 53 41
59 55 50
73 68 62
70 66 62
60 65 57
59 62 54
67 66 55
54 61 46
63 60 56
74 67 65
63 66 60
66 56 54
80 67 61
54 50 43
66 86 68
61 63 55
46 48 41
65 64 59
56 56 53
56 67 55
74 75 67
38 43 38
57 47 45
73 64 60
90 63 58
45 42 38
81 73 68
48 48 46
63 62 58
49 60 49
71 69 65
58 61 55
50 46 43
72 58 53
59 55 52
61 61 55
65 62 57
75 60 56
60 54 52
63 64 60
68 65 61
69 68 66
99 65 60
65 63 61
75 70 68
55 57 50
65 58 54
61 53 50
64 61 59
56 61 53
70 70 66
82 80 71
65 66 62
81 81 78
59 48 45
91 81 74
91 74 74
72 62 55
62 55 53
55 58 46
48 40 37
74 69 62
77 74 65
69 63 61
74 71 67
90 59 57
64 61 60
83 73 71
65 49 48
86 79 76
63 61 60
60 51 47
63 60 59
58 56 51
80 76 75
75 68 65
80 67 64
78 66 64
64 63 61
75 63 57
65 56 54
63 64 58
64 72 63
60 52 46
60 57 53
69 68 64
53 51 46
78 59 55
71 73 69
59 64 55
62 60 57
60 52 46
59 59 53
50 39 35
71 62 58
85 79 77
58 53 50
67 58 56
68 68 64
84 86 79
59 53 49
71 84 69
60 55 55
73 70 68
54 58 51
69 59 53
57 45 40
97 59 58
83 74 73
59 55 53
58 57 53
50 41 40
63 59 57
54 57 48
76 59 58
86 81 70
84 79 79
58 52 49
80 60 52
78 77 76
59 51 48
76 71 64
96 75 72
58 49 47
70 61 60
77 68 68
66 57 54
61 49 47
79 58 57
72 48 45
54 42 41
45 35 34
75 76 69
74 65 62
73 68 67
98 81 80
64 51 50
63 58 56
56 43 41
60 51 49
61 46 46
110 111 106
84 55 52
87 86 81
64 50 43
54 50 49
99 78 76
76 62 59
64 57 56
77 48 47
72 45 41
47 44 41
76 68 64
71 67 60
68 56 54
61 48 45
58 47 45
77 70 68
44 36 31
69 58 56
51 50 43
89 69 65
99 44 42
54 36 36
71 52 50
54 42 41
64 51 50
59 58 57
60 55 49
65 58 56
84 65 64
71 33 33
64 56 54
77 67 64
70 64 63
91 67 64
55 28 26
77 49 47
46 38 34
46 38 37
54 53 47
59 64 50
46 33 32
53 41 37
80 76 61
74 44 43
75 52 50
57 35 33
67 79 60
51 47 46
66 41 38
65 46 45
59 50 50
57 42 37
57 62 47
49 38 37
63 50 49
63 57 50
62 39 36
52 43 40
59 50 48
86 69 65
59 39 36
64 61 59
76 41 39
51 39 39
69 56 56
57 42 37
51 45 35
120 115 114
62 33 29
47 41 37
56 49 44
63 43 43
60 58 54
54 42 40
40 21 15
50 34 33
54 44 43
61 36 36
57 44 42
43 45 38
58 44 42
67 37 37
68 44 44
49 32 32
55 46 41
38 29 26
56 40 40
43 38 36
57 49 46
48 42 37
52 31 31
60 56 54
54 49 47
66 47 43
61 47 46
48 34 33
70 49 39
39 21 20
33 29 20
57 53 52
65 12 11
53 10 9
41 10 9
72 22 18
47 11 11
69 17 17
65 16 14
70 19 18
59 16 15
58 15 15
66 15 15
65 16 15
56 15 14
55 12 12
55 14 14
50 13 13
66 16 15
66 18 17
59 14 13
75 19 18
75 20 19
80 22 21
74 20 18
61 16 16
70 19 18
84 23 22
77 20 19
93 24 24
74 20 20
92 24 23
68 20 18
93 20 19
113 28 28
86 23 22
117 32 32
86 23 23
81 22 21
96 24 24
77 22 20
86 23 23
73 20 19
92 24 24
56 16 15
102 26 25
79 22 21
106 28 28
102 19 19
85 23 22
86 24 23
82 22 22
77 20 19
80 21 21
76 19 19
68 19 18
92 23 23
89 26 24
59 15 14
71 18 18
85 23 23
64 14 14
96 24 23
92 26 25
101 26 26
84 23 22
70 18 17
55 14 13
83 22 22
82 22 22
79 21 21
76 21 20
87 22 22
80 21 20
76 21 20
60 16 15
101 25 25
67 17 17
76 21 20
73 20 20
73 20 19
78 21 20
77 21 20
66 17 16
79 21 21
77 22 21
75 20 20
70 19 19
72 19 19
79 21 21
75 20 20
78 21 21
83 22 22
88 20 19
85 23 23
70 18 17
60 19 16
71 20 19
60 18 16
46 12 11
86 24 23
78 22 21
100 27 26
76 21 20
45 12 11
78 22 21
67 19 18
72 20 19
57 16 15
52 13 12
59 16 15
57 15 15
53 15 14
80 21 20
63 17 16
70 19 18
52 14 13
73 19 19
177 49 49
37 11 10
0 0 0
0 0 0
0 0 0
0 0 0
0 0 0
0 0 0
0 0 0
0 0 0
0 0 0
0 0 0
0 0 0
0 0 0
0 0 0
0 0 0
0 0 0
0 0 0
0 0 0
0 0 0
0 0 0
0 0 0
0 0 0
0 0 0
0 0 0
0 0 0
0 0 0
0 0 0
0 0 0
10 19 11
33 54 31
21 37 20
23 43 22
21 51 22
31 58 33
31 62 35
32 61 34
25 49 26
32 62 35
23 43 25
41 79 45
37 70 40
25 47 26
24 45 25
32 61 35
27 47 27
37 65 37
34 64 37
26 51 28
33 62 35
31 54 31
33 60 34
30 57 32
31 57 31
39 66 38
27 51 29
29 53 30
27 50 27
32 58 33
23 44 24
35 67 37
28 56 31
39 75 41
23 42 23
50 79 45
31 49 28
32 62 35
46 84 48
42 79 46
33 61 34
34 65 37
31 57 31
39 70 40
52 143 59
32 60 34
37 69 39
35 69 38
32 60 34
28 54 30
32 61 34
34 63 36
42 80 45
32 56 32
30 52 29
26 45 25
38 74 42
41 91 45
36 68 38
35 66 38
41 74 41
38 72 41
38 68 38
36 65 37
40 75 43
39 75 42
37 73 41
37 68 39
40 75 42
37 64 36
38 74 42
34 66 37
31 57 33
33 62 34
32 60 33
40 77 41
28 50 28
36 68 38
41 77 44
35 67 36
37 67 38
38 74 42
34 64 36
37 71 41
36 67 38
34 66 36
39 76 43
39 71 39
35 63 35
38 73 40
29 54 31
29 55 31
32 59 34
39 76 42
36 67 38
33 63 36
31 58 32
21 36 20
35 65 37
29 54 29
28 53 27
36 80 38
30 58 31
30 59 31
25 49 27
30 56 30
29 49 27
20 39 19
23 45 25
26 47 26
29 57 32
22 43 22
27 53 29
20 41 20
20 39 21
24 47 24
25 49 26
28 29 18
54 47 43
26 38 22
63 58 48
35 35 23
41 44 38
43 32 27
41 48 39
33 38 27
50 51 49
66 68 64
57 51 49
27 25 15
37 41 33
67 53 48
61 50 48
48 62 47
56 53 38
50 52 42
31 27 22
42 47 37
39 46 38
41 38 32
50 55 48
43 47 37
44 46 39
48 53 46
64 52 48
55 48 41
58 60 53
55 51 45
63 61 57
39 41 35
42 46 37
55 54 48
28 29 23
58 56 53
49 50 44
51 54 50
52 55 52
51 55 51
49 53 48
60 58 55
53 60 52
44 41 37
50 40 31
28 32 24
41 42 40
38 45 37
69 71 65
28 33 25
55 52 50
49 52 46
70 66 63
52 49 37
42 32 31
91 80 75
29 28 24
55 60 52
65 69 63
49 56 48
64 53 46
71 54 49
59 56 49
34 39 34
61 53 47
50 48 43
54 55 49
69 71 67
62 69 62
56 60 51
54 63 48
64 49 46
58 54 47
58 47 42
44 52 44
46 45 40
52 49 45
57 54 46
45 46 39
51 47 44
53 59 52
73 77 71
58 55 48
65 66 56
40 40 36
47 50 42
71 50 46
73 87 61
52 64 53
69 75 68
73 64 58
60 58 53
57 59 55
40 38 31
56 51 48
66 60 57
54 52 47
56 78 52
83 82 79
59 59 53
48 52 43
88 99 74
55 54 46
77 61 53
60 60 57
64 92 65
66 64 60
69 68 63
58 54 52
58 57 53
57 56 54
67 57 54
63 62 57
47 45 44
72 64 61
68 71 65
46 45 39
58 57 55
64 75 58
65 59 55
83 67 63
50 53 49
84 69 67
94 86 84
69 73 58
69 60 58
58 54 50
67 62 57
68 70 62
55 53 48
55 39 38
114 85 76
71 63 59
73 66 60
55 56 52
61 49 46
78 75 71
71 75 66
72 69 65
97 59 57
65 61 59
73 63 58
70 60 58
62 53 47
78 70 69
69 63 62
72 65 60
52 43 41
78 70 67
77 65 58
62 58 56
67 74 65
71 70 69
82 72 71
70 67 63
54 55 51
62 61 58
88 85 84
74 63 62
62 52 48
61 65 59
74 67 66
68 58 55
57 57 50
81 72 66
75 69 67
71 66 65
63 61 60
74 71 66
78 72 69
52 51 46
74 76 72
98 81 75
62 52 49
72 70 63
73 60 55
78 82 73
67 64 62
53 49 47
110 105 104
64 63 62
54 52 48
83 81 81
57 54 52
69 66 62
61 57 53
56 46 41
82 64 63
74 65 62
73 61 59
85 76 71
58 57 52
68 63 61
106 54 53
85 76 75
56 58 51
72 59 57
72 66 65
59 55 53
57 52 46
75 67 65
70 59 55
66 52 51
86 66 65
229 78 76
65 63 56
61 60 57
72 68 65
63 57 55
64 49 46
73 70 64
70 53 51
58 36 36
61 50 49
61 51 48
61 51 48
76 80 69
71 63 62
81 53 50
80 62 57
54 47 45
65 53 51
69 62 59
53 53 50
67 53 49
79 68 59
77 70 67
75 73 71
80 70 61
89 83 83
55 53 52
65 69 61
58 53 51
69 50 47
88 68 68
53 49 48
83 72 70
72 67 55
81 74 72
111 107 104
80 62 59
66 62 60
61 55 50
49 46 42
43 42 36
47 28 26
75 65 62
44 40 37
62 63 58
71 56 55
67 55 54
79 51 49
68 52 50
68 49 49
78 62 60
69 67 60
59 52 51
62 44 42
78 60 58
87 85 83
127 51 51
63 60 55
203 55 55
52 39 38
57 42 42
61 46 46
53 42 41
71 79 64
72 49 48
65 58 57
62 31 31
52 42 40
61 50 48
54 44 42
40 35 25
75 59 53
70 56 55
40 28 25
47 32 29
44 38 38
51 40 37
51 37 34
67 50 49
44 44 36
68 50 49
51 39 36
74 61 59
58 53 45
81 69 67
54 44 43
48 33 32
83 59 58
88 54 54
84 60 59
75 51 48
62 53 52
75 71 70
56 35 35
48 40 40
53 40 39
62 80 56
63 53 52
100 53 49
76 57 54
62 39 37
60 40 36
111 54 53
62 41 41
56 47 42
56 55 47
66 60 58
67 54 54
48 51 39
70 65 63
83 74 73
52 47 46
55 40 37
67 43 43
46 35 33
68 59 58
54 46 41
46 43 39
61 40 40
60 47 44
45 31 30
69 57 57
49 42 42
43 32 28
59 40 40
59 50 47
58 47 43
85 47 40
72 55 53
38 35 33
75 35 33
59 49 48
43 20 20
41 10 8
34 12 8
59 16 15
47 11 11
43 9 8
71 16 15
58 11 10
71 18 17
87 16 16
77 15 15
52 13 13
52 13 13
54 14 13
61 15 14
55 14 13
51 13 12
69 15 15
68 18 17
59 15 15
62 16 15
50 12 12
95 25 24
69 18 17
84 21 20
75 21 20
73 18 18
66 18 17
83 22 22
84 23 22
76 19 19
84 19 19
93 25 25
88 23 22
67 16 16
62 16 16
99 23 22
96 26 26
99 25 24
78 21 21
99 26 25
82 22 22
70 20 18
203 23 23
109 30 29
78 19 19
81 21 21
90 24 24
88 23 23
65 18 17
90 23 23
86 24 23
92 25 24
84 22 22
91 24 24
81 22 21
75 20 20
118 28 28
78 22 21
85 23 23
72 19 19
76 20 19
63 16 16
71 19 19
78 21 21
84 22 22
81 21 21
67 18 18
83 21 21
87 24 23
88 24 24
61 13 13
84 23 23
60 16 16
87 24 24
61 16 16
71 19 19
88 23 23
69 19 19
81 23 22
55 14 14
59 16 15
66 18 17
65 18 17
64 17 16
75 20 20
56 16 15
91 25 24
89 22 22
75 21 20
124 34 34
70 20 19
79 21 20
84 22 22
73 17 16
73 21 20
84 23 23
62 17 16
72 19 19
75 21 20
76 19 19
51 14 14
86 23 23
72 19 19
77 21 20
75 17 17
74 21 19
64 17 17
62 18 16
65 18 18
70 19 18
83 22 22
75 21 20
53 15 14
107 28 28
60 17 16
64 17 16
48 13 13
50 13 13
0 0 0
0 0 0
0 0 0
0 0 0
0 0 0
0 0 0
0 0 0
0 0 0
0 0 0
0 0 0
0 0 0
0 0 0
0 0 0
0 0 0
0 0 0
0 0 0
0 0 0
0 0 0
0 0 0
0 0 0
0 0 0
0 0 0
0 0 0
0 0 0
0 0 0
0 0 0
0 0 0
27 51 29
19 34 19
24 35 19
28 50 28
25 49 28
26 50 29
25 45 25
26 55 26
33 64 35
24 37 20
24 44 25
27 52 29
25 45 26
29 53 30
36 68 38
21 40 23
38 71 40
26 49 28
26 47 26
31 61 34
30 58 33
25 48 26
37 68 39
18 35 18
28 52 29
31 58 33
43 78 45
42 78 45
34 65 37
26 46 26
38 70 40
20 30 17
28 52 29
34 61 34
33 65 37
30 55 31
31 57 32
33 62 35
36 66 37
37 70 39
38 75 41
34 74 36
31 55 31
36 57 33
36 69 39
33 56 31
29 52 29
31 59 33
36 68 39
36 76 39
34 62 35
43 83 48
36 68 39
32 60 34
30 58 32
38 72 40
36 66 38
38 71 41
35 69 39
42 82 46
36 66 37
34 70 37
31 58 33
37 73 41
44 82 46
36 69 38
38 75 42
42 79 45
45 80 45
31 62 34
36 68 38
43 70 39
35 65 36
33 60 34
37 68 38
30 57 32
29 53 29
39 73 41
32 60 34
33 62 35
33 61 35
35 62 35
41 75 43
29 55 30
34 67 37
39 72 41
32 65 35
35 66 37
35 65 36
29 58 32
36 71 39
33 61 34
28 50 27
29 58 32
29 57 31
34 66 37
35 65 35
30 58 32
34 69 37
25 46 25
36 70 40
32 61 34
33 65 35
24 47 25
23 47 24
31 55 31
27 42 23
25 48 27
26 47 25
29 55 30
29 52 29
20 35 20
26 44 24
25 47 25
25 44 24
21 40 23
19 33 18
31 54 33
40 46 38
40 41 35
51 45 41
34 36 31
39 26 22
38 44 35
48 50 46
61 60 55
88 55 45
70 66 65
45 43 36
70 46 39
41 45 41
55 84 52
51 55 49
16 28 16
58 47 45
45 45 36
48 76 41
46 49 43
52 63 52
36 28 22
49 45 38
63 60 53
33 36 30
46 54 45
34 40 32
58 54 47
50 51 46
44 51 44
75 74 66
51 60 49
63 56 50
77 79 73
51 54 47
69 66 64
63 66 59
55 49 45
35 46 35
62 57 52
63 47 40
61 49 47
56 67 47
65 68 65
34 36 33
44 51 42
64 60 58
56 51 49
62 62 59
65 69 63
51 56 46
54 57 49
44 47 42
49 44 40
57 50 49
49 59 47
48 55 46
40 45 40
64 44 41
41 32 26
54 60 46
46 45 41
70 65 63
66 46 43
93 92 87
59 57 51
71 64 60
47 49 42
74 61 58
57 61 50
59 52 48
82 66 60
66 72 64
67 65 60
55 55 50
34 34 26
59 76 57
68 62 48
57 59 53
71 68 61
60 62 57
60 52 45
51 51 47
55 56 50
64 57 54
55 60 48
73 53 52
77 77 73
76 59 54
67 65 64
59 60 58
46 64 46
61 52 47
79 75 72
74 66 61
64 58 50
46 50 45
62 53 48
57 52 49
58 60 55
55 59 52
99 64 60
65 68 62
54 55 51
79 100 76
53 51 45
59 63 58
67 71 65
63 63 60
64 53 47
65 61 57
62 61 59
79 84 77
74 70 64
86 81 77
59 69 56
74 71 63
67 69 65
75 69 68
75 75 70
43 43 38
46 44 41
68 65 61
74 62 59
63 61 59
55 56 49
65 62 60
86 74 70
65 67 63
70 66 63
65 68 64
61 60 56
72 72 68
52 49 47
70 68 63
71 67 63
87 76 74
66 57 55
63 61 59
71 65 62
68 64 60
63 57 55
49 46 43
77 78 75
54 56 53
54 55 51
66 64 62
63 59 56
76 69 67
76 70 67
77 75 67
61 60 57
60 62 58
87 76 73
78 82 74
78 76 74
68 62 58
63 48 47
69 59 56
64 64 56
63 59 55
83 73 71
79 76 68
97 75 70
72 71 67
71 64 61
81 75 68
51 44 41
63 50 46
69 59 58
81 75 71
76 106 74
87 95 85
62 60 57
82 61 58
62 58 54
52 40 38
84 74 70
76 59 57
59 58 53
70 60 59
70 56 55
63 63 55
60 54 51
67 61 60
61 61 58
67 62 56
66 60 58
68 60 57
60 56 54
74 66 62
51 55 46
78 72 69
61 58 54
67 67 63
76 60 58
103 92 91
97 95 93
73 67 64
105 88 85
53 49 47
59 62 56
63 58 52
76 70 57
57 61 52
74 59 58
82 86 81
78 69 67
75 60 58
86 75 73
61 62 60
150 85 84
78 62 58
85 66 62
77 68 67
68 65 62
72 55 54
56 51 49
56 55 49
92 67 66
66 58 54
101 94 87
64 56 53
68 53 53
70 65 63
70 61 60
73 68 65
70 62 58
53 47 46
70 64 55
56 50 46
65 68 62
62 34 30
63 53 51
68 73 65
85 57 56
76 75 65
58 48 47
58 54 53
72 61 59
47 37 37
69 62 59
64 56 50
58 41 34
57 51 49
82 51 47
54 50 47
68 51 50
83 81 79
114 67 66
55 48 46
51 36 35
59 59 56
34 30 26
54 42 42
60 46 44
255 96 92
50 49 43
58 51 49
81 75 73
56 51 47
53 59 44
65 58 55
53 37 32
59 56 51
62 49 45
58 49 49
61 47 47
57 34 32
67 63 63
59 49 47
52 49 45
70 60 58
61 50 47
70 58 57
55 37 36
70 57 53
64 58 54
78 71 69
59 39 36
53 43 43
48 40 39
62 55 52
47 48 42
61 55 54
61 46 45
49 44 42
47 43 41
62 70 53
58 56 51
54 47 43
65 53 52
41 37 35
67 51 44
54 37 36
46 37 35
55 43 41
53 29 26
49 45 40
70 49 40
101 95 94
58 45 36
41 33 32
62 48 45
49 38 37
61 53 53
39 27 27
46 24 19
78 55 47
67 60 57
117 54 48
51 42 39
46 36 36
59 45 43
51 36 36
54 49 49
47 47 40
55 37 36
54 48 45
68 70 59
58 53 53
54 44 40
56 48 45
38 27 25
59 51 48
70 44 42
79 25 23
68 47 47
69 39 37
49 20 20
28 14 12
49 45 35
54 48 45
65 28 28
52 45 45
64 53 50
47 34 34
38 11 10
54 14 13
60 16 16
64 15 14
33 9 8
54 14 13
68 17 17
49 12 11
64 16 15
78 20 20
60 16 16
65 17 17
59 16 15
69 17 17
72 15 14
56 15 15
66 21 17
77 20 19
78 21 21
59 16 15
59 16 15
87 21 21
70 19 18
71 18 17
83 21 21
73 18 17
80 21 21
85 21 21
79 22 21
81 21 21
82 19 18
90 24 24
118 32 32
88 24 23
85 23 22
85 22 22
85 17 16
95 24 23
98 28 26
72 20 19
89 24 24
100 27 27
84 22 22
89 23 23
76 20 19
78 21 20
71 20 19
77 21 20
67 29 18
99 26 26
88 24 23
86 22 21
88 24 23
90 24 24
75 20 19
72 18 17
82 21 21
105 28 27
77 21 21
87 21 21
88 24 23
67 17 17
78 20 20
86 31 23
90 23 22
72 18 18
103 27 26
77 21 21
65 18 17
79 22 21
76 20 20
87 23 22
74 20 19
62 16 16
59 17 16
80 22 21
69 19 18
69 18 18
55 15 14
86 23 22
83 22 21
61 16 15
76 21 19
92 26 25
78 20 19
68 18 18
70 19 18
57 16 15
76 21 20
61 17 16
72 20 19
145 24 24
67 18 18
104 17 16
76 20 20
84 22 22
62 16 15
59 15 15
58 16 15
63 16 16
65 17 17
68 18 18
79 20 20
56 16 15
67 18 18
53 14 14
61 17 16
69 18 17
72 19 19
78 20 20
54 14 14
57 15 14
55 15 14
63 17 16
42 11 11
34 10 9
49 14 13
40 10 10
0 0 0
0 0 0
0 0 0
0 0 0
0 0 0
0 0 0
0 0 0
0 0 0
0 0 0
0 0 0
0 0 0
0 0 0
0 0 0
0 0 0
0 0 0
0 0 0
0 0 0
0 0 0
0 0 0
0 0 0
0 0 0
0 0 0
0 0 0
0 0 0
0 0 0
0 0 0
0 0 0
26 51 29
21 38 21
25 47 27
29 54 31
36 68 39
30 50 28
26 50 28
25 49 28
31 58 33
19 35 18
26 50 28
35 50 28
22 38 22
27 51 29
31 60 33
32 56 32
32 59 32
28 54 30
28 52 29
33 67 37
23 45 25
27 45 24
26 47 27
40 77 44
33 60 35
31 57 32
34 61 35
26 45 25
36 65 37
32 60 34
31 62 34
27 48 27
34 63 36
30 60 33
33 61 35
29 54 31
27 45 26
33 62 35
41 78 44
40 76 44
43 81 46
38 67 38
31 59 32
29 55 31
30 58 32
42 77 44
33 61 35
46 92 50
41 77 44
31 58 33
40 72 40
41 79 46
38 70 40
38 76 41
42 79 45
40 76 43
32 62 35
36 70 39
38 71 40
36 70 39
34 66 36
34 66 37
39 71 40
35 70 39
37 67 38
38 76 42
33 62 35
31 61 34
43 81 46
35 69 37
37 73 41
32 61 35
40 79 44
33 63 36
33 64 35
34 63 36
34 66 37
41 80 45
39 72 41
38 72 40
34 62 35
41 82 45
37 71 40
42 65 36
38 71 41
36 69 39
39 76 43
33 61 35
28 53 27
31 59 33
31 58 32
28 56 30
32 60 33
36 66 36
33 64 36
32 58 32
29 56 31
32 60 34
32 54 30
33 61 34
30 59 32
34 62 34
29 56 31
34 59 34
19 37 19
25 48 26
31 55 31
33 62 31
29 55 31
32 61 33
23 44 22
34 63 34
23 49 24
23 44 25
25 51 28
20 39 20
26 51 28
44 51 44
49 49 45
39 40 36
48 50 47
65 61 55
49 55 49
20 26 17
40 39 34
57 51 47
54 50 45
52 53 47
56 59 54
63 70 59
37 37 31
47 45 41
66 65 63
39 45 37
61 55 49
47 54 46
43 43 39
40 46 39
41 53 34
112 66 62
43 42 41
43 41 38
63 52 45
53 52 45
68 64 61
85 75 71
46 36 22
54 64 49
32 34 31
49 44 37
50 54 46
68 76 61
56 54 48
55 66 52
86 56 48
61 59 54
38 62 35
54 60 53
44 47 40
54 62 54
49 52 45
44 45 41
50 43 39
70 61 56
54 60 53
57 57 39
70 64 58
54 60 50
41 47 40
60 54 48
55 59 49
76 56 51
75 67 61
57 64 56
54 61 48
70 65 59
58 65 55
67 66 58
47 50 42
56 60 53
64 65 61
51 48 38
47 52 44
54 65 53
67 64 62
63 50 49
50 63 48
51 55 46
57 54 50
53 53 50
77 75 69
54 55 50
59 56 51
74 73 68
47 48 44
71 74 63
46 46 45
85 82 79
66 65 61
82 71 69
54 50 47
68 57 39
75 62 54
49 50 45
57 67 56
51 49 41
64 65 62
71 73 65
49 50 45
73 62 57
74 65 61
59 59 54
59 53 51
61 61 56
46 38 33
50 49 45
69 70 66
78 67 63
70 71 65
76 68 54
70 69 66
78 94 71
73 74 64
64 62 58
49 49 41
64 66 57
39 42 33
82 82 80
67 65 62
41 42 38
71 62 59
63 52 50
83 75 71
64 64 58
77 68 64
70 66 61
67 63 61
64 67 59
74 73 68
80 67 63
65 65 59
71 70 67
69 64 61
54 55 51
66 67 63
76 73 72
68 63 58
66 62 59
48 46 41
49 50 42
83 65 62
66 65 61
41 48 42
77 77 72
81 74 67
73 60 57
57 54 50
65 61 58
79 81 78
57 58 53
57 55 52
66 61 58
70 73 61
66 64 58
78 76 68
67 69 64
62 52 50
82 61 58
57 58 53
65 63 61
77 75 70
59 57 55
94 79 73
80 82 78
74 70 68
67 64 56
67 67 62
72 57 55
80 82 77
60 55 52
87 83 81
59 58 54
66 51 49
72 65 61
84 78 75
59 54 52
69 62 61
60 54 51
66 61 59
55 48 45
77 69 68
72 67 65
63 60 50
69 61 60
64 64 62
74 71 66
68 61 60
66 63 58
70 72 67
67 64 61
71 65 64
75 77 70
62 65 55
72 51 49
67 68 63
92 97 88
91 81 74
57 52 51
50 52 44
74 66 64
68 55 54
72 53 49
70 62 60
64 63 60
80 83 71
60 57 55
69 63 57
75 68 65
96 69 68
59 57 54
59 52 51
68 58 57
58 52 51
35 33 28
63 61 59
73 63 62
70 61 57
106 102 99
75 63 63
76 63 58
77 68 65
63 58 55
64 61 58
78 63 62
78 72 69
76 61 59
99 98 97
52 53 49
73 62 60
81 63 59
81 67 64
58 65 55
71 45 44
55 48 47
72 63 62
73 67 65
102 65 63
69 61 58
65 62 61
82 65 60
74 73 67
71 49 46
74 69 65
61 50 48
95 70 67
85 52 51
77 71 69
73 61 56
53 56 44
72 56 55
55 50 48
103 96 94
70 60 60
63 53 52
78 69 65
63 57 55
55 49 48
62 64 58
63 53 52
76 64 62
63 54 52
69 60 59
76 57 56
70 44 44
62 55 53
68 63 60
58 38 34
57 43 43
65 49 48
74 69 66
73 54 51
48 50 46
72 44 43
48 37 34
65 55 52
53 41 41
57 45 43
59 51 47
76 62 58
64 57 51
72 69 58
63 43 43
61 59 52
57 47 44
62 58 54
73 61 60
60 51 49
68 57 55
101 103 93
57 29 27
80 79 70
53 44 41
75 64 61
73 69 61
64 53 48
61 52 50
50 45 39
80 57 51
53 51 49
78 51 51
75 49 44
62 42 38
52 49 46
82 41 38
61 59 55
54 46 44
64 53 50
47 40 36
52 51 47
62 55 55
70 61 61
63 44 44
51 34 26
54 52 51
62 51 50
64 44 43
74 67 65
51 40 39
84 49 44
96 70 70
59 43 39
87 76 74
72 67 60
56 45 43
71 49 49
70 34 34
55 31 31
59 52 51
61 30 24
47 45 40
50 41 41
53 36 31
53 42 40
58 36 36
75 59 59
42 29 24
41 31 30
61 49 43
56 59 54
42 27 24
56 38 32
40 34 32
55 52 52
58 43 42
39 43 36
30 7 6
53 11 10
54 13 12
65 13 12
64 15 15
56 14 12
53 14 14
63 12 11
42 10 10
81 20 20
65 15 14
57 15 14
62 17 16
84 22 22
73 19 18
68 15 15
76 19 19
51 14 13
71 19 18
84 19 18
105 28 28
64 16 15
67 17 17
86 23 23
76 20 20
106 29 29
81 21 21
65 17 17
68 17 17
67 19 17
102 27 27
84 23 22
80 23 21
81 21 20
84 22 21
79 20 20
94 23 23
86 22 22
79 21 20
88 23 22
68 18 17
83 22 21
115 31 31
107 21 21
86 23 22
100 27 27
102 27 26
84 23 22
80 20 20
95 26 25
81 22 22
91 26 25
87 23 23
105 27 27
110 21 20
73 18 17
75 20 19
67 17 16
89 25 24
85 22 22
80 22 21
78 19 18
78 22 21
99 26 25
79 21 21
98 26 25
89 23 23
87 23 22
88 23 23
72 20 19
90 25 24
91 25 24
98 27 26
84 22 22
82 22 22
88 20 20
73 19 19
75 20 19
72 19 19
89 24 24
75 19 19
75 21 21
79 21 20
73 20 20
92 24 24
90 24 24
52 13 13
78 21 20
55 13 13
70 18 18
82 22 22
76 21 20
74 20 19
58 15 14
66 18 17
59 16 16
64 17 15
66 18 17
59 16 15
68 18 17
81 22 21
53 15 12
57 15 15
68 19 19
58 14 14
72 18 18
68 19 18
65 18 17
69 19 18
71 19 18
50 13 13
62 17 16
66 18 17
78 20 19
64 18 17
64 18 18
53 14 13
20 5 4
0 0 0
0 0 0
0 0 0
0 0 0
0 0 0
0 0 0
0 0 0
0 0 0
0 0 0
0 0 0
0 0 0
0 0 0
0 0 0
0 0 0
0 0 0
0 0 0
0 0 0
0 0 0
0 0 0
0 0 0
0 0 0
0 0 0
0 0 0
0 0 0
0 0 0
0 0 0
0 0 0
8 10 3
22 42 24
23 40 22
30 57 32
39 75 43
28 49 28
26 47 26
37 62 35
30 57 32
28 52 29
26 50 29
30 56 31
24 42 23
26 49 28
24 46 26
32 62 34
30 54 30
30 58 33
19 36 20
27 46 25
35 67 38
31 61 35
26 49 28
26 48 27
26 49 27
19 36 18
27 52 29
27 49 28
32 61 34
25 44 25
35 61 35
30 58 33
32 53 30
26 59 29
35 70 38
27 52 28
32 58 32
35 67 38
39 58 33
38 65 37
29 56 31
32 63 35
39 75 43
34 65 37
29 57 32
40 76 42
31 59 34
36 70 38
29 57 31
32 59 33
33 62 35
33 61 34
36 68 38
54 88 51
36 69 39
37 71 41
32 65 35
38 61 33
38 72 40
31 57 32
35 67 39
39 79 42
37 74 41
36 72 40
30 54 30
35 66 37
35 68 38
45 94 49
42 82 47
36 71 40
38 72 41
33 63 36
37 71 39
42 75 42
33 67 37
34 64 36
39 76 43
37 71 40
39 84 43
36 69 39
31 60 34
36 66 37
31 60 34
41 78 44
41 75 42
42 78 44
34 75 37
39 74 41
28 51 28
31 59 32
41 75 42
36 67 38
42 78 44
30 58 32
37 60 34
31 61 35
30 55 29
28 53 30
29 56 31
32 60 33
49 56 30
34 67 37
29 54 30
24 41 22
25 48 26
28 56 30
29 58 32
24 44 25
30 46 25
23 46 25
24 43 24
26 48 27
28 52 28
28 48 27
26 58 28
21 33 15
31 51 29
28 37 25
50 49 43
32 39 32
42 47 41
36 32 22
63 73 59
69 54 41
45 40 33
47 55 47
38 42 36
41 45 40
69 57 50
49 39 38
61 55 50
54 48 42
72 54 47
68 71 65
32 34 31
82 58 54
47 52 44
37 41 31
55 49 44
58 61 48
59 63 55
49 55 38
64 63 57
43 48 39
49 49 45
47 44 42
42 46 38
57 59 51
53 63 51
47 37 34
56 50 45
58 53 46
71 75 68
69 68 62
65 62 58
39 48 38
52 58 51
65 64 56
46 51 44
46 44 38
54 63 50
78 52 51
38 46 39
63 84 62
48 43 36
57 52 47
49 49 41
79 72 68
53 56 47
51 59 50
59 65 59
63 60 55
61 61 58
46 52 43
54 61 48
55 49 47
77 72 70
66 73 63
57 52 49
58 52 44
67 55 51
58 56 52
57 51 43
60 66 58
88 83 80
53 52 47
113 70 65
62 65 52
59 61 55
59 59 56
65 63 57
102 62 49
70 94 71
57 57 52
62 58 54
66 66 60
71 50 46
66 66 60
56 51 47
82 89 71
86 61 57
74 76 71
70 72 64
71 76 71
69 76 67
56 58 52
66 61 57
73 70 68
59 59 57
61 50 46
72 67 52
67 61 58
59 62 51
69 69 66
67 55 54
91 68 67
55 56 51
69 71 67
66 67 62
59 53 52
46 45 42
75 63 61
56 45 41
76 65 64
49 46 41
78 76 70
80 76 74
88 63 60
73 93 70
63 59 58
94 86 79
48 49 40
80 75 72
67 64 57
65 60 59
61 71 56
67 61 58
61 61 57
70 76 60
88 72 63
52 45 39
77 79 76
74 62 55
69 68 62
73 70 67
73 65 61
59 62 58
61 61 56
57 45 42
83 76 73
60 63 55
68 66 57
76 73 71
84 66 62
68 66 63
79 57 56
82 58 57
63 68 61
57 59 53
67 68 56
72 65 63
65 65 59
47 47 44
83 74 58
64 66 55
85 76 65
87 87 79
49 52 48
86 79 77
64 55 52
63 62 60
61 61 58
67 59 58
80 82 78
68 71 61
81 78 74
55 49 47
92 84 81
60 57 57
78 73 72
77 72 68
62 52 45
79 81 77
80 84 75
76 70 67
66 67 60
67 56 54
88 74 71
81 92 81
70 65 64
64 56 52
75 70 67
62 67 62
77 77 74
65 59 57
80 55 52
65 52 48
63 60 58
69 65 61
105 68 66
68 67 66
56 46 44
85 72 68
62 59 57
70 67 66
63 64 50
78 71 69
51 49 46
82 68 62
62 62 59
82 78 73
60 52 51
72 67 67
72 67 63
75 68 66
90 86 85
47 48 43
60 55 51
64 56 51
60 50 48
71 67 67
71 59 55
62 58 56
93 85 83
65 54 54
75 72 69
77 58 56
60 53 51
81 74 69
66 56 52
99 73 71
65 59 57
74 57 55
60 55 52
69 64 60
63 59 56
78 78 72
83 73 72
72 61 54
81 74 70
57 36 35
57 36 35
70 64 60
67 62 61
79 69 69
65 53 50
81 63 62
67 60 55
60 49 45
81 88 73
48 49 44
64 61 59
50 37 37
125 72 70
52 43 43
118 100 99
68 49 46
63 62 59
77 68 55
71 53 53
76 64 62
61 53 51
80 86 77
112 107 101
75 47 47
62 53 51
55 43 41
70 56 56
68 56 52
85 70 68
63 49 48
64 59 58
57 35 35
84 63 61
61 52 46
64 62 59
61 55 50
71 49 48
73 59 53
59 52 47
68 57 54
72 61 60
59 36 33
51 42 41
49 41 38
50 40 38
48 49 41
67 56 56
71 59 56
65 54 53
67 64 58
55 42 41
87 75 71
55 43 41
69 63 57
67 52 50
55 41 41
75 60 57
60 53 51
70 65 65
50 42 40
50 42 39
79 71 68
61 55 53
58 54 54
78 60 58
59 45 42
51 41 38
69 49 48
69 64 62
55 45 43
40 36 32
61 53 50
51 36 32
68 59 57
48 36 34
37 28 26
67 62 60
63 60 57
60 48 48
52 41 34
81 72 71
55 45 38
70 64 58
46 32 31
85 59 58
54 54 40
75 49 46
68 52 51
51 44 44
40 36 34
36 27 26
76 66 66
74 45 45
69 63 63
36 18 18
37 24 22
78 37 35
42 30 27
98 41 41
50 40 36
62 55 54
73 37 32
58 56 50
72 65 64
44 16 12
63 40 39
54 35 34
39 33 32
64 61 47
54 41 36
81 68 68
61 54 52
53 48 47
82 58 58
36 9 8
48 12 11
147 12 12
67 17 17
46 12 11
78 19 17
72 16 15
63 16 16
79 19 19
72 15 15
67 17 17
89 19 18
73 17 16
62 17 16
84 22 22
66 18 17
71 17 17
69 15 15
72 20 19
57 15 14
84 22 22
83 22 21
70 19 18
74 19 19
69 17 17
66 16 16
67 18 17
86 22 21
82 23 22
80 29 22
82 21 21
92 24 24
75 20 19
90 24 24
89 24 24
97 26 25
79 21 20
85 23 22
109 27 25
85 22 22
79 22 21
107 25 25
81 21 21
77 21 20
82 22 21
90 24 24
95 26 24
80 22 21
100 21 21
87 24 23
78 21 20
91 25 24
100 27 26
85 23 23
84 23 23
86 23 23
76 20 18
65 18 17
67 18 18
92 25 24
94 24 23
103 26 26
79 21 20
57 15 15
80 25 22
154 41 41
77 20 19
80 22 22
77 20 19
76 22 21
103 27 27
78 21 21
125 32 32
83 23 22
94 25 25
97 22 21
79 21 20
63 16 16
77 21 20
80 21 20
56 14 13
81 20 20
73 19 19
75 23 19
81 22 22
94 25 25
78 21 21
77 21 20
83 22 21
86 24 23
46 13 11
72 19 19
60 18 16
79 22 21
60 15 15
41 11 11
69 18 18
67 17 17
90 24 24
65 18 17
52 13 12
70 18 18
72 20 19
61 17 16
55 15 15
110 30 30
67 19 18
42 12 11
70 19 19
80 22 21
63 18 17
70 18 18
76 21 20
49 13 13
55 14 14
65 17 17
44 13 12
54 15 15
0 0 0
0 0 0
0 0 0
0 0 0
0 0 0
0 0 0
0 0 0
0 0 0
0 0 0
0 0 0
0 0 0
0 0 0
0 0 0
0 0 0
0 0 0
0 0 0
0 0 0
0 0 0
0 0 0
0 0 0
0 0 0
0 0 0
0 0 0
0 0 0
0 0 0
0 0 0
0 0 0
17 32 18
32 61 35
31 55 31
29 53 30
22 38 21
26 47 26
29 52 29
31 61 35
32 62 35
31 58 33
33 62 35
13 23 11
35 65 37
40 73 42
34 63 35
28 53 30
33 60 34
49 96 54
26 49 27
27 54 30
32 60 34
22 40 23
24 47 26
25 50 28
29 53 30
36 68 39
28 56 31
36 69 40
32 63 35
29 51 28
35 61 35
32 64 36
33 64 36
40 76 44
28 53 30
30 55 31
29 48 28
30 51 29
28 53 29
41 77 43
37 68 38
42 80 46
34 68 38
30 52 29
34 68 38
34 64 37
38 72 41
31 60 33
29 56 31
38 63 36
31 60 34
35 67 38
29 53 30
27 50 27
36 65 37
37 66 38
38 67 38
43 78 44
40 76 43
34 65 36
34 66 37
41 76 43
34 63 35
42 82 46
40 76 43
30 58 33
37 67 38
37 72 40
38 68 38
39 73 41
41 79 45
40 75 42
32 62 34
35 77 37
31 58 33
34 63 36
33 59 33
41 78 43
35 67 38
34 59 34
32 57 32
34 62 34
35 67 38
36 69 39
37 69 38
35 67 38
29 56 31
31 66 35
38 74 42
34 63 35
37 69 39
37 59 33
29 58 33
27 48 26
34 65 37
22 43 22
28 58 29
30 57 31
25 49 27
31 60 34
32 49 27
23 46 25
29 41 21
38 69 39
30 58 32
31 59 32
21 43 22
26 47 25
27 53 29
27 51 28
26 52 26
27 48 27
20 45 20
18 34 18
23 48 24
23 43 23
15 26 12
46 48 42
37 34 27
49 48 42
65 62 58
39 39 34
54 44 36
44 43 37
52 57 52
33 35 33
73 63 57
49 47 44
36 46 33
50 49 45
41 41 34
60 62 58
49 55 49
36 37 34
65 52 49
58 65 56
57 66 55
59 64 57
65 48 47
51 38 35
41 44 35
49 57 49
50 57 49
56 59 53
55 61 55
44 52 43
35 47 35
58 62 56
45 46 39
61 68 56
61 52 47
71 66 62
62 62 56
55 54 50
51 51 43
62 58 46
54 59 51
66 65 61
62 61 57
52 51 43
53 59 53
63 59 51
63 63 57
64 68 63
56 54 51
56 84 58
58 62 56
63 54 48
70 64 61
54 58 48
69 69 61
58 58 55
68 64 60
87 87 84
56 59 55
74 70 63
61 69 60
52 45 44
49 47 44
55 54 46
66 67 54
54 43 40
54 47 41
57 60 56
51 45 39
66 52 47
52 56 48
65 64 60
62 63 57
61 58 54
61 58 53
47 51 39
45 41 35
67 65 62
56 38 33
55 49 45
74 70 66
48 53 39
55 54 52
58 52 48
52 50 43
52 63 52
56 56 51
69 69 65
55 58 49
85 78 70
57 59 52
63 58 56
59 60 57
77 67 65
57 77 58
70 63 59
108 91 80
81 80 74
66 66 61
54 58 52
66 60 55
65 66 61
65 69 63
48 48 45
66 73 60
39 44 38
58 60 55
71 59 58
62 61 55
72 74 68
71 72 62
60 55 53
71 73 66
81 77 69
63 62 60
55 53 48
60 59 54
65 64 59
54 56 51
67 68 65
48 46 45
113 70 68
69 56 52
89 89 87
75 69 64
70 70 66
62 64 57
84 84 77
75 59 59
80 75 73
75 76 72
57 54 50
55 51 43
77 76 70
52 53 51
91 67 62
84 62 57
59 62 55
80 75 72
68 76 65
70 52 51
74 58 55
74 67 66
80 68 63
93 90 88
75 58 55
78 72 69
71 66 62
84 88 84
72 57 55
63 58 54
63 68 60
52 50 45
99 100 84
74 61 56
64 60 56
63 61 58
75 72 68
79 76 73
58 42 41
78 79 75
81 83 75
89 63 61
68 69 65
81 76 74
87 79 73
92 72 69
58 58 51
77 71 70
81 70 68
81 67 61
72 58 52
71 74 69
68 67 60
81 74 73
78 64 60
103 69 64
90 81 77
78 75 73
91 75 70
55 43 38
70 65 63
64 51 51
58 47 45
90 83 80
94 76 65
78 63 62
60 56 53
62 64 58
72 69 57
79 72 70
54 46 40
71 93 69
76 75 69
80 79 77
58 53 51
53 50 47
75 69 64
81 81 76
67 57 57
70 69 66
66 53 51
61 54 52
72 65 62
74 62 61
161 77 76
72 61 57
73 63 58
86 73 72
60 54 52
73 60 60
77 83 73
55 43 41
60 59 55
81 68 66
62 60 59
77 81 72
58 55 50
72 65 61
92 83 81
89 73 72
40 35 32
213 211 210
66 56 55
68 67 62
54 47 45
67 57 56
68 60 59
42 44 38
74 70 66
64 59 57
64 45 43
64 53 52
75 60 60
50 37 36
70 64 64
66 49 48
59 58 52
63 71 55
86 82 80
81 78 74
71 55 52
60 51 46
56 49 47
61 51 47
186 21 16
72 51 49
108 76 58
49 48 36
66 62 62
84 77 73
69 64 62
72 55 55
42 35 34
55 47 45
69 63 62
71 61 57
67 60 56
77 72 67
76 47 47
72 71 67
59 55 53
95 86 81
67 49 48
71 42 39
61 56 54
76 65 63
68 49 40
41 29 27
76 67 67
52 42 40
60 49 47
73 62 58
67 57 56
67 58 57
62 61 59
60 55 53
66 50 50
50 36 34
50 35 32
63 58 53
64 58 55
56 44 42
64 59 55
71 62 62
59 67 48
45 36 34
61 50 49
56 51 49
71 53 53
60 55 55
80 68 62
66 47 47
45 40 30
74 61 55
110 105 105
50 35 33
60 51 43
67 53 50
67 69 59
99 97 92
56 48 47
49 35 35
49 45 44
57 52 50
67 45 41
79 73 72
34 29 27
49 36 36
53 33 33
74 49 40
71 41 38
50 36 32
64 57 57
51 31 31
69 59 59
67 58 55
48 33 30
36 18 18
50 49 46
62 32 29
74 42 35
99 82 81
52 45 45
63 51 49
42 32 32
70 61 58
65 58 58
55 48 47
52 38 35
44 31 25
45 39 37
76 67 54
37 33 31
62 41 37
42 32 27
55 44 43
60 49 46
43 46 41
51 14 13
54 12 11
47 14 12
49 13 13
61 15 14
84 22 22
47 13 12
55 13 13
63 16 16
99 20 19
86 22 21
52 13 12
70 17 16
75 18 17
51 15 13
62 16 15
72 16 15
78 18 18
67 16 16
65 17 17
114 30 30
75 20 20
86 21 20
65 16 16
82 22 22
70 17 17
79 22 21
83 22 21
88 24 24
87 24 23
74 19 19
66 18 17
81 20 19
85 23 23
98 25 24
98 26 25
80 22 21
82 22 22
80 22 21
83 22 22
86 20 20
78 21 20
83 21 20
109 26 26
78 20 20
100 27 26
81 21 21
93 25 24
100 28 27
98 25 25
81 23 22
92 25 25
81 20 20
92 25 24
90 25 24
81 22 21
91 25 25
76 20 20
104 29 28
73 20 20
77 21 21
80 22 22
89 23 22
100 27 26
71 19 18
90 24 24
73 18 17
75 20 20
78 21 21
78 21 20
84 22 21
82 24 22
82 22 22
84 22 22
85 23 23
81 21 21
68 18 17
90 18 18
90 22 21
77 21 21
71 18 18
73 19 19
65 16 15
77 21 20
69 17 16
78 21 21
85 23 22
78 20 20
65 18 17
61 16 15
68 17 17
83 23 22
73 20 20
76 20 20
68 18 17
66 18 17
80 20 19
55 15 15
75 21 20
52 14 14
67 18 18
78 21 21
106 23 23
54 15 14
46 12 12
69 19 19
52 13 13
65 18 18
63 17 17
65 15 14
49 12 11
70 19 19
61 16 16
77 19 19
49 13 12
50 11 11
57 16 15
49 14 13
0 0 0
0 0 0
0 0 0
0 0 0
0 0 0
0 0 0
0 0 0
0 0 0
0 0 0
0 0 0
0 0 0
0 0 0
0 0 0
0 0 0
0 0 0
0 0 0
0 0 0
0 0 0
0 0 0
0 0 0
0 0 0
0 0 0
0 0 0
0 0 0
0 0 0
0 0 0
0 0 0
13 26 15
24 44 25
22 42 21
29 53 30
31 58 33
30 56 32
31 59 33
23 41 23
30 53 30
27 56 30
77 150 86
24 48 26
60 59 34
25 47 27
16 29 14
32 62 35
34 66 37
29 55 30
28 53 30
33 57 33
31 57 32
30 59 33
25 50 27
21 36 20
24 47 26
33 61 34
28 53 30
32 61 34
26 51 28
37 68 39
24 44 25
23 43 24
32 56 32
33 62 35
32 60 34
26 48 27
31 58 32
43 82 47
33 65 36
26 45 25
35 70 37
34 66 37
24 47 26
25 46 25
31 58 33
26 49 27
45 70 40
33 64 36
40 68 39
38 73 41
33 60 34
33 69 37
37 67 38
28 55 31
36 70 40
34 65 36
37 74 41
38 71 40
37 76 38
33 60 34
44 85 48
39 74 42
38 73 41
34 68 37
33 65 35
31 60 34
32 56 32
39 80 43
41 79 45
41 79 44
32 60 33
36 71 40
42 79 45
38 73 40
52 64 36
31 59 33
43 82 47
34 56 32
38 80 39
40 76 43
38 69 39
37 69 39
40 77 44
32 57 32
34 65 36
47 78 43
33 65 36
34 64 36
29 52 29
29 53 29
40 74 41
33 59 34
31 59 33
46 53 30
39 72 39
31 63 33
36 71 38
28 51 28
29 55 31
37 70 40
27 50 28
30 56 31
39 73 41
28 54 29
34 62 35
26 47 26
62 197 73
21 37 19
28 56 31
27 47 25
24 47 25
30 55 31
31 60 34
29 49 28
25 46 25
20 38 21
19 33 18
28 36 27
40 43 39
52 54 48
32 37 30
56 49 44
42 32 26
37 41 35
54 54 51
48 49 43
28 32 27
52 63 49
39 39 35
40 37 32
52 48 46
66 57 49
47 50 43
40 42 36
56 56 55
41 45 41
41 43 39
61 37 34
33 33 31
56 57 51
48 50 43
52 76 54
45 44 42
73 66 62
61 49 39
55 54 50
56 61 51
46 40 38
74 68 64
55 50 46
66 70 65
49 53 41
73 73 69
53 63 54
48 50 45
51 57 49
67 64 59
45 49 42
66 65 59
49 53 48
67 58 53
94 48 45
67 70 62
64 65 56
64 60 55
46 54 45
68 64 59
50 51 44
66 74 65
45 55 42
60 73 58
66 59 47
48 48 43
68 72 62
59 61 54
38 47 37
53 51 46
70 53 51
89 55 51
47 56 45
50 50 44
51 61 51
59 63 59
95 63 57
69 65 58
65 57 54
111 113 110
45 45 39
58 58 53
46 49 44
58 48 43
55 52 50
60 62 55
55 59 53
60 53 49
78 81 74
77 74 70
73 66 64
73 73 67
54 58 53
57 68 56
58 58 54
83 80 77
64 60 58
62 66 57
54 49 46
62 65 62
57 65 54
57 63 57
53 50 47
84 83 76
55 56 48
72 71 65
84 72 69
76 68 64
53 52 47
97 79 75
72 64 62
77 73 70
65 64 62
97 80 75
76 75 72
90 72 67
78 52 47
65 68 63
62 52 49
83 73 69
90 89 86
69 70 66
59 51 49
57 57 48
78 79 72
69 93 70
58 56 52
80 71 64
53 67 52
82 100 76
72 74 67
69 53 52
48 50 42
76 81 70
72 66 63
72 74 71
73 80 70
57 57 49
103 86 80
57 59 56
84 58 57
71 65 61
103 89 84
65 59 57
76 65 60
69 69 64
83 67 64
75 58 56
71 62 61
92 79 76
68 65 62
71 73 68
70 63 58
68 64 61
77 72 67
85 72 70
65 65 57
81 74 69
69 69 58
93 84 82
53 58 52
81 76 74
76 62 61
95 96 92
61 56 55
75 78 74
65 55 53
64 65 60
77 75 73
55 53 51
86 82 73
63 55 51
77 74 70
54 51 49
77 73 69
87 72 70
81 78 75
108 106 104
94 87 85
74 69 61
75 72 70
99 63 62
97 77 74
71 68 66
62 50 49
63 65 61
80 72 69
93 89 86
71 72 66
76 72 69
73 74 68
73 68 65
77 68 66
57 50 48
93 88 87
76 69 66
75 75 72
68 63 59
67 66 63
61 57 48
69 65 62
74 74 70
129 83 82
67 61 59
86 82 82
102 64 60
73 72 69
82 61 58
57 56 53
74 63 62
67 58 57
70 66 62
92 82 79
66 58 53
64 67 63
68 70 66
78 72 71
66 64 57
84 69 67
87 76 73
71 63 60
68 64 61
77 77 73
83 74 72
80 76 73
59 55 53
74 67 67
75 69 68
89 54 53
100 88 86
67 60 58
79 78 75
67 60 59
79 69 65
77 64 61
82 63 59
75 69 68
73 66 65
74 65 64
58 51 49
66 50 50
71 70 63
71 65 64
58 54 47
68 59 56
55 47 45
71 66 62
43 43 39
52 45 43
76 77 70
111 102 98
63 36 32
69 65 62
77 66 65
61 54 54
72 71 65
55 35 35
61 54 48
65 49 46
59 50 49
73 55 53
71 65 63
79 70 68
71 64 56
66 63 62
67 65 61
85 65 64
72 62 61
67 59 53
59 53 52
69 49 47
56 53 51
76 62 59
75 69 69
71 58 55
58 46 45
85 65 59
65 52 50
70 60 58
61 48 48
55 56 50
65 49 49
82 86 76
73 71 69
55 47 42
81 65 64
52 65 46
62 54 48
67 55 53
72 61 58
62 55 55
69 68 61
70 48 46
61 42 41
63 63 58
65 52 51
101 96 93
65 53 52
99 98 97
53 40 40
68 55 54
66 47 46
83 71 70
50 43 40
60 49 46
54 44 42
73 59 57
66 59 52
51 45 39
66 46 45
44 38 37
75 58 58
55 46 46
62 48 48
64 57 53
68 55 52
59 46 37
62 52 52
52 45 42
81 73 71
71 65 63
57 41 39
51 44 42
78 68 67
64 51 49
50 49 44
66 63 60
58 52 52
56 26 25
56 42 40
61 43 41
49 30 30
34 15 15
72 43 42
62 59 55
53 46 45
55 71 50
57 49 45
61 29 26
84 53 50
38 33 21
46 32 30
58 46 45
56 47 43
70 62 58
67 53 49
55 49 49
44 26 23
66 13 12
67 16 14
65 17 17
67 16 16
72 19 18
59 15 14
52 12 11
97 21 20
44 13 12
45 11 10
58 16 15
57 14 13
86 17 17
74 17 15
101 27 27
73 19 19
60 15 15
81 21 20
119 16 16
71 19 18
69 18 17
54 14 14
68 18 18
80 19 19
96 25 25
70 19 19
84 23 23
78 19 18
112 31 30
73 21 20
81 22 21
95 25 25
91 26 25
84 22 21
84 25 22
93 26 25
155 40 40
95 27 26
69 19 17
84 23 22
77 21 21
79 21 20
107 29 29
80 20 20
101 27 27
132 23 23
79 22 21
102 27 27
86 23 22
78 20 20
100 26 26
100 27 26
79 22 21
98 27 26
85 22 22
86 21 21
86 23 23
78 20 20
88 24 23
82 22 21
91 25 24
85 23 22
90 24 23
96 26 25
89 22 21
96 26 25
49 12 12
125 23 23
85 22 22
73 20 19
88 24 23
72 18 18
72 20 19
95 26 25
78 21 20
71 20 19
78 21 21
92 22 22
91 25 25
60 16 15
83 22 22
63 17 16
110 26 25
65 17 17
87 22 22
70 19 18
81 20 20
57 15 15
70 18 18
76 20 20
75 19 19
72 20 19
71 18 18
60 16 15
81 22 22
85 23 23
65 18 18
59 16 16
68 18 18
77 20 20
58 16 15
74 16 16
56 16 15
63 16 16
65 19 17
55 16 15
69 20 18
74 20 20
52 14 13
66 18 18
46 12 12
67 18 18
62 17 17
58 15 15
66 18 18
63 14 14
66 18 17
37 9 9
0 0 0
0 0 0
0 0 0
0 0 0
0 0 0
0 0 0
0 0 0
0 0 0
0 0 0
0 0 0
0 0 0
0 0 0
0 0 0
0 0 0
0 0 0
0 0 0
0 0 0
0 0 0
0 0 0
0 0 0
0 0 0
0 0 0
0 0 0
0 0 0
0 0 0
0 0 0
0 0 0
13 27 14
23 46 26
24 45 25
14 26 14
31 56 32
27 53 30
37 70 40
28 55 30
18 34 19
28 51 29
32 52 29
36 70 39
30 59 33
32 61 34
23 42 23
25 45 25
38 78 42
38 72 41
19 35 19
36 65 37
36 67 38
35 66 36
52 102 58
30 56 32
24 45 25
31 57 33
33 63 36
31 61 33
54 67 38
35 67 38
28 51 29
25 44 25
29 57 32
33 65 36
30 54 31
35 57 32
32 63 35
39 74 42
36 69 39
41 80 45
42 78 44
38 69 39
31 60 34
40 76 43
39 71 40
33 60 33
34 66 37
36 68 38
30 55 31
38 74 41
32 57 32
25 46 25
47 90 51
40 76 44
33 61 34
33 62 35
32 58 32
25 51 26
36 71 40
34 66 38
39 67 37
34 65 37
37 74 41
36 71 39
39 71 40
36 68 38
41 72 41
34 66 37
42 76 43
36 68 38
38 69 40
29 56 31
34 64 36
34 65 37
43 75 42
34 65 36
36 68 38
37 69 39
39 70 40
45 83 47
45 86 49
53 77 44
32 64 35
38 72 41
28 51 28
39 72 40
35 63 36
28 53 29
49 65 35
33 63 35
31 63 35
28 50 28
29 55 31
33 61 35
34 66 36
30 57 32
35 65 36
27 49 27
39 69 39
30 57 32
34 60 33
37 63 36
32 60 33
30 53 29
27 49 26
29 48 25
32 61 34
29 57 31
29 53 28
23 46 25
42 76 42
28 46 24
25 45 25
20 34 18
29 57 32
16 29 15
23 43 23
37 46 37
44 49 44
39 28 20
63 60 55
51 49 41
37 46 37
52 55 44
58 64 57
32 41 33
61 53 48
53 50 39
46 50 43
45 54 43
40 50 40
54 47 42
54 54 47
44 50 44
41 39 34
75 73 67
75 69 67
56 66 51
43 43 35
57 63 55
63 67 62
42 50 39
54 59 50
48 54 49
61 65 58
74 60 52
28 35 28
45 51 43
76 55 48
67 57 55
55 60 53
49 50 41
43 47 40
47 47 41
53 57 51
55 57 50
57 56 52
54 61 54
52 47 41
43 46 42
54 54 52
40 36 26
51 41 38
66 64 58
61 57 47
61 59 54
62 55 53
53 56 48
59 47 41
52 63 52
75 73 69
58 62 56
53 56 47
57 60 52
54 48 45
77 82 77
54 54 52
55 54 53
58 61 52
66 65 62
65 60 54
64 74 61
52 59 51
60 61 57
75 77 68
65 56 53
86 60 48
64 60 54
73 68 61
63 66 57
61 65 61
50 47 37
61 54 52
71 71 67
58 59 50
62 89 61
59 68 57
66 71 63
77 76 74
51 59 50
80 73 71
78 84 64
74 64 62
65 66 62
53 49 47
65 62 58
64 67 62
58 54 50
91 86 78
60 58 52
71 64 59
66 69 65
66 56 52
112 113 111
66 68 63
80 73 71
56 62 54
76 68 66
76 58 56
83 74 72
59 55 54
54 57 51
69 75 65
48 53 45
60 61 56
71 71 67
56 56 52
60 57 54
71 62 56
72 70 68
69 62 60
85 84 81
121 85 82
71 65 59
69 70 64
62 63 55
70 62 60
75 75 72
77 74 72
64 59 54
61 65 53
82 76 72
60 63 56
79 70 67
73 66 62
80 71 70
75 69 62
92 74 72
78 86 70
63 64 61
69 67 64
60 57 52
81 79 76
73 75 71
65 60 57
77 74 70
93 93 89
91 73 73
76 52 47
102 102 99
75 77 70
77 75 72
74 68 64
81 79 75
79 77 76
77 68 67
52 55 50
61 62 57
80 79 76
80 90 79
80 82 74
77 71 68
70 69 69
98 90 88
63 64 59
82 83 80
84 82 72
77 67 63
68 59 58
67 65 57
69 64 61
52 55 47
52 54 51
68 66 65
74 65 60
66 59 56
71 65 63
73 63 60
68 67 63
49 48 47
75 67 63
60 61 57
60 55 52
82 82 81
77 69 67
61 60 55
52 61 53
67 67 64
93 87 86
81 76 73
87 72 69
50 48 47
73 64 61
80 57 53
71 62 62
79 70 68
93 88 87
71 62 60
151 152 149
79 68 67
83 70 70
66 59 56
67 61 61
85 73 72
95 83 76
60 55 51
81 58 54
58 47 45
93 87 85
71 62 62
152 65 60
66 60 56
94 87 84
83 70 67
68 68 65
78 77 72
79 74 73
68 66 64
51 46 42
75 68 65
71 70 66
72 66 66
85 79 77
71 68 65
86 72 68
78 80 77
84 84 76
72 74 69
70 67 65
74 63 60
93 72 70
58 51 50
84 81 77
66 64 62
75 54 53
86 82 80
84 80 76
58 59 51
68 69 62
87 82 75
73 67 62
62 63 60
58 46 43
79 69 68
68 59 59
83 51 48
77 71 69
62 54 51
86 74 71
65 58 56
62 56 54
89 78 74
66 52 50
80 50 49
93 61 60
68 53 49
65 43 40
82 80 74
73 68 55
66 58 52
57 43 41
101 58 56
67 47 46
63 55 54
58 48 47
78 69 66
70 65 63
47 38 34
63 56 50
62 57 56
52 46 43
63 51 50
53 54 46
61 58 58
74 61 59
90 60 59
74 67 65
68 48 47
86 55 52
46 42 41
51 36 34
70 61 57
59 53 52
60 50 42
81 78 73
77 57 56
68 44 44
57 47 46
60 58 52
70 71 67
69 45 44
52 35 35
77 68 68
84 80 79
59 46 45
67 45 43
43 40 36
63 59 55
54 47 46
64 51 51
44 34 34
60 43 42
58 50 46
57 40 36
60 50 49
81 59 58
65 55 54
53 49 47
54 52 49
62 55 52
85 76 74
84 45 44
47 38 38
59 57 54
43 45 36
71 53 53
50 43 42
85 65 63
128 66 65
70 48 45
70 46 46
45 36 30
42 29 27
82 49 48
46 35 35
85 64 63
64 59 59
52 43 39
55 43 37
69 43 40
55 46 43
41 27 22
69 60 59
58 52 49
54 54 51
51 42 30
43 43 35
60 46 45
47 22 21
41 24 23
65 57 55
26 13 9
46 33 27
57 34 34
56 53 47
42 12 12
35 7 7
51 12 12
42 9 9
61 13 13
65 17 16
85 20 20
46 12 11
58 15 15
124 34 34
75 19 18
58 16 15
66 17 16
70 19 18
67 16 16
57 14 13
82 22 22
70 18 18
87 23 23
60 16 15
74 19 18
73 19 18
79 20 19
70 15 15
71 18 17
83 21 20
90 25 24
78 20 20
70 18 17
77 21 20
81 21 21
77 21 20
83 19 19
86 24 23
70 16 16
59 17 16
84 21 21
104 28 28
87 23 22
100 24 24
104 25 24
94 24 23
88 22 21
89 24 23
82 23 22
78 21 20
64 17 16
80 22 21
82 23 22
78 20 20
88 22 22
172 47 46
75 20 20
69 18 18
75 20 20
137 38 37
88 25 24
86 22 21
111 31 30
99 27 27
92 25 25
78 20 19
118 32 32
71 18 18
87 24 24
90 24 24
74 19 19
93 25 25
84 22 21
76 21 21
94 23 23
74 20 20
82 22 22
89 24 24
95 25 25
82 22 21
85 22 21
98 27 26
73 18 18
91 25 25
55 14 14
79 22 21
78 20 19
68 19 18
68 18 18
85 23 22
73 20 20
78 22 21
83 21 20
76 23 21
82 22 21
80 21 21
82 22 22
72 19 19
90 25 24
77 21 20
89 22 22
68 18 18
56 15 14
86 24 23
52 13 12
84 23 22
92 25 24
110 24 23
72 20 19
68 18 17
63 17 17
58 16 16
73 19 19
45 13 12
75 20 20
64 16 15
84 22 21
59 16 15
72 20 20
72 19 19
55 16 15
27 8 7
0 0 0
0 0 0
0 0 0
0 0 0
0 0 0
0 0 0
0 0 0
0 0 0
0 0 0
0 0 0
0 0 0
0 0 0
0 0 0
0 0 0
0 0 0
0 0 0
0 0 0
0 0 0
0 0 0
0 0 0
0 0 0
0 0 0
0 0 0
0 0 0
0 0 0
0 0 0
0 0 0
12 21 12
28 50 29
29 51 29
35 65 37
23 43 24
45 65 36
30 59 31
23 44 24
31 57 33
35 67 37
32 62 35
25 45 26
22 39 22
27 50 28
40 69 39
32 58 33
30 54 31
30 56 32
25 45 26
30 65 33
34 66 37
35 69 39
23 42 23
36 67 38
29 50 28
25 45 26
26 50 29
31 58 33
29 61 32
27 46 25
30 54 30
34 63 35
39 73 41
39 60 33
36 68 38
34 62 35
33 64 36
30 57 32
43 76 43
37 71 40
34 66 37
29 62 31
37 66 38
32 57 32
30 57 32
28 51 28
34 64 36
48 92 53
35 66 37
31 59 33
28 52 29
37 67 38
34 67 38
33 63 35
37 64 36
36 67 38
33 63 36
32 60 34
39 72 40
35 69 39
39 72 40
39 73 42
40 73 42
37 71 40
36 72 41
37 66 38
40 76 43
39 72 41
40 87 44
32 63 36
31 60 33
35 66 38
36 67 38
36 72 40
42 79 45
37 68 38
30 53 30
36 66 36
36 69 39
40 72 41
41 76 43
31 58 33
36 71 39
32 60 34
31 61 33
37 70 40
36 67 38
36 68 39
35 69 39
34 67 37
29 57 31
28 56 30
27 52 29
34 59 33
30 56 32
33 51 28
29 53 29
35 58 33
38 52 29
33 60 34
28 52 28
35 62 31
36 69 39
32 64 35
33 64 34
34 66 37
24 46 23
36 97 39
23 37 20
29 51 29
28 47 27
28 49 27
24 43 23
23 46 25
22 43 24
27 33 18
25 50 26
28 34 26
51 47 44
50 52 48
47 45 41
40 45 35
51 51 47
40 41 34
39 45 34
76 53 49
58 58 54
62 57 54
73 55 43
38 43 31
43 47 41
49 55 49
51 61 51
63 65 59
53 58 53
22 30 21
42 48 41
26 31 26
67 57 49
58 66 51
66 65 58
68 65 59
48 44 40
25 38 25
38 32 30
48 52 47
47 47 41
57 68 53
49 53 49
38 42 36
63 73 63
61 51 48
62 46 42
65 53 48
50 60 47
57 52 47
58 61 51
69 69 65
69 60 58
50 45 41
98 98 97
72 71 63
58 63 57
51 61 51
63 73 61
58 59 57
72 58 53
45 42 35
58 52 48
45 56 43
43 56 44
70 57 53
59 50 47
74 73 68
70 61 52
65 58 56
71 68 65
54 62 51
82 68 64
50 41 40
55 57 53
63 66 60
59 46 44
44 44 43
55 57 49
60 55 52
56 60 48
68 72 64
58 58 47
57 59 51
62 66 62
66 54 53
48 54 48
62 67 61
57 58 56
54 46 42
62 65 53
56 56 54
53 48 43
71 73 69
65 65 63
57 63 50
63 57 47
69 62 57
57 55 46
67 62 58
80 77 75
66 65 61
48 46 39
88 83 77
63 59 51
71 69 65
78 84 74
88 80 78
49 54 47
70 72 66
60 64 58
51 51 47
75 70 64
78 87 76
54 59 51
64 58 57
59 59 54
54 58 50
68 61 57
72 63 61
53 55 49
82 75 73
65 65 63
64 65 60
64 65 60
95 78 75
89 82 77
73 70 68
68 62 58
69 69 66
76 76 70
65 63 59
80 75 69
70 72 67
68 61 59
66 66 62
80 50 48
65 64 58
70 68 64
77 67 64
65 66 61
75 76 71
64 65 60
60 61 56
92 100 84
84 79 75
73 64 63
66 58 56
77 76 73
68 69 65
68 62 61
75 71 67
67 68 58
92 78 71
78 68 68
102 77 74
76 66 62
63 58 55
89 83 77
77 70 68
65 69 62
79 72 68
90 86 85
96 79 74
82 92 76
76 63 61
57 53 51
66 68 63
69 64 61
67 65 63
92 93 88
62 58 57
78 77 75
80 77 72
75 69 68
61 57 56
59 55 50
69 65 63
59 56 51
83 74 72
65 60 60
74 74 72
80 76 74
71 61 59
98 84 78
71 69 67
73 66 61
79 76 73
88 75 74
65 60 58
67 66 64
69 60 59
58 58 56
55 54 52
62 53 51
95 81 78
66 61 57
84 72 70
61 65 58
64 56 55
63 53 51
89 78 70
67 64 63
161 59 55
78 74 72
59 60 56
74 65 64
92 83 81
75 62 61
59 55 54
92 89 89
73 59 57
44 36 30
74 61 56
79 70 68
90 71 67
74 74 71
75 65 63
67 65 58
89 85 85
75 93 72
82 64 62
65 54 53
60 53 52
61 62 53
91 72 65
89 96 81
67 60 57
84 88 77
65 56 54
112 112 111
76 74 68
62 41 40
70 64 61
55 47 42
65 57 55
64 57 56
62 54 52
81 74 73
86 67 67
85 77 75
76 67 65
83 60 57
56 52 49
66 68 65
64 64 59
80 72 71
62 54 51
58 55 52
68 59 59
51 53 48
77 68 63
91 84 82
74 63 61
81 65 62
68 50 49
72 61 58
72 62 61
75 55 49
91 71 68
64 57 53
48 50 39
76 59 57
64 58 51
74 72 68
72 66 66
113 112 110
67 65 60
62 49 47
66 66 63
68 57 56
65 56 54
46 38 36
63 53 52
68 53 51
59 53 52
78 69 65
55 47 46
80 49 45
72 63 57
57 50 42
78 63 60
72 53 52
58 45 44
74 60 60
86 65 58
117 89 87
58 49 47
106 99 99
63 64 53
78 61 57
66 48 48
82 78 76
95 45 38
73 60 57
76 66 63
64 58 56
77 46 46
80 48 48
73 55 52
68 59 59
61 56 52
64 48 44
64 54 52
90 59 55
56 58 51
74 62 59
75 49 48
63 53 51
103 94 94
61 49 49
75 65 63
64 68 51
59 51 44
56 42 41
55 39 34
49 38 36
66 54 52
79 38 37
65 50 50
79 63 62
59 54 46
54 42 40
58 46 44
71 57 54
51 36 35
70 52 51
69 50 49
56 47 43
83 70 66
61 50 49
59 47 42
57 47 45
74 50 50
51 37 34
63 58 51
58 53 50
57 39 37
69 43 43
42 33 29
43 31 31
120 117 115
65 55 50
73 66 65
73 59 57
35 18 12
49 34 34
35 30 26
59 42 39
63 15 15
72 19 19
50 7 6
59 13 12
55 14 13
58 18 14
54 15 14
51 11 11
58 15 14
72 17 17
62 12 12
63 18 17
87 21 21
59 15 15
52 14 13
68 17 17
62 17 15
63 15 15
77 20 19
78 20 20
66 17 16
63 15 14
87 21 21
80 22 21
119 33 32
144 22 21
80 22 21
91 24 23
95 23 23
80 21 21
80 22 21
68 19 18
68 16 16
89 24 23
89 22 21
93 26 25
84 22 22
75 21 19
71 19 18
81 21 21
83 23 22
80 22 21
81 22 22
95 25 25
76 20 19
69 18 18
99 25 25
106 28 27
84 23 22
124 34 34
93 24 24
87 23 23
83 20 20
107 28 28
87 24 24
95 27 26
79 20 20
82 22 21
94 25 25
73 20 20
68 19 18
80 20 19
81 22 22
97 23 22
95 25 25
76 20 20
76 20 20
93 25 25
124 32 32
95 25 25
84 23 22
59 16 16
78 21 20
76 21 20
64 18 18
81 22 22
68 19 18
86 23 22
74 20 20
74 20 20
79 22 21
84 22 22
85 23 22
74 20 20
98 26 25
79 22 21
81 21 20
67 18 18
73 20 20
66 21 18
65 18 17
60 17 16
85 23 22
69 19 18
75 21 20
63 17 16
64 17 17
64 17 17
57 15 15
69 18 18
78 22 21
63 17 16
54 15 14
66 14 13
59 16 15
61 16 16
90 25 24
75 20 19
73 21 20
62 14 13
69 18 18
58 16 16
74 17 16
63 17 17
49 14 13
64 17 17
31 9 7
15 2 1
0 0 0
0 0 0
0 0 0
0 0 0
0 0 0
0 0 0
0 0 0
0 0 0
0 0 0
0 0 0
0 0 0
0 0 0
0 0 0
0 0 0
0 0 0
0 0 0
0 0 0
0 0 0
0 0 0
0 0 0
0 0 0
0 0 0
0 0 0
0 0 0
0 0 0
0 0 0
0 0 0
19 38 22
33 49 27
33 62 36
29 54 30
28 52 29
33 63 34
33 62 35
32 60 34
28 55 31
29 56 32
26 42 24
27 53 30
30 55 31
23 46 25
30 50 28
25 47 27
27 50 29
19 37 21
29 52 30
28 58 31
30 54 31
28 44 25
33 59 34
30 59 33
25 53 26
29 57 32
32 59 34
31 57 32
25 47 26
33 57 33
43 85 47
28 52 30
33 61 35
28 53 30
35 64 37
36 69 39
33 63 35
32 61 34
32 62 35
30 60 32
31 58 32
38 72 40
32 62 35
34 58 32
34 65 37
35 68 38
39 72 41
33 59 33
41 79 44
29 50 28
30 58 32
37 69 39
39 76 43
37 72 41
40 76 43
38 69 39
31 58 31
35 66 38
36 70 40
34 69 37
32 60 35
37 72 40
35 67 38
34 70 36
43 81 46
39 77 43
35 67 38
37 70 40
35 68 38
35 70 39
38 70 38
45 84 48
34 64 36
44 84 48
38 78 41
34 68 38
38 69 39
29 53 29
39 75 43
39 70 39
35 68 37
40 74 41
40 78 44
39 74 42
36 71 39
36 69 39
38 74 41
44 83 47
35 63 35
37 69 39
31 48 27
27 54 29
35 67 38
38 69 39
33 64 36
32 61 34
32 60 34
31 61 32
28 54 31
32 62 35
28 48 27
32 61 34
32 60 33
40 79 44
29 53 29
24 49 26
31 65 33
27 47 26
32 64 35
24 44 24
25 47 25
32 47 26
26 50 28
29 53 28
24 48 26
24 47 23
29 47 27
38 44 33
40 36 33
64 74 61
51 53 45
52 46 41
41 45 38
50 46 42
95 57 52
42 31 28
40 50 41
65 70 63
70 59 55
52 55 43
54 57 45
64 57 52
40 37 31
47 49 44
68 71 62
73 66 63
50 53 49
33 38 31
33 39 28
41 46 39
80 68 64
47 50 44
48 46 42
47 56 46
43 46 34
62 60 56
66 57 50
51 63 51
52 57 48
85 59 54
42 44 41
53 56 51
46 55 46
75 66 61
69 91 65
56 59 49
48 42 37
48 45 42
72 68 61
46 47 36
55 60 50
53 60 51
43 48 37
63 67 62
50 52 47
55 58 55
56 60 48
69 68 58
54 60 54
69 70 63
59 54 47
59 68 58
51 50 47
59 80 54
75 63 56
55 60 54
58 61 55
60 69 57
56 56 46
67 78 59
77 75 71
51 50 46
64 51 45
49 51 49
47 48 45
83 58 52
71 63 61
63 63 59
70 56 54
71 112 75
80 80 76
75 63 60
62 65 58
45 49 40
80 72 67
70 62 57
69 68 62
65 63 62
54 53 48
59 60 55
81 76 72
54 52 50
73 66 65
58 63 56
56 52 49
51 46 43
72 67 65
93 76 73
54 57 53
66 60 58
86 74 72
62 63 56
62 61 55
85 86 83
73 71 68
69 69 63
74 68 62
49 44 40
47 50 45
60 59 56
58 56 55
57 58 56
69 70 65
59 55 54
56 55 50
59 67 56
81 85 76
76 70 66
59 56 54
69 61 59
141 129 129
52 51 48
66 66 64
67 64 58
87 64 60
58 60 57
72 71 70
67 66 64
66 77 65
59 54 52
71 66 63
79 78 75
55 44 41
65 65 59
80 77 73
65 64 59
77 78 69
57 56 51
65 59 57
82 71 69
74 68 67
70 73 64
92 91 88
66 65 58
70 72 65
73 71 68
88 82 80
73 80 66
71 71 62
68 57 52
94 86 84
94 68 64
76 77 67
77 75 73
78 68 66
76 75 69
59 55 52
76 73 72
99 92 88
78 79 75
72 68 66
68 62 59
74 73 70
64 64 59
85 69 66
79 67 66
72 59 59
68 59 54
88 85 78
122 123 121
147 84 80
77 68 66
62 54 53
75 72 66
104 113 102
66 66 65
71 66 65
71 64 62
71 74 64
57 60 53
69 66 65
91 72 71
74 60 53
74 72 70
84 71 64
48 49 47
60 56 54
58 58 54
59 59 50
85 68 66
87 74 69
92 62 61
75 68 66
70 61 57
85 80 78
63 53 52
94 82 78
75 73 71
81 66 62
66 63 58
64 61 59
80 63 60
67 50 50
81 72 69
69 67 65
73 71 66
91 79 77
76 65 61
76 70 70
74 67 65
79 78 71
69 69 64
62 48 43
85 82 79
78 66 65
84 78 74
74 68 67
78 72 66
54 45 45
70 64 64
74 65 64
69 54 53
80 72 71
97 88 85
65 61 61
81 81 76
79 74 73
79 60 56
68 68 65
90 65 65
93 82 82
76 71 65
72 63 62
60 60 48
57 57 54
61 51 46
80 71 69
81 65 63
77 64 64
71 62 59
68 62 61
69 50 50
52 51 45
75 68 68
74 67 67
98 74 68
69 54 52
69 52 49
60 55 54
77 65 63
63 51 48
72 59 57
81 75 75
60 56 54
76 73 67
87 74 70
71 60 57
54 44 40
75 71 66
60 51 51
85 64 62
74 59 55
63 57 57
56 49 44
72 54 52
93 74 73
60 46 39
60 56 52
66 60 60
89 65 62
74 56 56
62 60 47
78 64 64
100 88 86
85 75 75
60 64 57
65 52 52
60 52 47
52 44 44
67 64 62
63 57 50
73 67 65
69 61 57
62 50 48
49 48 41
61 50 44
66 55 54
73 64 60
53 48 42
61 50 48
60 54 50
65 65 61
60 46 46
67 59 55
65 54 53
80 70 70
61 46 42
67 55 55
72 62 58
65 58 55
66 59 57
113 104 103
68 57 53
136 129 128
82 49 48
70 43 42
73 67 64
55 44 39
56 48 48
59 49 49
57 49 49
79 65 64
62 57 50
63 45 45
54 42 42
58 48 39
56 48 47
53 38 35
109 101 100
87 81 80
72 63 60
69 61 59
59 48 48
71 56 56
40 23 20
63 53 53
55 42 40
77 57 55
38 30 30
139 134 133
72 65 64
55 41 37
52 31 31
58 42 37
39 28 27
45 34 32
60 51 47
75 52 48
56 43 43
60 51 51
60 51 51
60 63 58
58 53 49
72 33 28
53 46 45
25 8 6
48 12 12
53 14 13
67 16 15
69 17 16
79 28 21
68 15 15
62 14 13
59 15 15
75 17 17
57 15 14
57 15 14
69 18 17
65 15 15
66 17 17
66 17 16
86 23 23
77 21 21
75 19 19
85 23 22
59 16 15
78 15 14
70 19 18
75 20 20
109 16 16
85 22 22
110 30 29
72 19 18
91 23 23
92 25 25
89 24 24
80 22 21
78 20 19
86 22 22
75 21 20
87 24 24
86 24 23
90 23 23
97 26 25
97 27 26
88 24 24
92 24 24
77 20 20
89 23 23
88 24 23
100 26 26
87 24 23
96 26 25
83 22 21
97 26 26
98 25 25
89 22 22
94 25 25
79 22 21
76 21 20
98 27 26
88 24 23
83 22 21
90 24 24
87 23 22
101 26 26
84 22 22
93 26 25
91 25 24
93 25 24
70 19 19
75 21 20
84 22 21
82 22 21
71 19 18
84 22 21
76 18 18
72 19 18
81 24 22
72 19 19
85 23 23
68 19 18
66 17 17
76 20 19
67 16 16
86 23 23
88 22 22
74 20 20
60 17 16
63 18 17
77 19 19
72 19 19
93 25 24
79 21 21
64 17 17
85 22 22
61 17 16
91 18 18
65 19 17
59 16 16
86 24 23
69 19 19
87 23 23
81 23 22
67 19 17
67 17 17
43 13 11
75 21 21
50 13 13
46 13 12
68 19 18
78 21 21
62 16 16
63 17 17
72 17 17
63 16 15
72 19 19
70 20 19
68 17 17
67 18 18
65 17 16
59 16 16
53 13 13
0 0 0
0 0 0
0 0 0
0 0 0
0 0 0
0 0 0
0 0 0
0 0 0
0 0 0
0 0 0
0 0 0
0 0 0
0 0 0
0 0 0
0 0 0
0 0 0
0 0 0
0 0 0
0 0 0
0 0 0
0 0 0
0 0 0
0 0 0
0 0 0
0 0 0
0 0 0
0 0 0
20 40 22
39 74 42
20 37 21
25 47 26
34 54 31
30 51 28
31 55 31
27 45 26
24 45 26
33 59 34
27 51 28
28 53 30
36 69 39
27 63 29
37 70 40
30 58 33
31 62 35
32 58 33
32 61 34
34 63 36
31 63 34
22 42 24
34 62 35
25 48 27
38 74 42
28 53 30
29 52 29
19 31 17
24 46 26
25 48 27
31 57 32
33 56 31
33 61 34
31 62 34
38 72 41
26 48 27
28 54 31
36 70 40
29 54 31
31 61 32
20 38 21
34 65 37
36 70 40
29 56 32
39 75 42
32 61 35
40 76 43
37 70 40
29 57 32
35 63 35
36 68 38
36 69 39
37 70 40
28 53 29
31 56 32
43 80 45
37 69 39
40 76 43
35 68 38
34 62 35
40 74 41
29 57 32
31 55 31
37 69 38
42 80 45
41 78 44
34 64 36
40 79 44
43 81 46
41 80 45
28 52 29
41 76 43
38 72 41
40 76 43
36 68 38
35 66 37
37 58 33
39 72 41
33 65 35
38 74 42
35 68 38
43 68 38
39 74 42
33 62 34
42 82 45
38 75 42
35 67 37
38 65 35
35 65 37
34 63 34
36 68 38
35 65 37
33 63 34
38 72 40
34 62 35
40 76 44
32 60 34
30 56 30
31 62 34
36 66 37
39 76 42
33 62 35
32 59 34
30 60 31
22 42 24
25 49 25
27 48 26
27 49 28
30 54 29
22 38 21
27 55 29
23 41 23
30 57 32
27 51 29
27 50 28
27 39 22
18 28 15
43 52 39
53 59 26
58 56 48
61 59 54
47 52 46
61 58 55
48 49 39
53 47 42
37 42 36
47 38 36
50 50 46
51 53 50
42 47 32
50 48 40
60 68 59
53 56 53
61 67 60
44 56 43
56 58 50
60 68 58
47 46 43
59 52 46
52 75 53
53 49 43
45 45 41
56 60 54
78 56 49
75 60 52
46 44 38
63 67 62
55 65 53
42 47 41
64 64 60
68 71 66
68 67 64
60 61 55
65 67 62
54 57 47
62 61 56
53 55 52
65 65 61
54 63 49
53 64 54
71 75 66
46 47 42
91 67 62
75 72 67
67 70 64
75 75 69
61 55 49
53 53 48
66 65 61
51 54 47
60 60 54
63 57 50
51 49 40
72 73 57
63 63 57
78 71 68
64 60 55
56 58 55
79 78 73
77 68 66
71 61 59
59 60 54
55 52 42
74 74 72
51 64 52
66 67 60
101 74 66
76 78 70
41 39 34
62 66 58
79 84 74
53 49 48
73 61 57
62 68 61
57 53 52
51 50 44
107 104 99
63 72 64
73 80 71
74 68 63
62 57 50
53 54 51
62 68 58
69 65 61
103 64 62
72 74 69
65 55 49
42 45 40
68 67 61
61 54 50
63 63 60
66 62 56
57 57 48
64 60 56
60 58 54
59 44 39
70 69 67
52 49 46
76 67 62
73 68 65
51 55 48
80 72 65
88 69 63
79 78 72
56 47 46
64 59 54
79 71 69
55 55 52
63 65 61
66 69 63
85 90 84
67 72 65
78 73 67
54 61 51
78 83 72
63 58 54
56 52 47
73 80 69
71 65 61
71 66 63
66 68 65
56 55 50
73 66 63
68 68 63
78 70 68
71 75 70
86 81 77
73 70 66
76 74 71
84 80 78
71 64 60
73 85 68
98 98 95
76 79 76
63 58 57
78 79 74
103 79 73
78 74 70
77 69 65
94 92 89
84 76 72
79 67 63
78 73 71
86 78 75
67 60 57
83 76 74
68 51 47
58 62 55
67 66 63
71 71 68
75 69 67
73 71 70
67 70 63
87 77 75
82 82 76
74 74 67
75 71 69
80 82 77
74 79 73
91 76 75
68 64 61
82 69 68
136 134 133
95 85 83
89 72 70
72 63 60
70 58 57
68 76 63
92 88 85
70 69 67
80 71 70
84 71 66
67 64 60
91 94 84
75 68 66
80 76 74
81 81 75
83 79 77
72 46 43
78 75 72
79 80 75
69 68 66
62 53 48
74 65 61
67 64 59
108 67 64
88 78 78
78 68 68
71 56 55
73 64 61
70 64 59
80 80 75
87 80 76
71 59 57
86 80 77
73 67 65
69 71 67
89 84 82
87 79 78
75 63 63
68 68 67
75 67 66
89 86 81
84 63 63
84 65 65
66 64 62
84 73 72
75 67 66
80 72 70
68 64 62
74 64 63
83 77 73
84 77 75
79 71 70
59 53 51
89 64 60
68 61 61
94 80 77
69 56 55
89 76 74
76 62 59
68 57 56
66 63 59
94 71 70
79 69 66
90 81 80
85 65 64
60 41 39
77 64 63
70 66 61
81 72 72
81 64 63
70 66 61
105 106 100
78 64 59
81 71 70
81 83 76
61 61 56
74 60 58
53 56 52
73 60 58
64 49 48
49 49 46
59 55 54
62 48 46
81 72 71
74 67 61
84 81 76
75 65 62
64 54 53
54 54 44
50 45 39
83 75 74
106 65 62
72 63 63
82 72 69
70 59 56
68 62 57
78 79 72
95 57 56
57 47 46
57 50 50
64 59 54
78 54 52
56 41 41
77 68 65
77 61 59
70 67 63
96 69 66
92 79 79
64 56 55
56 46 44
56 53 49
73 55 55
60 51 51
75 58 58
67 54 54
60 48 45
64 56 55
75 53 52
60 57 54
90 69 68
75 67 67
60 44 43
92 76 74
81 67 67
64 49 45
57 40 38
51 48 46
71 63 57
57 51 49
87 80 76
64 58 56
52 57 43
69 60 60
70 64 59
77 65 64
70 59 59
81 70 70
66 48 48
76 62 59
77 55 52
54 43 41
67 47 46
38 24 20
144 139 138
74 69 69
71 49 49
70 58 57
43 30 29
91 53 53
57 41 38
78 72 72
66 54 52
61 50 48
60 42 40
61 54 53
52 41 39
67 54 54
56 37 36
60 49 48
51 33 25
41 34 29
67 49 47
40 13 13
62 58 54
56 46 43
85 38 35
47 37 37
62 41 36
69 55 54
65 59 59
55 53 41
38 29 29
126 58 54
55 14 14
50 13 13
68 17 16
92 24 24
71 19 19
65 11 11
58 15 14
68 17 17
48 12 11
68 15 14
73 20 19
73 19 19
75 20 20
70 14 14
73 18 18
76 20 19
79 21 20
60 15 14
88 22 21
79 20 19
72 19 18
80 22 21
93 26 25
70 18 17
85 21 21
95 25 25
97 24 24
75 21 20
83 22 22
78 20 20
79 20 19
80 22 21
84 23 23
89 24 23
63 17 16
86 23 22
104 27 27
84 22 22
88 23 23
161 36 36
80 22 21
115 30 29
89 23 23
77 21 20
130 27 27
108 29 29
90 24 24
85 23 23
109 30 29
84 24 23
73 20 20
81 22 21
80 22 21
80 21 21
104 24 24
65 17 16
84 20 20
127 34 34
92 25 25
97 24 24
81 21 21
99 26 26
88 24 23
111 23 23
102 28 27
98 27 26
92 26 25
89 24 24
72 20 19
74 19 19
68 19 18
77 20 20
87 24 24
70 20 19
92 25 25
82 21 21
106 23 22
80 21 21
74 20 20
79 22 21
84 22 22
76 20 20
71 20 19
76 20 20
78 21 21
78 21 21
71 20 19
74 20 19
91 24 24
55 15 14
70 18 18
69 19 19
76 21 20
84 21 21
59 15 15
74 20 19
90 25 24
81 18 18
89 24 23
73 20 20
71 20 19
70 19 18
60 16 15
76 20 20
57 15 15
70 19 19
69 19 19
56 16 15
79 20 19
72 19 18
69 19 18
39 11 11
65 18 17
40 11 10
76 17 17
25 7 6
54 15 14
33 9 9
0 0 0
0 0 0
0 0 0
0 0 0
0 0 0
0 0 0
0 0 0
0 0 0
0 0 0
0 0 0
0 0 0
0 0 0
0 0 0
0 0 0
0 0 0
0 0 0
0 0 0
0 0 0
0 0 0
0 0 0
0 0 0
0 0 0
0 0 0
0 0 0
0 0 0
0 0 0
0 0 0
15 30 17
31 58 32
28 54 31
21 39 22
25 48 27
32 64 36
30 58 33
19 36 20
31 59 33
21 37 20
36 67 38
24 47 26
21 36 20
23 40 23
29 55 31
24 49 26
24 48 25
24 41 23
36 67 38
22 41 23
23 45 25
39 76 43
35 59 33
34 58 33
27 48 27
27 51 29
23 43 25
27 49 28
40 69 39
39 74 42
21 40 23
31 61 34
34 63 36
31 56 32
31 60 34
30 55 30
32 59 34
34 67 38
28 51 29
30 58 33
36 68 39
28 52 29
30 67 33
32 60 34
33 65 36
34 65 37
47 89 50
40 71 40
34 62 35
48 62 35
38 74 41
36 77 40
44 77 44
35 66 37
30 56 32
35 61 35
31 59 33
38 75 42
40 78 44
35 65 37
47 92 51
39 73 42
42 79 45
38 75 42
34 77 36
37 69 39
47 90 51
38 72 40
31 55 32
44 85 48
41 83 44
40 76 43
36 68 38
31 60 34
41 78 43
37 71 40
42 83 46
35 63 36
48 93 51
46 79 45
36 73 39
41 80 45
42 81 46
36 69 39
40 75 42
36 69 39
38 68 38
35 71 37
39 73 41
28 51 29
34 62 35
31 61 34
41 76 44
36 67 38
30 58 33
42 78 44
27 49 27
36 70 38
40 75 43
45 107 50
30 56 32
28 54 30
26 55 28
33 64 35
25 50 27
24 42 23
26 53 29
26 49 27
32 62 34
21 43 21
27 63 29
25 44 24
27 47 26
26 50 28
22 42 23
32 61 34
26 51 29
16 31 17
74 58 53
46 46 37
56 56 53
66 73 65
64 63 57
68 68 63
28 39 27
50 52 46
54 47 39
45 52 44
65 66 59
58 67 57
28 27 23
54 55 51
47 54 46
65 85 64
51 51 47
63 65 60
46 42 35
55 58 54
60 53 51
75 58 51
50 59 50
73 73 68
68 66 63
43 52 44
43 50 38
50 50 44
57 61 56
74 76 71
73 72 69
61 104 65
24 32 24
56 53 49
56 61 53
65 71 65
54 66 42
58 55 52
40 45 40
121 121 119
64 63 55
60 61 55
54 55 52
54 53 51
73 60 55
65 65 61
67 70 66
54 56 51
75 58 52
63 63 57
67 73 65
62 63 59
71 75 70
50 47 44
62 64 52
67 72 66
64 63 60
51 48 44
67 68 65
81 66 60
39 43 36
82 82 76
45 52 45
59 59 55
52 54 50
65 67 64
59 65 53
68 59 52
70 66 55
90 73 69
67 66 61
86 81 79
66 64 62
82 92 79
59 49 46
56 58 52
76 66 63
56 59 51
76 73 70
70 68 67
57 58 53
53 60 53
56 65 56
73 72 66
59 57 49
78 74 66
59 60 54
75 77 70
64 65 52
93 81 78
72 67 65
53 51 47
87 76 72
72 53 50
76 80 75
60 62 56
55 57 53
87 80 79
74 74 69
76 70 68
89 72 69
67 66 59
67 75 66
64 66 60
73 71 65
74 79 70
77 72 70
74 70 64
84 77 73
95 77 70
67 65 61
78 81 74
75 68 66
68 69 66
82 81 78
67 69 61
73 77 70
68 68 65
70 70 65
95 75 69
67 63 56
63 60 57
77 72 67
80 77 74
78 73 71
74 62 58
78 74 70
58 64 56
67 74 59
92 74 69
78 75 72
70 71 68
72 67 59
79 77 76
73 73 67
79 75 71
82 80 68
74 76 71
64 56 53
68 65 63
55 52 48
59 55 52
73 70 68
76 67 63
75 64 61
73 77 71
70 67 64
75 64 61
76 64 60
81 69 67
80 75 69
86 77 75
87 60 58
81 55 54
83 76 75
81 74 70
72 74 69
71 69 67
72 61 58
71 72 68
81 75 69
69 61 58
70 67 64
88 76 74
64 54 50
79 79 70
58 55 54
70 64 62
85 86 81
79 74 68
65 74 58
83 79 78
81 67 61
54 55 47
69 67 64
80 68 67
92 72 71
90 81 79
83 78 73
69 65 62
71 59 59
81 79 76
85 80 79
73 77 72
80 68 66
75 69 65
85 80 78
82 65 61
92 77 75
86 94 78
76 75 67
78 71 70
78 75 66
77 66 64
72 64 62
85 83 80
72 67 63
107 95 92
81 76 75
81 77 76
84 66 64
75 72 69
87 83 82
92 89 88
60 61 58
78 73 71
74 77 69
79 54 53
89 80 79
87 84 82
55 53 52
81 81 76
82 73 72
69 67 64
71 68 65
65 64 62
92 79 77
105 79 78
68 57 56
82 87 76
67 60 56
73 63 60
67 61 60
67 55 53
81 78 76
86 69 68
76 70 67
69 59 58
79 62 56
85 62 60
77 73 70
56 51 47
73 68 66
86 82 78
72 68 65
74 54 52
76 64 62
57 48 47
63 57 56
64 60 60
62 48 48
91 77 77
67 52 50
77 64 61
82 71 65
82 67 67
66 63 60
69 57 57
108 71 69
79 60 56
58 52 52
67 63 60
56 54 51
105 86 85
77 59 57
76 72 69
87 78 77
65 51 51
81 77 76
69 59 59
54 49 48
77 64 64
70 56 56
70 51 48
69 60 57
64 63 55
67 61 60
88 61 58
58 48 41
67 57 56
54 44 42
68 62 61
59 56 50
57 53 51
61 60 58
82 71 71
52 43 40
62 56 54
56 43 40
63 50 46
73 65 63
56 33 31
69 61 58
109 95 95
75 62 61
56 44 37
84 64 62
82 69 68
54 45 44
85 67 66
72 66 65
58 49 47
72 66 65
101 76 75
62 62 59
77 71 67
59 53 51
53 42 39
57 51 49
51 36 33
60 50 49
61 39 39
62 45 45
45 35 33
69 52 50
71 65 64
65 52 48
53 35 33
40 28 27
84 75 73
82 63 62
72 63 60
55 40 39
74 64 62
45 30 27
61 49 44
49 36 36
84 84 77
71 57 55
69 61 61
57 50 48
60 47 45
67 50 50
70 64 61
55 39 39
57 44 42
54 48 43
71 31 29
66 52 52
59 48 46
70 51 50
44 34 34
63 44 42
50 50 48
53 37 36
62 51 50
77 52 49
75 29 28
50 13 12
94 17 17
56 16 14
62 16 16
49 13 12
48 13 12
60 16 15
72 18 17
54 13 13
82 21 21
67 18 17
65 17 16
55 14 14
64 17 17
72 19 19
84 23 22
73 18 18
76 21 20
81 23 21
55 14 13
77 21 20
60 16 16
66 15 14
74 17 17
71 20 19
72 18 18
104 23 23
84 22 21
71 19 19
78 20 20
81 21 21
69 19 18
89 24 23
96 25 24
90 23 23
79 20 20
82 21 21
104 28 27
69 18 18
97 25 24
93 24 23
85 23 22
79 21 21
104 28 28
79 21 21
86 23 23
88 24 24
76 20 20
76 21 20
73 19 19
88 24 24
127 35 35
103 27 27
73 20 19
99 26 26
75 20 20
108 29 29
73 20 19
147 26 25
76 21 20
84 23 23
98 26 26
136 38 37
85 20 20
90 23 23
77 20 20
79 20 20
72 19 19
83 22 22
107 25 25
82 22 22
90 24 24
74 20 20
61 17 16
99 25 25
113 30 30
88 21 21
78 20 20
71 19 19
70 19 18
88 19 19
66 17 17
78 21 20
84 22 21
65 17 17
87 24 23
69 18 18
74 20 20
70 19 19
69 19 19
74 20 20
69 19 19
79 22 21
53 15 14
73 19 19
93 25 25
79 21 20
79 21 21
76 20 20
70 18 18
76 21 20
62 15 15
70 18 18
58 16 16
92 25 25
65 14 13
71 20 19
64 20 17
56 15 15
61 16 15
62 17 16
77 21 21
74 21 20
74 19 18
55 14 14
65 18 17
23 6 6
0 0 0
0 0 0
0 0 0
0 0 0
0 0 0
0 0 0
0 0 0
0 0 0
0 0 0
0 0 0
0 0 0
0 0 0
0 0 0
0 0 0
0 0 0
0 0 0
0 0 0
0 0 0
0 0 0
0 0 0
0 0 0
0 0 0
0 0 0
0 0 0
0 0 0
0 0 0
0 0 0
14 26 15
24 47 27
25 49 28
29 57 31
30 53 31
26 44 25
25 46 26
27 50 29
29 50 28
30 55 32
21 39 22
24 39 21
31 64 35
33 62 36
29 58 31
36 68 39
37 69 40
39 72 41
29 54 30
34 77 35
31 48 27
31 61 33
35 66 38
32 60 34
30 57 31
33 65 37
28 54 30
29 54 30
31 61 34
37 70 40
33 61 35
31 60 33
38 68 39
37 70 40
45 87 49
41 79 45
36 69 39
32 58 33
31 58 32
36 70 40
37 72 40
34 55 32
33 57 33
33 66 35
34 67 38
31 64 34
33 58 33
39 77 42
35 59 33
26 50 28
42 81 46
26 52 28
43 83 47
35 66 37
32 60 34
37 70 39
38 65 37
39 72 41
37 68 39
34 65 37
34 64 36
35 68 39
35 68 38
36 71 39
37 73 39
37 70 39
34 63 36
38 74 42
46 85 48
41 78 44
41 81 46
35 69 38
30 61 33
41 78 44
38 74 42
42 81 45
37 71 41
42 78 45
46 89 50
32 60 34
36 67 38
36 68 38
38 74 41
34 69 38
36 70 39
39 73 41
28 54 30
31 61 32
42 82 45
31 59 33
32 60 33
45 84 48
33 64 36
34 65 36
31 60 33
33 65 36
34 67 38
30 56 31
35 67 37
33 62 35
34 66 35
31 57 32
33 62 35
29 54 30
32 65 33
34 63 35
34 58 33
28 53 29
23 42 23
34 59 33
26 51 28
25 44 24
21 40 22
23 46 25
30 58 32
29 58 29
24 45 24
26 41 25
65 58 52
48 46 38
89 50 49
43 48 39
47 39 26
52 59 52
49 45 39
58 59 53
57 62 56
76 80 72
50 50 43
58 51 42
43 48 41
50 61 50
48 52 44
89 126 88
56 48 45
42 45 41
36 41 34
51 50 46
72 62 59
45 50 41
65 43 35
57 56 47
68 66 61
59 59 53
72 70 67
61 85 62
56 58 55
69 68 64
63 62 55
70 75 68
45 43 40
75 73 70
72 68 63
57 64 53
62 55 51
89 55 52
60 60 56
67 68 65
62 52 46
47 52 46
63 67 57
56 56 49
69 70 64
93 57 48
48 52 45
68 74 65
58 58 48
55 55 52
51 57 49
69 73 66
59 64 56
48 52 47
48 49 45
54 60 53
53 57 50
79 93 79
75 74 63
62 62 57
74 77 70
60 59 55
66 65 62
56 55 51
67 68 64
56 57 49
57 63 54
62 59 56
80 82 78
70 62 59
67 73 66
71 71 64
74 78 67
102 102 101
58 55 50
59 55 49
60 65 60
52 57 51
52 51 50
65 62 55
60 63 58
78 72 69
67 62 57
77 71 67
52 54 49
67 67 61
70 65 59
57 60 51
66 66 62
72 75 69
62 58 51
68 67 61
75 68 61
75 75 73
58 53 51
82 64 58
72 70 60
90 75 74
104 101 97
73 75 67
77 77 72
62 57 55
66 60 56
71 72 69
65 60 58
54 57 48
77 76 70
60 63 56
65 64 60
62 64 60
64 65 59
71 74 68
69 71 66
57 60 52
84 87 76
70 65 61
80 82 76
81 72 68
74 69 69
53 54 52
87 85 82
77 80 71
84 81 78
82 82 78
93 88 84
72 62 60
60 51 49
109 108 105
82 85 80
87 73 69
87 83 78
72 74 69
81 74 70
101 88 86
73 72 67
68 73 65
63 62 61
70 67 64
67 63 58
53 54 50
66 64 61
76 75 69
82 80 76
76 73 71
97 91 84
78 68 63
87 69 63
64 65 62
93 85 81
64 55 53
79 81 77
84 57 56
103 92 91
73 73 72
82 78 74
79 75 72
70 65 62
72 71 69
60 57 50
84 78 77
82 82 75
78 75 71
85 84 78
78 77 72
70 69 64
79 74 72
102 89 85
60 64 57
56 58 48
84 76 71
85 83 79
82 80 78
85 88 81
74 77 72
79 77 76
80 77 73
81 81 79
84 82 81
84 83 79
66 54 51
98 84 81
107 76 71
94 83 81
105 73 71
77 70 66
93 69 68
83 79 76
78 66 63
92 66 63
83 72 71
83 74 73
84 84 82
84 78 74
90 89 86
90 74 70
60 58 55
77 71 70
68 68 63
75 73 67
67 55 51
52 43 42
77 74 69
92 88 85
82 79 75
70 63 62
83 83 75
81 78 77
84 76 73
80 79 64
75 64 59
80 73 70
100 88 87
67 58 56
84 71 69
112 65 62
61 51 49
65 48 47
75 68 66
81 73 71
77 62 62
73 70 66
72 62 61
87 80 76
64 59 59
81 79 74
126 65 64
75 69 67
66 54 53
72 65 61
88 71 70
109 63 62
63 86 58
71 66 63
79 72 71
83 74 72
80 67 60
77 71 70
68 51 51
73 64 63
69 64 63
65 61 59
86 76 76
65 58 56
96 70 69
68 63 60
91 80 77
78 74 74
69 64 61
55 44 42
102 74 74
58 69 56
71 49 49
69 63 60
76 53 52
72 66 64
71 70 65
74 55 55
67 65 64
78 57 56
62 53 52
72 66 65
58 51 50
110 57 48
52 49 48
69 56 55
74 58 57
83 68 67
83 76 76
59 53 50
64 63 61
65 58 54
75 72 71
72 66 65
66 50 50
64 55 51
56 52 52
86 79 78
56 53 50
57 54 51
69 62 60
72 66 65
78 62 60
60 50 50
80 79 77
68 60 59
70 58 58
57 54 51
63 53 50
58 53 53
255 255 255
69 54 54
75 70 61
83 71 71
65 51 48
71 40 39
67 51 48
52 34 31
37 22 20
77 64 58
57 54 54
86 81 81
58 48 46
70 55 51
46 32 32
52 27 26
42 37 33
80 69 62
73 45 43
72 67 67
61 54 54
79 63 59
58 51 49
90 45 41
82 79 74
69 62 59
58 46 43
75 63 61
50 38 32
57 44 39
71 46 46
64 51 50
57 43 40
81 39 36
68 58 56
50 38 38
79 36 34
60 53 52
70 53 50
43 34 31
54 46 45
87 44 43
69 55 55
74 62 61
51 35 31
47 22 16
64 50 50
71 39 35
53 14 13
63 13 13
45 10 9
72 16 15
56 14 13
47 12 11
52 13 12
74 17 17
72 17 17
75 20 18
62 15 14
80 21 21
69 20 18
67 19 18
84 22 21
70 18 18
81 21 21
88 23 23
85 19 18
68 18 18
74 19 18
80 21 21
89 21 21
68 18 17
75 20 19
72 20 19
93 25 25
87 23 23
88 23 23
82 20 20
84 22 22
86 21 20
88 23 23
77 20 20
96 26 25
80 22 22
88 24 24
104 27 27
89 24 24
95 22 22
102 27 27
81 21 21
89 24 23
82 22 21
84 23 23
107 29 29
82 21 21
95 26 26
80 21 21
95 25 25
83 22 22
96 26 25
90 24 24
81 21 21
83 22 21
84 22 22
88 24 24
84 23 23
95 25 25
92 25 24
83 22 21
80 21 21
87 23 23
92 26 25
95 25 24
80 22 22
86 23 22
99 27 27
83 22 22
66 17 17
77 21 20
83 23 22
68 19 18
67 18 17
100 28 27
69 19 18
77 20 20
74 20 19
82 28 22
69 19 18
77 21 21
84 21 21
71 20 19
89 24 24
81 21 21
57 14 13
67 18 18
73 20 19
96 26 25
87 24 24
72 19 19
55 16 15
69 18 18
56 15 14
59 16 15
92 24 24
77 21 20
103 21 20
57 16 15
65 18 17
70 17 17
66 18 18
78 22 21
64 18 17
63 16 16
66 18 18
71 20 19
72 19 19
68 19 18
66 19 17
60 16 16
79 21 21
55 15 14
54 14 14
56 15 15
66 17 17
78 17 17
47 15 13
0 0 0
0 0 0
0 0 0
0 0 0
0 0 0
0 0 0
0 0 0
0 0 0
0 0 0
0 0 0
0 0 0
0 0 0
0 0 0
0 0 0
0 0 0
0 0 0
0 0 0
0 0 0
0 0 0
0 0 0
0 0 0
0 0 0
0 0 0
0 0 0
0 0 0
0 0 0
0 0 0
12 20 11
17 32 18
17 34 19
28 46 26
33 57 33
27 53 30
34 62 36
29 52 30
22 35 20
25 47 27
23 45 25
25 49 27
34 64 36
38 71 40
29 50 29
30 54 30
33 65 36
18 32 19
35 63 36
31 57 32
21 39 21
32 60 34
28 54 30
35 68 38
31 47 26
40 78 44
30 57 32
26 46 26
31 62 34
34 67 38
43 81 46
30 58 33
26 47 25
27 49 28
31 60 34
35 66 37
72 140 80
37 70 40
31 54 31
31 57 32
34 68 37
31 51 29
37 70 40
36 67 38
35 65 37
32 60 34
28 57 32
35 67 37
30 60 33
36 68 39
32 60 33
42 81 46
40 77 44
37 71 40
37 72 41
35 68 39
30 57 31
37 74 41
37 70 39
45 89 49
47 90 51
35 68 38
37 73 40
30 55 32
35 65 37
31 58 33
36 66 37
33 61 34
37 72 41
40 77 44
35 66 36
38 68 38
35 64 37
35 66 36
37 71 41
38 70 39
34 64 36
40 73 42
33 63 34
36 71 39
39 74 41
45 84 48
39 73 41
36 69 38
36 69 39
30 57 32
27 55 29
35 65 37
28 48 26
35 69 39
37 70 39
32 60 34
30 58 32
41 78 44
32 60 33
33 64 36
37 72 41
26 50 27
36 67 38
32 59 33
41 65 37
25 45 24
27 54 29
30 51 28
30 56 31
27 46 26
30 64 33
37 55 30
30 57 32
25 53 26
25 47 25
19 34 18
23 45 24
24 47 25
35 67 37
37 67 38
19 36 20
32 38 28
33 39 33
34 46 34
51 54 51
64 45 39
27 34 23
55 56 52
51 54 48
41 47 40
51 57 45
46 61 47
57 59 55
55 54 46
54 62 55
66 81 66
57 55 47
72 70 58
50 47 43
79 81 69
65 68 55
57 58 55
58 72 56
44 41 35
43 47 43
48 46 40
42 42 35
55 46 43
57 61 55
50 48 44
58 47 43
57 56 53
69 64 60
57 53 50
70 65 62
44 47 41
47 51 47
45 40 35
59 69 58
55 55 50
81 80 65
47 44 29
59 63 58
57 56 52
35 37 32
72 68 65
65 70 63
53 51 45
57 56 52
64 62 55
45 51 45
54 53 48
58 58 53
64 64 62
72 78 66
39 45 37
59 61 58
53 59 53
48 57 46
56 50 45
89 60 58
48 58 47
94 63 61
52 56 50
72 61 56
113 65 59
52 52 45
49 59 49
58 53 48
57 59 51
75 79 73
54 60 50
67 70 63
65 59 49
64 67 62
77 74 71
62 54 48
53 54 46
68 61 55
81 73 71
66 57 52
60 62 57
69 64 56
76 78 74
71 61 56
75 72 69
55 49 44
81 90 76
69 69 64
69 80 69
83 75 73
106 70 66
40 43 37
57 59 53
74 80 74
59 91 52
96 93 90
62 61 55
80 79 77
73 70 68
99 85 77
61 65 59
86 74 71
66 61 60
85 82 76
63 63 61
72 63 61
68 62 59
78 74 71
53 51 49
62 63 59
78 69 67
69 61 58
78 66 60
70 69 59
83 71 65
74 72 68
75 73 66
60 59 56
72 71 68
62 64 61
84 70 68
88 82 81
85 79 79
60 56 51
70 70 64
75 74 70
86 81 76
78 73 65
72 75 70
75 72 71
115 108 106
81 78 76
80 79 75
101 92 87
71 64 62
65 66 63
64 63 58
97 80 74
95 84 81
165 71 69
71 70 68
115 107 105
70 64 61
80 79 76
78 70 68
70 68 64
98 92 88
77 72 71
73 73 71
77 73 70
81 67 64
65 63 60
79 81 76
70 72 62
63 59 56
83 79 78
83 85 83
79 68 66
83 69 63
77 83 73
76 74 73
76 68 66
75 66 63
78 77 74
78 79 75
70 67 65
86 87 82
85 80 77
85 81 76
69 56 54
77 73 69
64 62 57
69 68 66
78 74 70
72 73 67
65 65 61
74 73 68
86 78 76
93 90 87
65 59 55
109 103 101
87 79 76
73 64 60
90 85 84
74 63 58
93 74 72
70 58 56
85 77 73
103 78 78
76 78 71
73 63 62
88 86 85
83 80 73
76 76 73
108 93 92
82 69 67
64 66 58
60 55 52
78 70 69
89 74 74
80 77 74
90 73 69
78 67 65
77 70 65
77 68 67
76 54 52
78 70 68
74 70 69
86 79 76
64 63 62
131 65 64
72 71 67
64 55 49
72 68 65
74 73 69
96 76 75
85 77 74
69 68 67
81 73 72
65 55 54
82 57 57
52 44 43
91 86 82
89 69 68
90 86 82
62 52 50
85 80 78
74 70 67
53 58 46
74 64 62
78 76 64
91 71 69
73 72 68
111 69 66
93 78 77
69 62 62
71 52 46
69 60 58
75 67 66
89 84 84
82 66 64
75 69 63
71 62 62
68 64 61
93 78 78
84 74 70
69 58 54
63 59 55
68 60 58
94 75 72
124 123 121
76 61 60
79 71 69
65 72 49
66 61 60
63 57 55
76 58 55
63 60 56
70 64 57
105 78 77
78 71 69
102 86 86
65 60 58
77 69 68
62 53 42
81 61 58
64 61 58
55 53 46
72 61 58
75 67 67
78 63 62
65 58 57
73 65 64
62 57 51
86 69 63
75 68 66
58 45 44
57 48 47
58 55 51
74 61 60
78 58 58
62 54 52
50 42 42
66 59 58
87 78 78
81 75 73
69 64 64
76 71 69
83 72 71
82 62 60
57 38 34
65 55 45
74 63 61
71 66 66
46 43 40
55 40 37
74 60 59
82 64 64
51 38 36
49 40 36
68 63 59
57 56 50
51 53 47
67 56 55
55 52 50
60 45 43
56 46 46
64 53 53
81 71 70
63 60 58
65 56 56
77 66 65
63 45 45
64 54 53
48 39 37
63 47 45
63 54 50
43 44 29
40 29 27
52 37 33
51 36 36
54 41 40
81 72 69
46 29 25
68 55 53
48 47 43
33 39 26
74 69 68
79 66 66
65 53 52
81 63 60
65 51 49
43 25 21
56 35 34
76 63 61
71 53 53
63 40 40
56 50 46
58 26 26
56 14 14
64 13 12
40 8 8
62 16 15
48 8 8
80 21 21
75 20 19
52 12 12
80 21 21
79 21 20
69 17 17
63 16 16
74 20 19
69 18 18
73 19 19
66 17 17
64 16 16
83 21 20
103 26 25
78 19 19
83 22 21
77 20 20
75 20 20
67 17 16
81 22 22
104 28 28
197 54 54
91 24 24
67 17 17
89 23 23
101 26 26
100 27 27
91 25 25
103 27 27
83 22 22
70 17 16
97 24 23
95 25 25
90 24 23
85 23 23
79 21 21
85 21 21
75 20 20
85 22 22
82 23 22
92 25 24
91 23 23
89 24 23
85 24 23
98 26 26
94 26 25
86 20 20
93 23 22
104 29 28
86 23 23
87 24 23
90 23 23
97 26 26
108 30 29
96 26 25
88 21 21
84 23 22
82 23 22
95 26 25
61 17 16
88 24 23
106 35 29
87 24 23
101 27 26
86 23 23
66 17 17
85 21 20
79 20 20
87 24 23
76 20 19
91 26 25
62 17 16
69 19 18
75 21 20
71 19 18
78 21 20
66 18 17
93 24 24
52 13 13
59 16 15
86 21 21
78 20 20
59 16 16
88 24 24
71 20 18
70 19 19
64 18 17
78 22 21
78 21 21
58 16 15
92 22 22
75 20 20
70 18 18
73 20 19
84 23 22
64 17 17
88 23 23
64 17 16
95 18 17
32 8 7
71 19 19
67 19 18
56 15 14
65 17 17
50 14 13
77 21 20
67 18 18
60 16 16
49 12 12
94 24 24
59 17 16
35 7 7
0 0 0
0 0 0
0 0 0
0 0 0
0 0 0
0 0 0
0 0 0
0 0 0
0 0 0
0 0 0
0 0 0
0 0 0
0 0 0
0 0 0
0 0 0
0 0 0
0 0 0
0 0 0
0 0 0
0 0 0
0 0 0
0 0 0
0 0 0
0 0 0
0 0 0
0 0 0
0 0 0
12 14 7
27 52 30
28 48 27
21 38 21
22 43 24
20 33 18
26 48 27
33 60 34
17 28 16
32 63 35
27 51 29
27 52 29
27 53 29
31 55 31
31 57 31
29 46 26
31 59 33
33 67 36
33 61 35
36 69 39
35 54 30
29 58 32
36 65 37
29 53 30
28 52 30
37 60 34
25 53 27
27 53 30
31 60 33
32 62 35
32 57 32
35 67 37
35 64 37
25 47 27
35 70 38
38 71 40
34 61 35
41 68 38
35 67 37
31 61 35
43 80 45
29 57 32
40 76 43
37 72 40
33 64 36
38 70 40
35 69 39
36 67 38
37 70 40
34 66 37
44 83 47
31 59 33
34 66 37
39 76 43
44 85 48
41 77 44
42 77 44
36 69 39
32 60 34
37 72 40
39 74 42
33 59 34
33 62 35
35 69 38
35 61 35
39 74 42
37 88 41
42 81 46
43 84 48
39 74 42
38 71 41
38 67 38
35 69 38
39 76 42
43 78 45
36 69 39
36 66 37
36 73 40
38 72 41
35 67 38
41 74 42
36 69 39
36 81 40
35 65 37
37 71 40
31 57 32
31 60 34
41 76 42
33 68 37
37 70 39
32 60 33
38 74 42
32 61 34
34 67 38
40 74 41
32 61 33
35 67 38
36 73 40
35 65 37
33 64 36
34 61 34
25 48 26
30 61 34
31 57 30
37 65 37
30 56 32
27 53 28
26 55 28
32 60 33
30 57 31
31 51 28
22 42 22
31 61 34
27 48 27
54 106 60
25 45 25
26 48 26
26 39 26
52 57 52
39 41 34
57 58 54
45 51 40
55 58 53
53 58 53
66 80 61
39 43 38
69 73 69
66 73 63
46 58 45
62 57 51
43 46 38
60 63 54
59 58 53
47 52 47
50 55 50
71 63 57
51 55 50
73 71 68
48 51 47
53 54 48
52 61 52
43 52 39
58 61 53
72 55 49
47 50 41
57 58 53
56 56 44
55 57 51
59 66 57
54 56 49
74 67 62
56 58 53
56 59 54
63 62 58
67 67 61
60 61 59
48 50 45
56 57 55
67 72 65
43 48 41
45 50 45
75 65 60
69 70 57
69 63 58
45 41 33
67 71 64
61 57 55
53 48 40
50 51 47
68 80 62
66 65 62
75 78 71
52 56 51
51 50 40
64 76 65
59 51 48
55 62 49
64 64 57
68 72 61
53 51 41
90 91 80
46 46 37
67 55 49
62 63 56
82 73 68
69 68 64
74 69 68
58 58 55
64 76 64
62 66 56
87 77 73
62 63 56
77 58 54
80 78 69
74 75 66
71 64 59
69 69 66
85 81 76
73 64 58
87 66 56
64 70 64
76 69 67
79 77 75
70 75 68
60 61 56
74 59 57
75 73 71
54 55 42
63 60 59
78 70 63
75 73 66
72 56 54
65 67 59
55 55 49
73 65 60
72 73 68
74 63 61
79 71 69
62 63 56
55 59 53
72 71 67
87 75 73
74 66 63
79 77 76
74 76 69
53 49 48
89 86 78
72 75 69
74 69 68
63 63 60
71 68 64
61 64 59
82 64 60
74 66 65
75 67 64
104 72 68
87 77 75
79 79 75
68 65 59
72 62 62
81 67 60
76 72 68
77 80 75
77 90 73
66 68 63
81 83 81
80 76 73
60 65 54
72 66 65
77 78 72
94 90 88
62 56 55
82 82 78
79 76 72
81 79 76
96 80 75
99 91 87
81 73 70
77 74 71
71 67 66
58 57 53
70 67 65
65 68 63
92 59 57
71 68 60
73 73 69
81 77 77
77 74 72
94 85 83
81 78 77
76 75 71
71 68 63
66 63 59
82 81 76
82 80 78
75 71 67
78 72 70
82 81 76
78 78 75
106 88 86
81 79 75
67 60 58
86 72 69
69 66 64
70 76 66
99 102 90
60 54 52
86 81 79
83 81 79
75 76 73
93 92 88
75 60 59
85 71 68
139 134 133
76 62 61
77 72 67
67 58 57
77 68 63
125 87 81
71 67 63
71 67 62
60 58 53
75 69 68
86 83 72
94 90 87
98 77 76
65 61 57
70 67 62
75 73 69
83 79 78
65 63 59
115 112 112
78 78 73
76 75 74
60 57 55
88 84 83
87 83 80
76 76 74
76 70 68
54 56 53
70 67 66
101 100 91
66 61 59
100 90 89
66 59 57
69 62 61
73 68 66
82 74 70
89 80 75
80 64 62
78 77 75
76 69 67
93 72 72
84 79 77
70 59 56
75 73 72
87 67 66
76 61 57
83 76 73
78 73 72
78 70 66
91 82 81
95 74 73
74 58 57
88 71 67
64 63 60
80 71 69
74 62 61
93 85 83
74 72 68
66 57 55
103 98 95
81 80 76
71 70 64
82 63 61
57 44 41
72 70 68
78 71 70
65 60 56
70 49 44
68 61 59
64 51 48
63 61 52
68 57 57
74 72 64
69 61 60
69 66 64
58 52 49
57 56 53
75 63 60
90 77 76
155 147 144
55 49 48
65 63 57
77 60 59
98 91 90
67 56 52
77 62 60
92 85 84
58 51 48
69 65 64
71 67 63
88 77 74
76 72 63
87 83 80
62 52 47
72 57 54
72 53 52
86 70 69
82 68 66
81 76 76
65 53 50
67 59 58
54 46 41
69 51 49
59 53 49
62 54 52
87 59 55
62 59 57
66 60 58
71 55 54
79 66 66
76 69 67
60 50 49
74 62 58
58 49 49
78 64 63
51 42 40
77 74 73
76 68 68
94 85 83
63 41 33
66 61 58
82 68 68
74 69 64
63 47 46
56 43 39
76 73 66
74 69 69
82 59 57
71 62 62
89 61 53
47 39 37
66 60 60
61 57 51
98 62 55
65 64 57
85 61 58
55 50 50
66 56 53
59 52 48
45 32 30
87 73 72
76 68 68
68 55 55
80 97 69
46 26 26
55 42 41
53 41 41
50 36 35
45 34 34
63 53 52
80 41 40
65 54 51
65 46 45
49 31 31
45 36 33
69 58 56
61 48 46
67 55 55
78 56 54
55 45 43
43 35 31
54 46 44
57 54 50
59 27 27
57 14 13
39 10 8
54 13 12
89 24 23
62 15 14
65 17 17
78 20 20
61 15 15
108 23 19
70 18 18
69 19 19
63 16 15
66 18 17
84 22 21
79 21 21
79 20 19
80 21 21
83 19 19
65 15 14
98 24 24
82 22 22
67 17 17
75 21 20
95 25 25
92 24 24
95 24 24
92 25 24
72 20 19
85 23 23
119 32 32
86 22 21
101 27 26
92 24 23
81 20 20
84 22 21
96 25 25
110 21 21
89 22 22
92 25 25
90 24 23
86 23 23
92 25 25
80 21 21
83 22 21
93 24 24
91 24 23
88 23 23
81 23 22
81 21 20
98 24 24
92 25 24
97 25 24
94 25 25
71 19 19
96 23 23
80 21 20
80 22 21
79 21 20
83 21 21
73 20 20
90 25 24
67 17 17
85 22 22
81 22 22
99 26 26
77 20 20
86 23 23
88 18 17
90 24 23
89 24 23
97 26 26
62 17 16
84 23 22
95 26 25
94 25 25
70 18 17
83 22 22
64 18 17
67 19 18
69 17 16
75 21 20
79 20 20
82 22 21
70 19 19
84 23 23
100 27 26
124 24 24
71 19 19
81 22 22
65 17 16
70 19 19
68 19 18
75 20 20
64 18 17
52 15 14
80 22 21
76 21 20
52 14 14
60 19 17
54 15 14
70 19 18
65 17 16
76 20 20
67 17 17
56 16 15
72 18 18
75 20 20
70 19 18
60 16 16
60 15 15
61 17 16
53 14 14
44 12 11
42 10 10
68 19 18
78 21 21
49 13 13
0 0 0
0 0 0
0 0 0
0 0 0
0 0 0
0 0 0
0 0 0
0 0 0
0 0 0
0 0 0
0 0 0
0 0 0
0 0 0
0 0 0
0 0 0
0 0 0
0 0 0
0 0 0
0 0 0
0 0 0
0 0 0
0 0 0
0 0 0
0 0 0
0 0 0
0 0 0
0 0 0
16 32 18
18 28 15
34 66 37
24 45 25
27 51 29
25 47 26
22 40 22
33 59 34
33 67 35
33 47 27
30 60 33
24 40 23
25 45 25
19 30 17
35 68 39
29 50 29
36 64 37
21 37 20
27 51 29
32 61 35
26 47 26
24 46 26
28 55 30
28 52 29
28 46 26
30 57 32
33 60 33
29 55 31
31 62 34
34 55 32
24 45 24
33 58 33
26 48 27
44 85 48
33 63 36
32 59 33
36 64 37
34 67 37
31 53 30
36 70 39
36 65 37
37 69 39
40 74 43
30 61 34
37 69 39
43 82 46
50 97 56
43 83 47
41 78 45
34 60 33
43 85 47
40 65 37
29 57 32
32 58 33
28 55 30
37 72 40
27 53 28
40 77 44
32 64 35
37 69 39
42 81 46
40 74 42
35 70 39
47 74 41
45 88 50
39 73 40
32 62 35
32 58 33
39 72 41
44 84 48
38 70 39
38 70 40
45 86 49
32 62 34
44 86 47
43 82 47
43 80 45
46 91 51
38 73 41
37 75 41
117 225 130
35 66 37
56 112 62
33 64 34
35 62 34
39 73 41
34 64 37
30 60 33
51 76 43
32 58 32
33 66 36
34 63 35
38 72 41
35 68 38
32 63 35
35 64 36
29 53 30
36 66 37
37 73 40
40 77 43
32 63 35
27 48 27
29 52 29
32 64 33
27 53 30
36 59 34
31 58 33
29 53 30
22 41 20
31 58 32
32 63 35
27 51 29
31 46 26
18 35 18
25 46 24
28 52 29
28 54 31
27 40 28
53 50 47
53 56 52
49 55 48
63 65 63
44 49 44
51 51 50
41 44 39
45 55 46
48 48 44
74 62 53
46 43 37
48 49 44
39 50 40
57 64 54
39 39 36
55 58 50
65 67 59
62 37 32
66 70 65
69 71 69
56 52 39
57 64 57
53 51 46
35 37 24
65 72 63
53 55 49
70 67 61
60 66 60
58 61 55
67 54 49
71 74 66
53 51 45
61 47 43
54 57 49
59 55 51
53 48 46
56 73 52
37 34 28
55 58 55
50 52 48
41 38 35
66 66 62
61 63 60
56 61 55
68 73 66
87 81 76
63 67 63
63 60 57
56 55 49
44 44 39
88 85 84
64 58 51
87 71 61
64 68 61
75 70 59
72 66 62
99 62 59
84 85 73
64 57 53
81 77 73
49 45 41
53 61 54
54 55 50
76 78 71
51 52 47
56 62 56
38 38 33
53 45 40
60 60 57
74 68 64
78 73 71
99 94 88
62 61 55
59 56 51
55 56 48
64 61 59
80 85 75
64 72 62
65 63 61
75 76 70
58 58 56
70 74 67
72 74 67
75 72 65
77 74 64
85 75 69
79 86 79
81 86 77
58 56 51
91 83 81
75 76 69
66 67 56
91 71 69
73 77 64
83 76 74
66 63 59
70 68 65
84 81 78
75 73 67
86 87 84
74 75 73
67 62 60
86 73 71
80 81 75
73 64 62
65 64 61
74 72 70
66 69 62
70 61 59
82 81 77
66 63 60
69 73 66
86 72 71
75 70 67
61 64 59
68 70 64
81 80 75
89 88 84
71 68 64
77 74 73
96 93 91
62 62 60
80 82 76
80 81 77
75 71 65
83 82 75
74 76 73
62 62 58
60 87 57
104 94 87
73 74 68
68 64 63
82 79 78
61 70 60
71 62 59
85 71 67
67 69 65
85 75 74
104 68 63
78 76 73
83 75 72
98 82 77
62 59 55
74 71 67
89 80 74
72 73 68
95 104 89
70 65 58
86 89 84
78 76 75
65 62 62
85 78 78
95 82 72
84 81 79
59 60 57
88 80 74
87 84 81
76 81 76
79 76 74
102 92 89
84 79 76
73 62 60
91 81 80
97 93 90
91 82 79
79 73 71
70 64 59
82 76 71
76 79 76
80 78 77
90 90 85
77 76 71
83 72 69
63 66 55
73 69 65
88 94 81
69 68 66
61 50 50
80 77 75
79 75 73
117 110 108
80 75 72
102 86 84
73 70 65
97 87 85
61 61 56
82 70 67
64 56 54
79 66 54
80 68 65
69 64 59
102 95 93
92 83 79
147 77 74
88 79 76
81 81 79
89 81 80
70 67 66
79 80 77
107 90 85
69 65 63
91 87 85
76 68 63
78 62 60
126 91 88
82 59 57
76 68 65
78 79 74
81 79 75
72 65 65
83 75 70
66 61 60
97 94 92
73 72 62
62 61 59
64 59 57
84 76 75
75 71 69
77 74 73
98 83 81
122 101 101
62 53 49
74 66 64
85 81 79
53 50 48
67 60 60
84 81 79
67 58 55
86 72 71
72 67 66
65 59 57
87 76 74
67 58 58
89 67 66
84 69 68
86 70 69
74 70 69
83 68 66
69 63 62
68 66 63
70 63 60
61 51 50
80 74 72
85 90 78
71 63 62
81 73 71
82 76 74
69 62 56
92 68 68
45 39 36
74 65 63
63 57 54
71 52 40
58 53 50
84 72 70
95 66 65
72 65 56
68 56 55
127 122 122
68 58 55
73 66 64
100 83 82
118 118 115
81 74 67
94 79 78
78 71 68
72 65 64
51 28 27
57 43 35
73 67 47
77 67 67
82 68 65
70 59 58
82 75 69
96 79 79
70 63 61
43 32 29
72 68 65
77 57 57
54 38 35
54 37 37
80 67 66
93 74 73
50 41 38
58 44 44
136 130 128
60 50 50
72 66 62
63 55 51
55 49 47
85 75 74
80 71 71
65 53 46
71 53 53
63 48 48
60 55 52
61 44 44
70 64 61
65 61 59
72 63 62
64 54 51
100 54 52
55 57 52
61 48 48
53 39 38
92 71 67
52 49 46
43 27 26
65 53 50
67 57 55
51 41 41
67 53 52
98 88 85
70 55 50
65 64 58
73 66 61
67 52 49
43 35 34
70 89 62
64 56 54
54 48 37
82 76 74
64 53 46
60 50 47
62 42 40
37 26 25
62 51 50
65 64 60
69 55 55
81 64 63
87 82 78
59 57 51
68 44 44
59 53 50
54 38 35
50 35 33
58 47 45
64 17 12
70 12 11
55 12 12
60 15 14
49 14 12
75 18 17
59 14 14
72 19 18
57 14 13
69 17 17
58 16 15
78 18 18
67 18 17
104 21 21
79 22 21
70 19 18
80 20 19
73 19 18
70 19 18
86 20 19
82 19 18
90 24 24
75 20 20
89 24 24
89 22 22
100 25 25
85 22 22
67 18 17
91 20 20
77 20 20
78 21 20
86 22 22
83 22 22
85 23 22
79 21 20
82 23 22
147 38 38
96 25 24
89 24 23
81 22 22
86 24 23
85 23 22
78 22 20
90 25 24
81 21 21
103 27 26
84 22 21
94 24 24
80 22 22
80 21 20
94 26 26
81 22 22
87 23 22
76 21 20
102 24 23
94 26 25
101 27 27
91 24 24
86 23 23
79 22 21
79 24 21
98 26 25
97 26 26
84 23 22
78 21 20
90 24 24
84 23 22
76 21 21
79 21 21
84 23 22
85 22 22
91 24 24
106 25 24
87 23 23
80 22 22
73 21 20
83 22 22
114 23 22
70 18 18
81 21 21
92 25 24
83 22 22
63 18 17
82 21 21
89 25 24
76 20 19
95 26 25
76 21 20
92 25 24
66 18 18
84 23 22
70 18 17
71 19 18
81 23 22
76 21 20
74 20 20
88 24 24
73 18 18
79 21 21
68 19 18
75 21 20
83 22 21
59 16 16
69 19 18
62 17 17
68 19 19
62 16 16
65 18 17
74 17 16
55 15 14
53 15 14
61 17 15
63 16 15
59 16 16
78 20 20
57 15 14
81 20 20
42 12 11
0 0 0
0 0 0
0 0 0
0 0 0
0 0 0
0 0 0
0 0 0
0 0 0
0 0 0
0 0 0
0 0 0
0 0 0
0 0 0
0 0 0
0 0 0
0 0 0
0 0 0
0 0 0
0 0 0
0 0 0
0 0 0
0 0 0
0 0 0
0 0 0
0 0 0
0 0 0
0 0 0
23 45 26
23 42 24
28 48 27
24 44 25
23 43 24
31 60 34
25 42 24
26 47 27
32 56 31
29 54 31
29 55 31
32 58 33
24 45 25
30 54 31
27 51 29
32 61 33
33 66 37
24 49 27
40 71 40
30 56 32
25 40 22
35 67 38
29 55 31
30 56 29
31 58 33
26 47 27
31 58 33
28 50 28
38 74 42
27 52 28
38 72 41
32 60 34
29 53 30
23 41 23
32 59 33
30 59 33
35 61 35
35 67 38
35 69 38
35 63 36
38 70 40
32 57 32
37 69 39
38 73 41
44 77 44
32 62 35
38 72 40
39 75 41
66 127 73
34 65 36
38 75 41
39 72 41
31 57 32
35 70 39
34 66 37
43 82 46
52 68 36
44 84 47
41 78 44
33 57 33
45 83 48
36 65 37
37 72 40
37 71 40
36 69 39
36 68 38
47 90 51
46 85 48
36 66 37
50 78 44
39 77 43
40 77 44
41 75 43
33 62 34
37 69 39
34 67 37
42 77 44
40 79 44
35 68 38
37 68 38
48 87 49
39 76 43
37 71 40
38 73 39
35 70 38
31 58 33
43 83 47
31 55 29
34 63 33
40 75 43
42 77 44
30 57 32
38 72 40
36 72 40
34 68 36
31 60 34
35 69 38
30 57 32
36 66 36
33 64 36
39 73 41
26 49 28
31 53 30
38 75 42
28 52 29
36 60 34
21 42 22
34 56 31
22 42 22
32 60 34
28 45 24
27 52 29
40 76 42
25 52 27
28 50 28
19 34 18
25 50 28
43 50 37
43 45 38
59 83 61
58 53 48
51 44 40
41 47 31
71 68 67
55 55 51
51 54 49
45 47 43
61 69 57
66 78 66
51 49 43
88 66 61
89 69 63
68 67 64
65 65 62
56 57 54
57 68 58
51 52 48
68 52 44
46 43 39
52 55 51
46 59 43
61 62 59
60 53 48
48 47 43
47 43 38
47 45 41
67 73 68
61 67 61
62 62 58
60 62 59
53 48 42
56 50 43
46 50 45
66 63 61
64 67 64
56 59 53
51 60 47
54 58 53
63 57 53
60 67 60
61 65 56
65 65 60
59 67 57
78 79 72
62 65 60
81 73 65
54 49 46
65 74 58
80 65 62
61 64 60
85 89 79
67 68 64
50 53 46
63 64 62
38 42 38
77 74 66
61 63 57
70 70 65
57 53 48
66 68 60
57 54 50
55 61 54
69 63 59
73 76 64
83 72 71
70 67 64
43 45 38
72 71 69
72 70 65
74 78 72
42 44 41
68 68 65
60 60 54
57 61 51
69 53 52
74 61 58
66 63 60
78 75 70
83 84 80
67 61 60
56 55 47
57 57 53
73 77 70
78 78 71
75 72 66
72 71 68
69 72 66
77 73 69
57 57 48
84 79 74
83 68 65
76 84 75
74 69 67
75 79 74
78 81 73
70 68 61
71 67 64
65 66 63
79 79 68
64 67 60
77 76 71
69 69 66
75 70 67
66 67 65
85 82 80
74 69 61
74 78 72
58 58 55
92 87 85
86 81 79
71 71 67
56 53 51
71 70 64
77 87 74
84 81 79
84 82 81
76 75 66
80 76 74
130 114 112
72 78 65
93 81 77
88 56 51
63 56 54
78 75 71
83 85 80
91 89 83
75 73 71
74 71 66
73 67 67
74 76 72
82 78 74
68 68 63
89 83 80
80 78 74
65 60 55
76 74 70
77 78 74
80 79 76
90 93 82
73 74 73
79 71 68
94 91 87
119 86 73
83 93 77
83 70 68
76 73 70
83 80 78
70 66 64
83 72 65
90 82 81
93 93 90
89 77 71
104 80 77
88 77 74
74 70 68
88 84 83
93 87 82
89 83 81
87 82 82
75 69 67
78 71 70
80 73 68
61 51 49
104 92 89
71 63 58
85 89 79
67 63 59
74 66 66
67 60 59
77 68 64
84 89 83
82 88 78
77 64 63
76 64 61
68 56 54
88 82 79
74 70 62
79 70 69
100 81 79
84 71 67
65 64 62
77 69 67
67 63 61
72 62 60
89 84 83
90 84 82
97 85 83
83 74 72
72 67 65
92 92 69
84 75 72
73 72 71
70 56 54
68 65 63
89 70 70
106 99 96
68 62 58
65 51 49
93 89 86
76 65 61
88 82 81
82 73 72
70 60 57
80 72 70
76 54 53
86 73 71
61 62 56
70 62 61
66 58 56
78 69 65
79 73 72
88 82 76
62 59 58
74 66 63
64 60 59
107 99 98
88 81 79
64 64 59
64 57 57
99 92 91
89 80 76
75 76 71
63 62 55
75 68 68
78 75 71
74 65 65
66 63 62
154 76 75
70 64 62
71 63 61
77 66 65
101 82 81
63 52 47
128 88 85
76 66 64
69 59 57
63 48 44
76 82 74
91 75 73
78 59 58
97 94 91
72 65 56
58 49 44
97 67 66
88 84 82
62 57 55
86 76 75
72 72 68
82 75 74
78 66 63
70 62 58
68 53 51
67 56 54
62 44 42
68 62 61
75 75 65
80 68 65
71 64 62
84 81 79
78 77 72
60 44 43
86 85 76
70 57 57
82 60 59
71 66 66
80 59 56
47 42 41
71 68 67
71 53 53
76 61 60
59 50 49
74 72 65
88 76 73
62 57 56
65 62 57
70 56 54
84 76 75
87 72 72
87 80 79
63 63 61
73 59 58
75 60 58
73 41 41
66 49 49
64 47 46
61 46 45
59 43 42
79 61 59
85 77 76
64 48 44
48 39 39
55 39 37
63 60 56
75 51 49
65 65 53
82 77 73
62 52 49
53 36 36
90 72 66
62 47 44
70 54 52
69 63 57
78 71 70
60 42 40
64 60 60
79 58 56
67 58 56
58 47 44
48 37 35
65 56 54
91 46 45
58 48 46
59 49 46
70 51 51
56 49 44
49 34 33
70 55 55
61 52 50
255 98 98
55 49 49
67 48 48
72 64 60
63 58 52
56 40 39
82 73 71
66 52 44
48 36 35
63 45 45
70 55 54
66 34 34
98 52 50
61 55 53
68 60 60
47 37 37
66 50 42
62 17 16
60 16 15
70 14 13
64 16 15
89 16 16
71 18 18
60 15 14
61 16 15
79 21 21
77 19 19
67 18 17
88 24 23
76 20 20
70 15 14
83 23 21
62 17 16
83 20 20
72 19 18
77 21 19
81 20 19
89 22 22
86 23 23
72 19 19
82 22 21
79 22 21
86 18 18
77 19 18
122 33 33
82 21 21
95 25 25
74 19 18
87 24 23
63 16 15
98 26 26
101 28 27
96 26 25
102 28 27
98 27 26
79 22 21
92 24 23
98 27 26
86 23 22
93 25 25
71 20 19
84 23 22
88 23 23
82 19 19
86 23 23
100 26 25
125 34 33
109 29 29
68 18 18
100 26 26
104 29 28
92 24 24
95 26 25
86 23 23
93 23 23
104 24 24
86 23 23
89 23 23
73 19 19
76 20 20
86 23 22
85 23 22
97 25 25
85 21 21
77 21 21
74 17 17
84 22 21
75 21 20
93 25 25
83 23 22
72 19 19
76 20 20
78 20 20
86 20 20
80 22 21
67 19 18
75 20 19
64 16 16
49 13 13
72 19 18
68 18 18
63 18 17
81 22 22
87 24 23
93 25 25
111 20 19
71 20 19
74 21 20
91 23 22
86 23 23
62 17 16
75 21 20
90 26 25
72 19 19
76 21 21
71 19 18
63 16 16
90 24 24
41 12 11
62 17 16
54 14 14
82 22 22
61 17 16
71 19 19
75 20 20
61 17 17
72 19 19
73 20 20
63 18 17
67 18 17
51 15 14
51 13 13
71 19 18
52 14 13
35 9 9
0 0 0
0 0 0
0 0 0
0 0 0
0 0 0
0 0 0
0 0 0
0 0 0
0 0 0
0 0 0
0 0 0
0 0 0
0 0 0
0 0 0
0 0 0
0 0 0
0 0 0
0 0 0
0 0 0
0 0 0
0 0 0
0 0 0
0 0 0
0 0 0
0 0 0
0 0 0
0 0 0
16 31 17
38 71 40
24 41 23
48 91 52
28 56 31
29 54 30
31 56 32
27 46 26
30 56 32
30 56 31
23 43 24
36 64 35
29 53 30
30 59 33
26 49 27
31 60 33
33 66 36
25 47 27
41 81 45
27 52 29
31 59 33
36 69 39
30 52 30
26 47 27
20 39 22
33 59 34
38 72 41
30 49 28
35 66 37
33 60 33
40 74 42
41 62 35
34 63 36
34 64 36
35 68 38
34 63 35
43 85 47
25 49 27
34 65 37
53 102 58
37 69 39
38 72 41
34 62 36
35 67 38
27 52 30
36 66 37
39 69 39
28 51 29
32 64 36
32 61 35
32 58 33
43 78 44
39 78 42
42 80 45
33 66 37
34 66 37
31 56 31
39 74 42
36 70 40
37 65 37
38 73 42
47 91 52
34 66 36
37 75 40
39 75 42
35 66 37
38 72 40
38 70 40
34 63 35
40 75 43
45 83 47
42 80 44
40 76 43
36 71 39
42 80 46
39 75 43
38 68 39
37 72 41
33 60 33
40 77 44
42 80 45
42 76 42
35 67 38
36 72 40
34 65 37
41 77 44
35 67 37
39 77 43
37 76 40
37 71 40
29 56 31
33 64 36
33 64 36
34 62 34
41 79 45
27 51 28
34 63 35
42 82 46
41 80 45
30 54 30
26 45 25
36 67 37
31 58 32
24 49 26
32 61 34
30 59 32
32 60 34
34 67 36
33 64 35
27 51 28
26 48 25
30 57 32
27 49 28
19 34 18
27 51 28
27 47 25
16 31 17
25 32 20
52 55 49
43 38 33
41 49 41
57 60 56
46 44 36
50 57 50
64 63 54
44 46 41
46 47 43
56 60 53
68 51 44
61 56 49
60 50 44
44 48 39
66 67 60
56 58 50
59 62 57
69 73 68
54 52 44
38 37 29
61 69 61
60 56 50
53 59 51
66 68 65
46 46 38
67 72 58
58 60 53
55 61 53
69 79 68
44 47 43
55 62 52
56 50 49
61 65 57
68 66 59
60 61 58
83 97 73
66 72 63
81 91 80
65 67 62
70 72 67
80 75 70
60 53 47
43 52 40
63 69 59
59 62 59
63 69 60
50 61 50
86 86 81
65 70 62
50 52 47
52 59 42
63 63 58
82 79 76
60 57 52
82 80 76
67 49 46
42 48 39
63 57 54
70 66 63
55 55 52
67 65 64
78 80 76
96 142 100
62 70 60
60 71 55
82 75 72
81 73 68
72 71 65
78 82 76
103 57 49
73 74 69
68 72 65
78 87 78
56 49 46
84 82 79
57 50 43
63 67 61
68 75 65
59 56 53
64 62 60
68 69 65
81 74 72
56 55 50
59 67 56
83 67 64
69 67 61
78 84 72
91 76 72
74 78 74
72 74 71
61 58 56
82 79 76
85 82 73
63 57 55
55 57 51
98 78 74
84 105 82
62 66 61
93 88 86
46 46 44
86 75 68
74 74 73
65 57 53
75 74 70
75 82 72
83 71 66
93 134 94
64 61 58
73 70 67
82 75 67
89 86 81
76 76 73
85 82 77
82 75 71
80 75 70
64 65 61
71 73 69
53 52 44
83 85 77
89 80 77
84 78 75
78 79 75
70 68 65
94 92 87
61 62 58
78 67 61
80 67 64
91 90 84
87 91 87
78 75 72
74 77 74
79 81 79
77 71 70
70 67 65
90 90 83
72 74 69
78 78 74
61 56 52
68 65 64
92 87 83
62 59 56
88 75 69
97 82 78
139 75 72
93 88 86
100 71 67
118 88 83
81 69 68
79 75 72
101 82 80
76 80 73
86 83 80
79 77 74
60 61 54
78 81 77
96 93 93
97 72 70
94 78 76
85 81 77
94 97 91
88 86 82
67 62 61
79 78 75
81 82 79
70 66 62
105 84 81
87 83 82
60 62 55
70 65 64
86 84 83
79 77 75
78 76 75
79 75 73
86 85 83
83 84 73
65 63 62
74 69 68
76 87 72
85 79 76
69 67 65
84 76 75
93 80 76
74 67 67
80 76 74
76 73 69
80 75 73
72 60 59
88 79 78
84 87 83
78 76 70
63 60 58
80 77 71
62 58 56
81 76 75
73 74 69
75 77 68
98 91 89
85 80 78
99 99 94
92 94 89
72 57 56
79 71 69
98 83 79
108 81 80
60 57 55
73 71 69
80 66 64
87 83 80
85 75 73
83 70 66
95 85 84
78 72 71
69 60 58
78 66 64
70 75 67
83 78 76
87 78 76
89 80 78
85 70 65
77 67 67
68 61 61
76 69 68
77 72 69
73 64 62
74 62 60
79 73 72
94 82 79
67 62 58
67 54 51
97 100 87
84 65 61
79 76 75
79 77 74
59 56 54
70 61 58
81 74 73
86 82 80
84 82 79
68 66 63
70 67 66
79 64 61
70 66 63
75 71 69
74 67 65
76 70 66
71 61 57
89 77 73
91 84 83
77 71 65
56 51 49
105 64 63
104 100 100
64 64 63
84 76 75
60 55 52
67 51 49
79 61 59
89 80 77
60 54 52
62 56 55
79 66 64
70 64 59
87 74 73
100 55 54
60 51 50
73 64 60
81 68 68
61 57 57
54 51 50
87 64 63
57 55 49
59 45 41
82 68 65
65 61 59
80 71 69
120 67 67
70 68 63
73 60 58
55 44 42
99 72 72
73 65 63
61 54 51
53 47 46
69 53 53
83 71 69
62 50 48
78 83 78
54 53 52
79 80 65
77 70 69
65 56 54
79 67 65
60 58 54
58 28 26
83 57 55
70 57 55
75 73 68
63 54 52
62 32 29
71 54 51
49 45 43
52 52 44
71 59 58
63 55 55
51 46 42
83 61 60
55 48 47
77 62 62
59 51 51
85 68 66
72 67 62
78 67 66
73 66 61
97 74 73
75 65 64
82 50 49
99 74 74
67 56 56
43 39 38
59 55 55
68 51 50
76 61 60
82 46 45
68 62 57
59 34 30
60 48 44
62 47 46
65 60 60
66 49 48
54 33 33
71 64 63
51 36 36
64 47 46
82 68 65
68 62 61
85 72 72
50 44 43
55 14 13
71 18 18
69 18 17
57 12 12
67 16 16
55 12 12
79 17 16
69 18 18
64 16 16
58 15 15
81 21 21
65 18 17
67 17 16
74 19 19
59 15 14
91 22 22
84 20 19
94 24 24
61 15 15
62 16 15
61 16 15
73 19 19
54 14 14
68 19 18
118 31 31
77 18 18
80 21 21
78 20 19
82 23 22
81 22 21
86 22 22
91 24 24
80 22 21
95 26 26
112 30 30
86 23 23
97 27 26
100 26 25
89 23 23
78 21 21
78 21 19
82 23 22
85 23 23
93 25 25
86 22 22
116 31 31
86 22 22
80 22 22
98 27 25
89 24 24
98 25 25
92 24 24
112 31 30
110 24 24
81 22 22
94 25 25
71 20 19
82 22 22
118 30 30
64 18 17
99 27 27
85 23 23
83 23 23
79 21 20
76 20 19
92 25 25
95 26 26
81 22 22
73 16 15
88 23 22
81 22 22
95 22 21
91 24 23
73 20 19
81 22 22
73 20 19
82 22 22
80 23 22
72 20 19
62 17 16
56 15 15
68 18 18
67 16 16
90 25 24
71 18 18
78 21 21
87 23 23
67 17 17
97 26 25
86 23 23
75 21 20
64 18 17
73 20 19
78 20 20
81 21 20
74 20 20
75 20 20
80 22 21
86 23 23
68 18 18
65 17 17
82 23 22
63 19 17
57 15 14
59 16 16
58 15 15
68 19 18
75 20 20
59 16 15
77 22 21
68 19 18
71 18 18
61 17 17
59 16 16
58 15 15
75 20 20
37 10 10
39 11 10
0 0 0
0 0 0
0 0 0
0 0 0
0 0 0
0 0 0
0 0 0
0 0 0
0 0 0
0 0 0
0 0 0
0 0 0
0 0 0
0 0 0
0 0 0
0 0 0
0 0 0
0 0 0
0 0 0
0 0 0
0 0 0
0 0 0
0 0 0
0 0 0
0 0 0
0 0 0
0 0 0
25 40 23
25 40 22
22 41 23
23 39 22
27 49 28
25 46 26
28 50 29
23 43 24
36 64 36
31 51 28
28 53 30
30 56 32
26 49 26
32 58 32
35 68 39
27 56 30
30 58 32
24 42 24
31 62 35
35 63 36
36 68 39
35 66 38
38 55 31
38 74 42
34 60 34
35 66 37
37 61 35
27 48 28
35 66 37
29 51 29
36 67 38
36 69 39
29 52 30
31 56 32
37 67 38
37 67 38
37 73 41
25 48 27
33 60 34
33 61 34
32 55 31
41 77 44
38 72 40
30 59 33
35 68 38
35 64 33
38 74 42
36 71 40
36 72 40
46 88 51
34 60 34
38 72 41
38 73 42
42 80 44
34 62 35
35 69 38
34 67 38
44 81 45
30 63 32
40 73 41
37 67 38
34 66 37
44 84 48
38 74 42
37 69 39
43 86 47
30 61 33
44 81 46
34 66 37
40 75 43
37 64 36
36 67 37
45 88 49
42 79 45
39 74 41
35 68 38
38 70 39
37 70 39
41 63 34
43 75 42
39 74 42
47 88 50
39 73 41
37 72 41
43 80 45
32 65 34
41 79 44
36 68 38
36 73 39
31 64 35
37 66 38
43 84 48
39 73 41
39 73 41
40 79 44
34 63 35
36 67 38
35 62 34
37 70 39
29 55 30
31 61 34
37 67 37
23 38 21
31 59 33
26 50 27
28 55 30
26 50 27
26 57 26
34 71 35
29 50 28
33 62 35
26 48 27
26 52 27
28 56 30
26 45 24
41 79 45
18 34 18
32 47 32
59 57 50
59 74 60
59 45 39
47 52 45
55 57 49
58 63 55
54 36 31
64 66 64
48 57 42
62 53 46
60 60 57
63 64 60
45 50 43
75 78 73
49 59 48
61 62 59
52 56 49
63 66 63
33 46 33
73 92 72
48 49 43
48 50 42
74 60 56
55 56 50
56 51 48
79 79 74
74 64 60
60 61 56
50 60 47
66 58 55
54 58 51
52 56 47
75 62 56
46 51 46
45 50 43
56 56 51
48 45 39
57 66 50
74 79 74
76 75 66
60 63 59
58 55 52
67 64 57
75 65 60
79 76 69
92 78 74
65 61 58
74 76 69
51 58 39
51 54 48
76 76 74
71 76 70
53 52 45
69 57 52
56 55 51
80 88 77
69 72 67
71 72 61
58 62 48
54 54 48
67 67 63
70 66 63
70 72 66
57 60 55
82 52 48
57 57 49
77 73 66
65 73 62
81 90 80
51 46 45
69 70 64
76 73 64
53 59 52
88 90 86
56 48 43
77 59 55
75 75 72
79 82 76
71 68 63
66 64 60
73 69 67
77 75 69
71 100 71
92 83 79
74 73 70
91 76 73
85 86 83
63 60 56
73 77 69
72 69 64
72 67 64
80 82 77
73 80 69
73 66 62
70 65 60
71 72 68
75 77 72
96 95 94
78 80 75
53 61 52
96 91 86
90 80 77
86 80 76
78 90 69
72 70 67
80 83 77
74 69 68
87 87 84
74 71 69
86 83 76
72 74 70
81 79 75
84 84 80
76 80 73
75 67 64
74 74 70
96 96 91
255 255 255
70 70 66
78 75 74
81 79 78
76 70 66
75 77 70
82 76 73
82 73 71
77 75 70
62 66 59
61 60 57
99 94 92
82 75 71
73 71 70
83 77 76
99 94 92
113 79 77
82 69 62
77 75 72
87 83 80
94 85 81
90 80 79
94 86 83
91 90 89
75 69 64
74 75 67
79 68 64
66 67 62
83 80 78
81 80 77
83 83 78
79 76 72
90 83 78
84 80 77
64 58 57
85 77 75
73 70 68
107 84 82
74 60 59
95 64 60
75 74 69
96 89 87
79 76 72
70 71 68
87 77 75
79 76 74
62 58 57
85 86 81
74 71 68
83 84 80
70 60 57
